backend/luts/anamorphic.cube
TITLE "Anamorphic"
LUT_3D_SIZE 9
DOMAIN_MIN 0.0 0.0 0.0
DOMAIN_MAX 1.0 1.0 1.0
0.031275 0.031275 0.095887
0.063126 0.030693 0.090069
0.200584 0.041744 0.095867
0.335788 0.055265 0.104115
0.468244 0.068510 0.112069
0.598825 0.081568 0.119814
0.727987 0.094485 0.127393
0.856006 0.107286 0.134832
0.980943 0.119780 0.141933
0.033046 0.113604 0.087362
0.071823 0.114180 0.082149
0.207174 0.123997 0.086157
0.342212 0.138019 0.094349
0.474563 0.151772 0.102248
0.605068 0.165341 0.109936
0.734169 0.178768 0.117455
0.862138 0.192083 0.124827
0.980943 0.204481 0.131245
0.046615 0.249289 0.090564
0.091643 0.249843 0.085308
0.217417 0.250397 0.080028
0.348631 0.260719 0.084490
0.480878 0.274442 0.092325
0.611307 0.287983 0.099944
0.740348 0.301385 0.107387
0.869668 0.315373 0.113571
0.980943 0.329488 0.119780
0.059803 0.381173 0.093302
0.111055 0.381715 0.087997
0.236516 0.382257 0.082662
0.357819 0.382799 0.077294
0.487189 0.393726 0.082273
0.618733 0.407825 0.088885
0.753993 0.424277 0.097085
0.888044 0.440607 0.110490
0.980943 0.452821 0.119780
0.072762 0.510765 0.095711
0.130212 0.511299 0.090344
0.255377 0.511834 0.084939
0.377465 0.512770 0.078696
0.502392 0.515975 0.073283
0.637420 0.531003 0.085428
0.772499 0.547393 0.098936
0.906401 0.563665 0.112326
0.980943 0.574000 0.119780
0.085557 0.638715 0.097828
0.149924 0.639543 0.091781
0.281038 0.642713 0.085957
0.408041 0.645882 0.086274
0.532694 0.649050 0.086591
0.656081 0.652604 0.087294
0.790984 0.668944 0.100784
0.924740 0.685169 0.114160
0.980943 0.693638 0.119780
0.098506 0.768206 0.098506
0.181491 0.771347 0.098820
0.311825 0.774487 0.099135
0.438438 0.777626 0.099448
0.562829 0.780765 0.099762
0.685633 0.783904 0.100076
0.809446 0.789282 0.102630
0.943061 0.805467 0.115992
0.980943 0.811763 0.119780
0.111577 0.898911 0.111577
0.212785 0.902027 0.111889
0.342434 0.905143 0.112200
0.468682 0.908258 0.112512
0.592823 0.911373 0.112823
0.715439 0.914487 0.113135
0.835049 0.917273 0.113413
0.956296 0.923511 0.117315
0.980943 0.928310 0.119780
0.119780 0.980943 0.119780
0.238768 0.980943 0.119780
0.367497 0.980943 0.119780
0.493092 0.980943 0.119780
0.614981 0.980943 0.119780
0.734284 0.980943 0.119780
0.852472 0.980943 0.119780
0.969737 0.980943 0.119780
0.980943 0.980943 0.119780
0.044594 0.044594 0.229084
0.077694 0.044038 0.223519
0.203473 0.043481 0.217947
0.337036 0.055389 0.224835
0.469471 0.068633 0.233050
0.600038 0.081690 0.241072
0.729188 0.094605 0.248945
0.857197 0.107406 0.256697
0.980943 0.119780 0.264016
0.043501 0.124256 0.218152
0.082880 0.124217 0.212573
0.208452 0.124323 0.207133
0.343459 0.138341 0.215600
0.475790 0.152092 0.223791
0.606280 0.165659 0.231791
0.735369 0.179086 0.239644
0.863329 0.192399 0.247376
0.980943 0.204678 0.254066
0.046636 0.249501 0.211423
0.092876 0.250054 0.206444
0.218587 0.250608 0.201459
0.349876 0.261033 0.206337
0.482104 0.274754 0.214504
0.612518 0.288294 0.222482
0.741548 0.301695 0.230313
0.873238 0.316869 0.235323
0.980943 0.330626 0.235897
0.059824 0.381380 0.214721
0.112282 0.381922 0.209727
0.237683 0.382464 0.204726
0.358959 0.383006 0.199717
0.488414 0.394035 0.205186
0.622364 0.409304 0.210610
0.757589 0.425752 0.213937
0.891611 0.442079 0.217107
0.980943 0.453935 0.215766
0.072783 0.510969 0.217762
0.131433 0.511503 0.212753
0.256542 0.512037 0.207735
0.380944 0.513992 0.200147
0.505817 0.517196 0.190274
0.641046 0.532464 0.192427
0.776091 0.548851 0.195659
0.909964 0.565120 0.198729
0.980943 0.575098 0.195460
0.085577 0.638916 0.220610
0.153630 0.640752 0.213198
0.284584 0.643921 0.203322
0.411510 0.647090 0.193409
0.536111 0.650258 0.183455
0.659701 0.654053 0.174083
0.794571 0.670389 0.177205
0.928299 0.686611 0.180157
0.980943 0.694724 0.174938
0.098626 0.769403 0.216246
0.185162 0.772544 0.206331
0.315357 0.775684 0.196376
0.441897 0.778823 0.186376
0.566239 0.781962 0.176326
0.689007 0.785100 0.166222
0.813030 0.790717 0.158534
0.946464 0.806860 0.161585
0.980943 0.812660 0.159727
0.111696 0.900099 0.209196
0.216427 0.903215 0.199195
0.345953 0.906331 0.189145
0.472133 0.909446 0.179040
0.596228 0.912560 0.168873
0.718772 0.915668 0.158700
0.837295 0.918263 0.153654
0.958665 0.924638 0.152366
0.980943 0.929200 0.149241
0.119780 0.980943 0.196989
0.242267 0.980943 0.186574
0.370886 0.980943 0.176098
0.496417 0.980943 0.165551
0.617168 0.980943 0.160118
0.736449 0.980943 0.154791
0.854618 0.980943 0.149438
0.971868 0.980943 0.144058
0.980943 0.980943 0.138645
0.057513 0.057513 0.358267
0.091847 0.056968 0.352826
0.217568 0.056424 0.347381
0.338649 0.055879 0.341932
0.470699 0.068756 0.349900
0.601250 0.081811 0.358043
0.730388 0.094725 0.366040
0.858388 0.107525 0.373920
0.980943 0.119780 0.381250
0.056444 0.137397 0.347581
0.097051 0.137370 0.342132
0.222425 0.137343 0.336679
0.344706 0.138663 0.332569
0.477016 0.152412 0.340884
0.607492 0.165978 0.349011
0.736569 0.179403 0.356994
0.864520 0.192716 0.364861
0.980943 0.204936 0.371454
0.055374 0.258428 0.336879
0.102222 0.258381 0.331421
0.227271 0.258333 0.325959
0.351122 0.261348 0.323555
0.483330 0.275067 0.331852
0.613730 0.288605 0.339963
0.742748 0.302005 0.347932
0.876808 0.318365 0.351524
0.980943 0.331764 0.352040
0.059844 0.381587 0.331703
0.113507 0.382129 0.326837
0.238851 0.382671 0.321967
0.360100 0.383213 0.317093
0.489639 0.394343 0.322802
0.625995 0.410783 0.326807
0.761184 0.427227 0.330429
0.895177 0.443550 0.333911
0.980943 0.455049 0.332551
0.072803 0.511172 0.334998
0.132653 0.511707 0.330123
0.257708 0.512241 0.325244
0.384421 0.515214 0.316092
0.509241 0.518418 0.306516
0.644671 0.533926 0.309226
0.779682 0.550309 0.312791
0.913527 0.566574 0.316218
0.980943 0.576196 0.312981
0.085598 0.639118 0.338113
0.157329 0.641961 0.329131
0.288127 0.645130 0.319552
0.414977 0.648298 0.309954
0.539528 0.651466 0.300335
0.663321 0.655501 0.291565
0.798157 0.671834 0.295070
0.931858 0.688053 0.298438
0.980943 0.695810 0.293321
0.098746 0.770601 0.332463
0.188828 0.773741 0.322863
0.318886 0.776881 0.313243
0.445355 0.780020 0.303601
0.569649 0.783158 0.293938
0.692380 0.786296 0.284251
0.816612 0.792151 0.277257
0.948834 0.807994 0.282594
0.980943 0.813557 0.280773
0.111815 0.901287 0.326049
0.220065 0.904403 0.316406
0.349469 0.907519 0.306741
0.475582 0.910634 0.297053
0.599631 0.913748 0.287340
0.721037 0.916657 0.279562
0.839542 0.919252 0.274789
0.961034 0.925765 0.273928
0.980943 0.930090 0.270872
0.119780 0.980943 0.314451
0.245762 0.980943 0.304452
0.374272 0.980943 0.294429
0.498703 0.980943 0.286175
0.619355 0.980943 0.281143
0.738613 0.980943 0.276104
0.856764 0.980943 0.271058
0.973998 0.980943 0.266005
0.980943 0.980943 0.260944
0.070197 0.070197 0.485107
0.105760 0.069661 0.479749
0.231421 0.069125 0.474387
0.352481 0.068588 0.469023
0.471926 0.068878 0.464482
0.602463 0.081932 0.472702
0.731589 0.094845 0.480778
0.859579 0.107644 0.488738
0.980943 0.119780 0.496032
0.069144 0.150295 0.474584
0.110975 0.150276 0.469220
0.236293 0.150258 0.463853
0.357205 0.150239 0.458482
0.478243 0.152732 0.455622
0.608703 0.166296 0.463829
0.737769 0.179720 0.471893
0.865710 0.193032 0.479842
0.980943 0.206119 0.484554
0.068091 0.271336 0.464050
0.116157 0.271297 0.458680
0.241154 0.271258 0.453306
0.361924 0.271218 0.447929
0.484555 0.275379 0.446750
0.614941 0.288916 0.454943
0.746262 0.303462 0.461443
0.880376 0.319860 0.465147
0.980943 0.332902 0.465484
0.067036 0.388964 0.453504
0.121311 0.388914 0.448127
0.246005 0.388864 0.442747
0.366635 0.388814 0.437364
0.492991 0.395672 0.436473
0.629624 0.412261 0.440429
0.764778 0.428701 0.444225
0.898742 0.445021 0.447890
0.980943 0.456163 0.446364
0.072823 0.511376 0.449788
0.133873 0.511910 0.444997
0.260719 0.513231 0.438854
0.387896 0.516436 0.429468
0.512663 0.519639 0.420069
0.648296 0.535387 0.423203
0.783271 0.551766 0.426956
0.917088 0.568029 0.430579
0.980943 0.577294 0.427192
0.085686 0.639999 0.451888
0.161021 0.643169 0.442499
0.291668 0.646338 0.433097
0.418443 0.649506 0.423683
0.542943 0.652673 0.414255
0.666940 0.656950 0.405924
0.801743 0.673279 0.409632
0.935416 0.689495 0.413212
0.980943 0.696895 0.407963
0.098866 0.771798 0.446001
0.192487 0.774938 0.436584
0.322413 0.778078 0.427154
0.448812 0.781217 0.417710
0.573057 0.784355 0.408253
0.695752 0.787493 0.398780
0.820193 0.793586 0.392249
0.951204 0.809128 0.399520
0.980943 0.814454 0.397583
0.111933 0.902475 0.439953
0.223697 0.905591 0.430507
0.352983 0.908706 0.421047
0.479030 0.911821 0.411573
0.603032 0.914935 0.402084
0.723301 0.917647 0.396345
0.841788 0.920241 0.391693
0.963403 0.926892 0.391094
0.980943 0.930980 0.387929
0.119780 0.980943 0.428631
0.249253 0.980943 0.418846
0.377656 0.980943 0.409046
0.500918 0.980943 0.402855
0.621541 0.980943 0.397944
0.740776 0.980943 0.393029
0.858910 0.980943 0.388111
0.976128 0.980943 0.383187
0.980943 0.980943 0.378260
0.082715 0.082715 0.610290
0.119505 0.082185 0.604993
0.245103 0.081655 0.599694
0.366141 0.081125 0.594392
0.484746 0.080595 0.589088
0.603675 0.082053 0.585771
0.732789 0.094965 0.593905
0.860770 0.107763 0.601922
0.980943 0.119780 0.609158
0.081675 0.163023 0.599889
0.124725 0.163011 0.594588
0.249985 0.162998 0.589284
0.370876 0.162986 0.583977
0.489389 0.162972 0.578668
0.609915 0.166615 0.577013
0.738969 0.180038 0.585136
0.866901 0.193348 0.593145
0.980943 0.207301 0.595998
0.080634 0.284068 0.589479
0.129914 0.284036 0.584172
0.254858 0.284004 0.578864
0.375606 0.283971 0.573553
0.494027 0.283937 0.568239
0.616152 0.289227 0.568246
0.749860 0.304961 0.573243
0.883945 0.321355 0.577067
0.980943 0.334040 0.577174
0.079592 0.401706 0.579059
0.135076 0.401663 0.573748
0.259720 0.401619 0.568435
0.380330 0.401575 0.563119
0.502398 0.402890 0.554010
0.633252 0.413739 0.552351
0.768371 0.430175 0.556270
0.902306 0.446492 0.560061
0.980943 0.457277 0.558312
0.078549 0.517285 0.568630
0.140211 0.517234 0.563314
0.268267 0.518448 0.554401
0.393979 0.520267 0.543753
0.517308 0.522084 0.533095
0.651919 0.536848 0.535375
0.786860 0.553224 0.539258
0.920649 0.569483 0.543015
0.980943 0.578392 0.539412
0.085807 0.641208 0.563434
0.164706 0.644377 0.554169
0.295207 0.647546 0.544893
0.421907 0.650714 0.535608
0.546357 0.653880 0.526313
0.670558 0.658398 0.518360
0.805328 0.674724 0.522205
0.938974 0.690936 0.525927
0.980943 0.697872 0.521581
0.098985 0.772995 0.557791
0.196141 0.776135 0.548504
0.325937 0.779275 0.539207
0.452267 0.782413 0.529899
0.576465 0.785551 0.520582
0.699124 0.788689 0.511253
0.823170 0.794869 0.505981
0.953574 0.810261 0.514191
0.980943 0.815350 0.512096
0.112052 0.903663 0.551999
0.227325 0.906779 0.542690
0.356495 0.909894 0.533371
0.482476 0.913008 0.524040
0.605977 0.916041 0.515446
0.725566 0.918636 0.510875
0.844034 0.921230 0.506302
0.965771 0.928018 0.505921
0.980943 0.931870 0.502600
0.119780 0.980943 0.540830
0.252740 0.980943 0.531189
0.380686 0.980943 0.522114
0.503133 0.980943 0.517284
0.623727 0.980943 0.512451
0.742940 0.980943 0.507616
0.861055 0.980943 0.502778
0.978258 0.980943 0.497937
0.980943 0.980943 0.493093
0.095105 0.095105 0.734193
0.133118 0.094580 0.728945
0.258654 0.094055 0.723695
0.379668 0.093530 0.718443
0.498261 0.093005 0.713190
0.615192 0.092479 0.707934
0.733990 0.095085 0.705807
0.861961 0.107882 0.713871
0.980943 0.119780 0.721034
0.094075 0.175620 0.723888
0.138342 0.175613 0.718637
0.263545 0.175606 0.713383
0.384413 0.175598 0.708127
0.502913 0.175590 0.702870
0.619775 0.175582 0.697610
0.740169 0.180355 0.697130
0.869135 0.194201 0.704498
0.980943 0.208483 0.706198
0.093043 0.296668 0.713576
0.143536 0.296641 0.708321
0.268425 0.296613 0.703063
0.389152 0.296586 0.697804
0.507560 0.296558 0.692542
0.625031 0.296786 0.686592
0.753457 0.306459 0.683798
0.887512 0.322850 0.687716
0.980943 0.335177 0.687564
0.092011 0.414312 0.703256
0.148702 0.414274 0.697997
0.273296 0.414235 0.692736
0.394385 0.414376 0.686979
0.517946 0.416249 0.676446
0.639782 0.418119 0.665904
0.771964 0.431649 0.667015
0.905870 0.447962 0.670904
0.980943 0.458391 0.668900
0.090979 0.529898 0.692929
0.154171 0.529959 0.687367
0.283939 0.531790 0.676834
0.409583 0.533620 0.666292
0.532871 0.535448 0.655743
0.655541 0.538309 0.646220
0.790449 0.554681 0.650201
0.924209 0.570937 0.654059
0.980943 0.579489 0.650206
0.089408 0.645897 0.677221
0.170495 0.647695 0.666680
0.299480 0.649491 0.656131
0.425369 0.651921 0.646208
0.549770 0.655088 0.637015
0.674175 0.659846 0.629406
0.808912 0.676168 0.633354
0.942530 0.692378 0.637182
0.980943 0.698777 0.634397
0.099105 0.774193 0.668287
0.199790 0.777332 0.659099
0.329460 0.780471 0.649903
0.455720 0.783610 0.640700
0.579871 0.786747 0.631488
0.702494 0.789885 0.622268
0.825557 0.796005 0.619034
0.955943 0.811395 0.627300
0.980943 0.816247 0.625025
0.112171 0.904851 0.662691
0.230948 0.907967 0.653486
0.360005 0.911081 0.644272
0.485921 0.914196 0.635050
0.608264 0.917030 0.628357
0.727829 0.919625 0.623844
0.846279 0.922219 0.619328
0.968139 0.929145 0.619143
0.980943 0.932759 0.615644
0.121535 0.980943 0.651609
0.256223 0.980943 0.642076
0.382939 0.980943 0.634924
0.505347 0.980943 0.630151
0.625912 0.980943 0.625376
0.745103 0.980943 0.620599
0.863200 0.980943 0.615820
0.980388 0.980943 0.611038
0.980943 0.980943 0.606255
0.107391 0.107391 0.857054
0.146626 0.106871 0.851847
0.272099 0.106350 0.846638
0.393089 0.105829 0.841427
0.511668 0.105307 0.836215
0.628589 0.104786 0.831001
0.744250 0.104264 0.825785
0.863152 0.108001 0.824826
0.980943 0.119780 0.831908
0.106369 0.188112 0.846829
0.151852 0.188109 0.841619
0.276996 0.188105 0.836406
0.397841 0.188102 0.831192
0.516327 0.188098 0.825977
0.633180 0.188094 0.820760
0.748786 0.188089 0.815541
0.872706 0.195741 0.813982
0.980943 0.209664 0.815402
0.105346 0.309160 0.836598
0.157048 0.309137 0.831384
0.281883 0.309114 0.826169
0.402587 0.309090 0.820952
0.520982 0.309067 0.815733
0.640425 0.310050 0.807841
0.761087 0.311991 0.797393
0.891079 0.324345 0.797352
0.980943 0.336314 0.796924
0.104322 0.426808 0.826361
0.162218 0.426774 0.821144
0.286760 0.426740 0.815925
0.409867 0.427616 0.808225
0.533383 0.429497 0.797777
0.655187 0.431376 0.787323
0.775686 0.433253 0.776862
0.909433 0.449432 0.780698
0.980943 0.459504 0.778421
0.103298 0.542400 0.816117
0.169881 0.543183 0.808609
0.299497 0.545023 0.798162
0.425073 0.546861 0.787708
0.548319 0.548697 0.777247
0.669923 0.550531 0.766779
0.794036 0.556138 0.760077
0.927769 0.572391 0.764016
0.980943 0.580587 0.759893
0.101540 0.659117 0.798546
0.186188 0.660923 0.788093
0.315043 0.662728 0.777632
0.440233 0.664532 0.767164
0.563221 0.666334 0.756689
0.684633 0.668135 0.746207
0.812495 0.677612 0.743395
0.946086 0.693819 0.747307
0.980943 0.699681 0.746030
0.099488 0.775653 0.778017
0.203434 0.778529 0.768647
0.332980 0.781668 0.759534
0.459172 0.784806 0.750414
0.583276 0.787944 0.741288
0.705864 0.791081 0.732154
0.827943 0.797140 0.730904
0.958312 0.812529 0.739213
0.980943 0.817143 0.736747
0.112290 0.906039 0.772318
0.234567 0.909154 0.763196
0.363513 0.912269 0.754067
0.489365 0.915383 0.744932
0.610550 0.918020 0.740086
0.730093 0.920614 0.735617
0.848524 0.923208 0.731147
0.970506 0.930272 0.731146
0.980943 0.933649 0.727457
0.125350 0.980943 0.761282
0.259703 0.980943 0.751836
0.385192 0.980943 0.746552
0.507560 0.980943 0.741824
0.628097 0.980943 0.737095
0.747266 0.980943 0.732364
0.865344 0.980943 0.727631
0.980943 0.980943 0.722896
0.980943 0.980943 0.718159
0.119590 0.119590 0.979038
0.160043 0.119072 0.973865
0.285455 0.118555 0.968690
0.406420 0.118037 0.963515
0.524984 0.117520 0.958338
0.641896 0.117002 0.953159
0.757549 0.116484 0.947980
0.872188 0.115966 0.942798
0.980943 0.119780 0.941949
0.118574 0.200515 0.968881
0.165270 0.200515 0.963705
0.290357 0.200515 0.958528
0.411178 0.200515 0.953350
0.529649 0.200515 0.948170
0.646493 0.200514 0.942989
0.762093 0.200513 0.937806
0.881428 0.202433 0.927801
0.980943 0.210845 0.923778
0.117558 0.321562 0.958719
0.170469 0.321543 0.953540
0.295249 0.321523 0.948361
0.415930 0.321503 0.943180
0.534310 0.321483 0.937997
0.655726 0.323223 0.928183
0.776364 0.325171 0.917808
0.895923 0.327117 0.907427
0.980943 0.337450 0.905430
0.116541 0.439213 0.948551
0.175641 0.439183 0.943370
0.300132 0.439153 0.938188
0.425256 0.440766 0.928564
0.548725 0.442654 0.918189
0.670499 0.444539 0.907809
0.790974 0.446424 0.897422
0.912995 0.450902 0.889626
0.980943 0.460618 0.887062
0.115524 0.554810 0.938378
0.185494 0.556317 0.928946
0.314961 0.558163 0.918571
0.440468 0.560008 0.908191
0.563670 0.561851 0.897805
0.685245 0.563693 0.887412
0.805562 0.565533 0.877014
0.931328 0.573844 0.873081
0.980943 0.581684 0.868673
0.113581 0.672245 0.918953
0.201782 0.674058 0.908573
0.330508 0.675871 0.898187
0.455635 0.677682 0.887795
0.578582 0.679491 0.877396
0.699965 0.681300 0.866992
0.820128 0.683107 0.856582
0.948480 0.694967 0.858148
0.980943 0.700586 0.856705
0.111543 0.788785 0.898569
0.217917 0.790571 0.888177
0.345989 0.792356 0.877779
0.470760 0.794140 0.867375
0.593463 0.795922 0.856965
0.713878 0.797721 0.848303
0.831606 0.799552 0.843093
0.960681 0.813662 0.850161
0.980943 0.818040 0.847495
0.112409 0.907227 0.881068
0.238181 0.910342 0.872016
0.367018 0.913456 0.862959
0.491920 0.916414 0.855286
0.612835 0.919009 0.850857
0.732356 0.921603 0.846426
0.850769 0.924197 0.841993
0.972873 0.931398 0.842167
0.980943 0.934539 0.838279
0.129138 0.980943 0.870052
0.262379 0.980943 0.861912
0.387445 0.980943 0.857223
0.509773 0.980943 0.852532
0.630281 0.980943 0.847840
0.749428 0.980943 0.843147
0.867489 0.980943 0.838452
0.980943 0.980943 0.833755
0.980943 0.980943 0.829058
0.119780 0.119780 0.980943
0.161966 0.119780 0.980943
0.287830 0.119780 0.980943
0.409284 0.119780 0.980943
0.528348 0.119780 0.980943
0.645765 0.119780 0.980943
0.761926 0.119780 0.980943
0.877074 0.119780 0.980943
0.980943 0.119780 0.980943
0.119780 0.201918 0.980943
0.168203 0.202436 0.980943
0.293747 0.202954 0.980943
0.415058 0.203472 0.980943
0.534030 0.203989 0.980943
0.651379 0.204507 0.980943
0.769247 0.205828 0.980943
0.889954 0.208929 0.980943
0.980943 0.212024 0.980943
0.119780 0.323975 0.980943
0.174413 0.324473 0.980943
0.299654 0.324971 0.980943
0.420826 0.325469 0.980943
0.541293 0.326650 0.980943
0.664269 0.329637 0.980943
0.785912 0.332622 0.980943
0.906483 0.335606 0.980943
0.980943 0.338587 0.980943
0.119780 0.442638 0.980943
0.180597 0.443126 0.980943
0.306978 0.444193 0.980943
0.433847 0.447119 0.980943
0.558302 0.450044 0.980943
0.681074 0.452967 0.980943
0.802557 0.455890 0.980943
0.922996 0.458811 0.980943
0.980943 0.461731 0.980943
0.119780 0.559732 0.980943
0.194266 0.562616 0.980943
0.324619 0.565499 0.980943
0.451088 0.568382 0.980943
0.575279 0.571264 0.980943
0.697855 0.574144 0.980943
0.819182 0.577024 0.980943
0.939491 0.579903 0.980943
0.980943 0.582781 0.976688
0.119780 0.679531 0.980943
0.212560 0.682383 0.980943
0.342191 0.685233 0.980943
0.468287 0.688083 0.980943
0.592226 0.690932 0.980943
0.714612 0.693781 0.980943
0.835353 0.696194 0.976596
0.952781 0.698039 0.970154
0.980943 0.701490 0.966575
0.119780 0.798100 0.980943
0.230708 0.800925 0.980943
0.359701 0.803749 0.980943
0.485446 0.806573 0.980943
0.608747 0.809000 0.976976
0.728248 0.810822 0.970344
0.845961 0.812656 0.965169
0.963049 0.814795 0.960298
0.980943 0.818936 0.957428
0.119780 0.915668 0.980943
0.248733 0.918471 0.980943
0.376793 0.920915 0.977357
0.499547 0.922717 0.970535
0.619657 0.924534 0.965360
0.738378 0.926351 0.960183
0.855996 0.928167 0.955005
0.975241 0.932525 0.952367
0.980943 0.935429 0.948275
0.132903 0.980943 0.978058
0.264694 0.980943 0.971747
0.389696 0.980943 0.967089
0.511985 0.980943 0.962431
0.632465 0.980943 0.957771
0.751590 0.980943 0.953109
0.869633 0.980943 0.948447
0.980943 0.980943 0.943783
0.980943 0.980943 0.939117
