backend/luts/anamorphic.cube
TITLE "Anamorphic"
LUT_3D_SIZE 33
DOMAIN_MIN 0.0 0.0 0.0
DOMAIN_MAX 1.0 1.0 1.0
0.031275 0.031275 0.095887
0.031129 0.031129 0.094434
0.030984 0.030984 0.092980
0.030838 0.030838 0.091525
0.063126 0.030693 0.090069
0.096080 0.031294 0.089358
0.131352 0.034821 0.091572
0.166150 0.038301 0.093738
0.200584 0.041744 0.095867
0.234724 0.045158 0.097964
0.268616 0.048547 0.100036
0.302296 0.051915 0.102086
0.335788 0.055265 0.104115
0.369114 0.058597 0.106127
0.402290 0.061915 0.108122
0.435329 0.065219 0.110103
0.468244 0.068510 0.112069
0.501043 0.071790 0.114023
0.533735 0.075059 0.115965
0.566327 0.078319 0.117895
0.598825 0.081568 0.119814
0.631236 0.084809 0.121723
0.663563 0.088042 0.123623
0.695812 0.091267 0.125513
0.727987 0.094485 0.127393
0.760090 0.097695 0.129266
0.792126 0.100898 0.131129
0.824097 0.104096 0.132985
0.856006 0.107286 0.134832
0.887856 0.110471 0.136672
0.919648 0.113651 0.138504
0.951386 0.116824 0.140329
0.980943 0.119780 0.141933
0.030989 0.030989 0.093033
0.030844 0.030844 0.091578
0.030698 0.030698 0.090122
0.031203 0.030552 0.088665
0.064414 0.030406 0.087206
0.097790 0.031465 0.086951
0.133035 0.034989 0.089160
0.167814 0.038467 0.091322
0.202232 0.041909 0.093446
0.236359 0.045322 0.095541
0.270241 0.048710 0.097609
0.303911 0.052077 0.099655
0.337395 0.055425 0.101681
0.370713 0.058757 0.103690
0.403882 0.062074 0.105682
0.436915 0.065377 0.107659
0.469824 0.068668 0.109622
0.502618 0.071948 0.111573
0.535305 0.075216 0.113511
0.567892 0.078475 0.115438
0.600386 0.081724 0.117354
0.632793 0.084965 0.119260
0.665116 0.088197 0.121156
0.697362 0.091422 0.123042
0.729533 0.094639 0.124920
0.761633 0.097849 0.126788
0.793665 0.101052 0.128648
0.825633 0.104249 0.130499
0.857539 0.107440 0.132343
0.889386 0.110624 0.134179
0.921176 0.113803 0.136007
0.952911 0.116977 0.137827
0.980943 0.119780 0.139275
0.030703 0.047541 0.090176
0.030558 0.047532 0.088718
0.030412 0.047522 0.087260
0.032561 0.047512 0.085800
0.065700 0.047502 0.084339
0.099499 0.049154 0.084539
0.134718 0.052812 0.086743
0.169477 0.056423 0.088901
0.203880 0.060000 0.091022
0.237994 0.063547 0.093112
0.271865 0.067070 0.095177
0.305525 0.070572 0.097220
0.339001 0.074055 0.099243
0.372312 0.077522 0.101247
0.405474 0.080974 0.103236
0.438501 0.084412 0.105210
0.471404 0.087839 0.107170
0.504192 0.091253 0.109117
0.536874 0.094657 0.111052
0.569457 0.098051 0.112975
0.601947 0.101436 0.114888
0.634349 0.104811 0.116790
0.666669 0.108179 0.118682
0.698911 0.111539 0.120565
0.731078 0.114891 0.122439
0.763175 0.118236 0.124303
0.795204 0.121575 0.126159
0.827169 0.124907 0.128007
0.859072 0.128232 0.129846
0.890917 0.131552 0.131678
0.922704 0.134866 0.133501
0.954437 0.138175 0.135317
0.980943 0.140961 0.136608
0.030417 0.079488 0.087313
0.030271 0.079474 0.085854
0.030125 0.079460 0.084393
0.033913 0.079445 0.082930
0.066984 0.079431 0.081467
0.101205 0.081537 0.082122
0.136399 0.085188 0.084322
0.171139 0.088794 0.086475
0.205527 0.092365 0.088592
0.239629 0.095907 0.090679
0.273489 0.099425 0.092740
0.307140 0.102922 0.094779
0.340607 0.106400 0.096798
0.373910 0.109863 0.098800
0.407066 0.113310 0.100785
0.440086 0.116744 0.102756
0.472984 0.120165 0.104712
0.505767 0.123576 0.106656
0.538444 0.126975 0.108587
0.571022 0.130365 0.110507
0.603508 0.133745 0.112416
0.635906 0.137117 0.114314
0.668222 0.140480 0.116202
0.700460 0.143835 0.118081
0.732624 0.147184 0.119951
0.764717 0.150525 0.121811
0.796743 0.153859 0.123663
0.828705 0.157187 0.125506
0.860605 0.160509 0.127341
0.892447 0.163824 0.129168
0.924231 0.167135 0.130987
0.955961 0.170439 0.132798
0.980943 0.173069 0.133931
0.033046 0.113604 0.087362
0.033061 0.113748 0.086061
0.033075 0.113892 0.084758
0.038657 0.114036 0.083454
0.071823 0.114180 0.082149
0.104052 0.114323 0.080842
0.138079 0.116829 0.081896
0.172800 0.120430 0.084045
0.207174 0.123997 0.086157
0.241263 0.127536 0.088240
0.275112 0.131050 0.090298
0.308753 0.134544 0.092333
0.342212 0.138019 0.094349
0.375508 0.141478 0.096347
0.408657 0.144923 0.098328
0.441671 0.148354 0.100295
0.474563 0.151772 0.102248
0.507341 0.155179 0.104188
0.540013 0.158576 0.106115
0.572587 0.161963 0.108031
0.605068 0.165341 0.109936
0.637462 0.168709 0.111831
0.669774 0.172070 0.113715
0.702008 0.175423 0.115590
0.734169 0.178768 0.117455
0.766259 0.182107 0.119311
0.798282 0.185438 0.121159
0.830241 0.188764 0.122997
0.862138 0.192083 0.124827
0.893977 0.195396 0.126649
0.925759 0.198704 0.128463
0.957486 0.202006 0.130269
0.980943 0.204481 0.131245
0.036491 0.148049 0.088222
0.036505 0.148191 0.086918
0.036519 0.148333 0.085613
0.043730 0.148476 0.084306
0.076833 0.148618 0.082998
0.109029 0.148760 0.081689
0.140673 0.148902 0.080379
0.174461 0.151586 0.081609
0.208820 0.155149 0.083717
0.242896 0.158685 0.085796
0.276735 0.162197 0.087850
0.310367 0.165688 0.089882
0.343817 0.169160 0.091894
0.377106 0.172617 0.093888
0.410248 0.176059 0.095866
0.443256 0.179488 0.097829
0.476142 0.182904 0.099778
0.508915 0.186309 0.101714
0.541582 0.189704 0.103637
0.574151 0.193088 0.105549
0.606628 0.196464 0.107450
0.639018 0.199831 0.109340
0.671326 0.203189 0.111221
0.703557 0.206540 0.113091
0.735714 0.209884 0.114952
0.767801 0.213220 0.116803
0.799821 0.216550 0.118646
0.831776 0.219873 0.120479
0.863671 0.223190 0.122305
0.895507 0.226502 0.124121
0.927286 0.229807 0.125929
0.959011 0.233107 0.127729
0.980943 0.235428 0.128547
0.039895 0.182095 0.089037
0.039909 0.182236 0.087731
0.039923 0.182376 0.086423
0.048758 0.182517 0.085114
0.081802 0.182658 0.083803
0.113966 0.182798 0.082491
0.145587 0.182939 0.081178
0.176817 0.183079 0.079864
0.210465 0.185945 0.081272
0.244529 0.189478 0.083347
0.278357 0.192987 0.085397
0.311980 0.196476 0.087424
0.345422 0.199946 0.089432
0.378703 0.203401 0.091423
0.411838 0.206841 0.093397
0.444841 0.210268 0.095356
0.477721 0.213682 0.097301
0.510488 0.217086 0.099233
0.543151 0.220478 0.101152
0.575715 0.223861 0.103060
0.608188 0.227235 0.104957
0.640574 0.230600 0.106842
0.672878 0.233957 0.108718
0.705105 0.237306 0.110584
0.737259 0.240648 0.112440
0.769342 0.243983 0.114286
0.801359 0.247311 0.116124
0.833312 0.250633 0.117952
0.865204 0.253948 0.119772
0.897037 0.257258 0.121583
0.928813 0.260562 0.123385
0.960536 0.263861 0.125179
0.980943 0.266641 0.124494
0.043268 0.215824 0.089816
0.043282 0.215963 0.088507
0.043296 0.216102 0.087196
0.053750 0.216242 0.085885
0.086737 0.216381 0.084571
0.118869 0.216521 0.083257
0.150469 0.216660 0.081940
0.181682 0.216800 0.080623
0.212592 0.216939 0.079304
0.246161 0.219987 0.080891
0.279979 0.223494 0.082937
0.313592 0.226981 0.084961
0.347027 0.230450 0.086965
0.380300 0.233903 0.088951
0.413429 0.237341 0.090921
0.446425 0.240766 0.092876
0.479300 0.244179 0.094817
0.512062 0.247580 0.096744
0.544719 0.250972 0.098659
0.577279 0.254353 0.100563
0.609748 0.257725 0.102455
0.642130 0.261089 0.104336
0.674430 0.264445 0.106207
0.706654 0.267792 0.108067
0.738804 0.271133 0.109918
0.770884 0.274466 0.111760
0.802898 0.277793 0.113591
0.834847 0.281113 0.115414
0.866736 0.284428 0.117228
0.898566 0.287736 0.119033
0.931792 0.291769 0.119681
0.965062 0.295848 0.120228
0.980943 0.298188 0.119780
0.046615 0.249289 0.090564
0.046629 0.249428 0.089252
0.046642 0.249566 0.087939
0.058712 0.249705 0.086624
0.091643 0.249843 0.085308
0.123745 0.249982 0.083990
0.155324 0.250120 0.082671
0.186521 0.250258 0.081350
0.217417 0.250397 0.080028
0.248067 0.250535 0.078704
0.281600 0.253766 0.080471
0.315204 0.257251 0.082491
0.348631 0.260719 0.084490
0.381897 0.264170 0.086472
0.415019 0.267607 0.088438
0.448009 0.271030 0.090389
0.480878 0.274442 0.092325
0.513635 0.277842 0.094248
0.546288 0.281232 0.096159
0.578843 0.284612 0.098057
0.611307 0.287983 0.099944
0.643685 0.291345 0.101821
0.675982 0.294699 0.103686
0.708202 0.298046 0.105542
0.740348 0.301385 0.107387
0.772425 0.304717 0.109223
0.804436 0.308043 0.111048
0.836383 0.311362 0.112865
0.869668 0.315373 0.113571
0.903051 0.319458 0.114129
0.936372 0.323537 0.115323
0.969634 0.327610 0.118649
0.980943 0.329488 0.119780
0.049939 0.282531 0.091284
0.049953 0.282669 0.089969
0.049966 0.282807 0.088653
0.063648 0.282944 0.087335
0.096526 0.283082 0.086016
0.128597 0.283219 0.084696
0.160155 0.283357 0.083373
0.191336 0.283494 0.082049
0.222220 0.283632 0.080724
0.252859 0.283770 0.079397
0.283289 0.283907 0.078068
0.316816 0.287322 0.080014
0.350234 0.290787 0.082009
0.383493 0.294237 0.083987
0.416609 0.297672 0.085948
0.449593 0.301095 0.087894
0.482456 0.304505 0.089825
0.515208 0.307904 0.091744
0.547856 0.311292 0.093649
0.580407 0.314671 0.095543
0.612866 0.318041 0.097425
0.645240 0.321402 0.099296
0.677533 0.324755 0.101156
0.709750 0.328101 0.103005
0.741893 0.331439 0.104845
0.773966 0.334770 0.106674
0.807320 0.338761 0.107438
0.840825 0.342854 0.108009
0.874264 0.346940 0.109112
0.907638 0.351019 0.112450
0.940951 0.355093 0.115781
0.974205 0.359160 0.119106
0.980943 0.360576 0.119780
0.053244 0.315578 0.091979
0.053257 0.315715 0.090662
0.053271 0.315852 0.089342
0.068560 0.315989 0.088022
0.101387 0.316126 0.086699
0.133429 0.316263 0.085375
0.164966 0.316399 0.084050
0.196131 0.316536 0.082723
0.227002 0.316673 0.081394
0.257630 0.316810 0.080063
0.288051 0.316947 0.078730
0.318427 0.317218 0.077530
0.351837 0.320682 0.079520
0.385089 0.324130 0.081493
0.418198 0.327564 0.083449
0.451176 0.330985 0.085391
0.484034 0.334394 0.087317
0.516781 0.337792 0.089231
0.549424 0.341179 0.091131
0.581970 0.344557 0.093019
0.614426 0.347926 0.094896
0.646796 0.351286 0.096761
0.679085 0.354638 0.098615
0.711297 0.357982 0.100458
0.744731 0.361955 0.101281
0.778369 0.366057 0.101866
0.811933 0.370152 0.102879
0.845429 0.374240 0.106229
0.878858 0.378321 0.109572
0.912224 0.382395 0.112908
0.945529 0.386464 0.116239
0.978775 0.390526 0.119563
0.980943 0.391481 0.119780
0.056531 0.348453 0.092652
0.056545 0.348589 0.091331
0.056558 0.348725 0.090009
0.073452 0.348862 0.088685
0.106230 0.348998 0.087359
0.138243 0.349134 0.086032
0.169759 0.349270 0.084703
0.200909 0.349406 0.083372
0.231767 0.349542 0.082039
0.262384 0.349678 0.080704
0.292796 0.349814 0.079368
0.323030 0.349951 0.078029
0.353440 0.350422 0.077024
0.386685 0.353869 0.078991
0.419787 0.357302 0.080943
0.452759 0.360722 0.082879
0.485612 0.364129 0.084800
0.518353 0.367526 0.086708
0.550991 0.370912 0.088602
0.583533 0.374289 0.090485
0.615984 0.377657 0.092355
0.648350 0.381016 0.094214
0.681878 0.384972 0.095098
0.715660 0.389085 0.095697
0.749363 0.393190 0.096622
0.782990 0.397288 0.099985
0.816545 0.401378 0.103340
0.850031 0.405461 0.106689
0.883452 0.409537 0.110031
0.916809 0.413608 0.113367
0.950106 0.417671 0.116696
0.980943 0.421489 0.119780
0.980943 0.422223 0.119780
0.059803 0.381173 0.093302
0.059817 0.381309 0.091979
0.059830 0.381444 0.090653
0.078325 0.381580 0.089326
0.111055 0.381715 0.087997
0.143040 0.381851 0.086666
0.174536 0.381986 0.085333
0.205670 0.382122 0.083998
0.236516 0.382257 0.082662
0.267122 0.382393 0.081323
0.297525 0.382528 0.079982
0.327750 0.382664 0.078639
0.357819 0.382799 0.077294
0.388280 0.383470 0.076481
0.421376 0.386901 0.078427
0.454342 0.390320 0.080357
0.487189 0.393726 0.082273
0.519925 0.397122 0.084175
0.552559 0.400507 0.086063
0.585096 0.403883 0.087939
0.618733 0.407825 0.088885
0.652675 0.411951 0.089501
0.686530 0.416068 0.090339
0.720301 0.420177 0.093716
0.753993 0.424277 0.097085
0.787610 0.428370 0.100447
0.821155 0.432456 0.103801
0.854632 0.436535 0.107149
0.888044 0.440607 0.110490
0.921393 0.444673 0.113825
0.954681 0.448733 0.117154
0.980943 0.452090 0.119780
0.980943 0.452821 0.119780
0.063061 0.413753 0.093933
0.063075 0.413888 0.092606
0.063088 0.414023 0.091277
0.083181 0.414158 0.089946
0.115865 0.414293 0.088613
0.147822 0.414428 0.087279
0.179299 0.414563 0.085942
0.210417 0.414698 0.084603
0.241250 0.414833 0.083263
0.271846 0.414968 0.081919
0.302239 0.415103 0.080574
0.332457 0.415238 0.079227
0.362518 0.415373 0.077877
0.392439 0.415508 0.076524
0.422965 0.416375 0.075901
0.455925 0.419792 0.077825
0.488766 0.423198 0.079735
0.521497 0.426593 0.081630
0.555263 0.430523 0.082640
0.589384 0.434664 0.083275
0.623407 0.438795 0.084027
0.657337 0.442917 0.087420
0.691180 0.447029 0.090804
0.724940 0.451134 0.094180
0.758622 0.455230 0.097548
0.792229 0.459319 0.100909
0.825764 0.463401 0.104262
0.859232 0.467476 0.107609
0.892635 0.471544 0.110949
0.925975 0.475606 0.114283
0.959256 0.479662 0.117611
0.980943 0.482559 0.119780
0.980943 0.483286 0.119780
0.066306 0.446205 0.094545
0.066320 0.446340 0.093214
0.066333 0.446474 0.091881
0.088021 0.446609 0.090546
0.120660 0.446743 0.089210
0.152590 0.446878 0.087871
0.184047 0.447012 0.086530
0.215150 0.447147 0.085187
0.245971 0.447281 0.083842
0.276556 0.447415 0.082495
0.306941 0.447550 0.081144
0.337150 0.447684 0.079792
0.367204 0.447819 0.078436
0.397118 0.447953 0.077078
0.426906 0.448088 0.075717
0.457507 0.449151 0.075282
0.491428 0.453073 0.076358
0.525751 0.457231 0.077014
0.559963 0.461378 0.077682
0.594070 0.465515 0.081093
0.628080 0.469641 0.084494
0.661998 0.473759 0.087886
0.695829 0.477868 0.091269
0.729578 0.481968 0.094644
0.763249 0.486061 0.098011
0.796846 0.490146 0.101370
0.830372 0.494224 0.104723
0.863831 0.498295 0.108069
0.897225 0.502360 0.111408
0.930557 0.506418 0.114742
0.963829 0.510471 0.118069
0.980943 0.512907 0.119780
0.980943 0.513632 0.119780
0.069540 0.478540 0.095137
0.069553 0.478674 0.093802
0.069567 0.478808 0.092466
0.092847 0.478942 0.091127
0.125442 0.479076 0.089786
0.157345 0.479210 0.088444
0.188783 0.479344 0.087098
0.219871 0.479478 0.085751
0.250679 0.479612 0.084401
0.281254 0.479746 0.083048
0.311630 0.479880 0.081693
0.341832 0.480014 0.080335
0.371878 0.480148 0.078974
0.401786 0.480282 0.077610
0.432541 0.480844 0.075402
0.463721 0.481647 0.072706
0.496156 0.483822 0.071365
0.530464 0.487976 0.074732
0.564661 0.492119 0.078152
0.598754 0.496251 0.081561
0.632751 0.500374 0.084961
0.666657 0.504488 0.088352
0.700476 0.508593 0.091733
0.734214 0.512690 0.095107
0.767875 0.516779 0.098473
0.801462 0.520860 0.101832
0.834979 0.524935 0.105184
0.868428 0.529003 0.108529
0.901814 0.533064 0.111867
0.935137 0.537119 0.115200
0.968402 0.541168 0.118526
0.980943 0.543145 0.119780
0.980943 0.543867 0.119780
0.072762 0.510765 0.095711
0.072776 0.510899 0.094373
0.072789 0.511032 0.093032
0.097658 0.511166 0.091689
0.130212 0.511299 0.090344
0.162089 0.511433 0.088996
0.193507 0.511566 0.087647
0.224581 0.511700 0.086294
0.255377 0.511834 0.084939
0.285941 0.511967 0.083581
0.316308 0.512101 0.082220
0.346502 0.512234 0.080856
0.377465 0.512770 0.078696
0.408891 0.513571 0.076001
0.440179 0.514372 0.073289
0.471343 0.515174 0.073203
0.502392 0.515975 0.073283
0.535174 0.518616 0.075203
0.569357 0.522755 0.078621
0.603436 0.526883 0.082029
0.637420 0.531003 0.085428
0.671314 0.535113 0.088817
0.705122 0.539214 0.092198
0.738849 0.543308 0.095571
0.772499 0.547393 0.098936
0.806077 0.551471 0.102293
0.839584 0.555542 0.105644
0.873025 0.559607 0.108988
0.906401 0.563665 0.112326
0.939717 0.567717 0.115657
0.972973 0.571763 0.118983
0.980943 0.573280 0.119780
0.980943 0.574000 0.119780
0.075975 0.542889 0.096268
0.075988 0.543022 0.094925
0.076001 0.543155 0.093580
0.102457 0.543288 0.092232
0.134970 0.543422 0.090882
0.166821 0.543555 0.089530
0.198221 0.543688 0.088175
0.229279 0.543821 0.086817
0.260063 0.543954 0.085456
0.290618 0.544087 0.084092
0.321851 0.544597 0.081981
0.353573 0.545396 0.079286
0.385128 0.546195 0.076575
0.416534 0.546993 0.076385
0.447804 0.547792 0.076465
0.478951 0.548591 0.076545
0.509985 0.549389 0.076625
0.540913 0.550188 0.076705
0.574050 0.553293 0.079091
0.608117 0.557418 0.082498
0.642088 0.561534 0.085895
0.675969 0.565640 0.089283
0.709766 0.569738 0.092662
0.743482 0.573828 0.096034
0.777122 0.577911 0.099398
0.810690 0.581986 0.102755
0.844188 0.586054 0.106105
0.877620 0.590115 0.109448
0.910988 0.594170 0.112785
0.944295 0.598219 0.116115
0.977543 0.602262 0.119440
0.980943 0.603320 0.119780
0.980943 0.604038 0.119780
0.079178 0.574918 0.096806
0.079191 0.575051 0.095459
0.079204 0.575184 0.094109
0.107244 0.575317 0.092756
0.139717 0.575449 0.091401
0.171542 0.575582 0.090043
0.202924 0.575715 0.088683
0.233968 0.575848 0.087319
0.265568 0.576331 0.085256
0.297664 0.577128 0.082561
0.329547 0.577924 0.079851
0.361245 0.578721 0.079558
0.392778 0.579517 0.079638
0.424164 0.580314 0.079717
0.455417 0.581110 0.079797
0.486547 0.581906 0.079876
0.517566 0.582703 0.079956
0.548480 0.583499 0.080036
0.579298 0.584295 0.080115
0.612795 0.587862 0.082965
0.646754 0.591974 0.086361
0.680623 0.596077 0.089748
0.714409 0.600172 0.093127
0.748114 0.604259 0.096497
0.781744 0.608338 0.099860
0.815302 0.612410 0.103216
0.848791 0.616475 0.106565
0.882213 0.620533 0.109907
0.915573 0.624586 0.113243
0.948872 0.628631 0.116573
0.980943 0.632554 0.119780
0.980943 0.633270 0.119780
0.980943 0.633986 0.119780
0.082372 0.606858 0.097326
0.082385 0.606991 0.095974
0.082398 0.607123 0.094619
0.112019 0.607256 0.093261
0.144453 0.607388 0.091901
0.176254 0.607521 0.090537
0.208401 0.607978 0.088523
0.241002 0.608773 0.085828
0.273310 0.609567 0.083118
0.305374 0.610362 0.082722
0.337230 0.611156 0.082801
0.368904 0.611951 0.082881
0.400416 0.612745 0.082960
0.431782 0.613539 0.083040
0.463017 0.614333 0.083119
0.494132 0.615127 0.083199
0.525135 0.615921 0.083278
0.556036 0.616715 0.083357
0.586840 0.617509 0.083437
0.617555 0.618303 0.083516
0.651418 0.622329 0.086828
0.685276 0.626429 0.090213
0.719050 0.630521 0.093591
0.752745 0.634605 0.096960
0.786365 0.638681 0.100322
0.819913 0.642750 0.103677
0.853392 0.646812 0.107025
0.886806 0.650868 0.110366
0.920157 0.654917 0.113702
0.953448 0.658960 0.117031
0.980943 0.662423 0.119780
0.980943 0.663138 0.119780
0.980943 0.663851 0.119780
0.085557 0.638715 0.097828
0.085571 0.638847 0.096471
0.085584 0.638979 0.095110
0.116784 0.639111 0.093747
0.149924 0.639543 0.091781
0.183299 0.640336 0.089087
0.216209 0.641128 0.086377
0.248766 0.641921 0.085878
0.281038 0.642713 0.085957
0.313071 0.643505 0.086036
0.344901 0.644298 0.086116
0.376551 0.645090 0.086195
0.408041 0.645882 0.086274
0.439389 0.646674 0.086353
0.470607 0.647466 0.086432
0.501705 0.648258 0.086512
0.532694 0.649050 0.086591
0.563580 0.649842 0.086670
0.594372 0.650634 0.086749
0.625075 0.651426 0.086828
0.656081 0.652604 0.087294
0.689926 0.656701 0.090678
0.723689 0.660790 0.094055
0.757374 0.664871 0.097423
0.790984 0.668944 0.100784
0.824522 0.673010 0.104138
0.857992 0.677070 0.107485
0.891397 0.681123 0.110826
0.924740 0.685169 0.114160
0.958023 0.689210 0.117488
0.980943 0.692214 0.119780
0.980943 0.692926 0.119780
0.980943 0.693638 0.119780
0.088735 0.670492 0.098312
0.088748 0.670623 0.096949
0.088840 0.671031 0.095032
0.123906 0.671821 0.092338
0.157844 0.672612 0.089628
0.191146 0.673402 0.089026
0.224002 0.674193 0.089105
0.256516 0.674983 0.089184
0.288753 0.675774 0.089263
0.320756 0.676564 0.089342
0.352559 0.677354 0.089421
0.384186 0.678144 0.089500
0.415656 0.678935 0.089579
0.446985 0.679725 0.089658
0.478185 0.680515 0.089737
0.509268 0.681305 0.089816
0.540242 0.682095 0.089895
0.571115 0.682885 0.089974
0.601894 0.683675 0.090053
0.632585 0.684465 0.090132
0.663193 0.685254 0.090211
0.694576 0.686897 0.091143
0.728328 0.690983 0.094519
0.762002 0.695061 0.097886
0.795601 0.699132 0.101246
0.829130 0.703195 0.104599
0.862591 0.707252 0.107945
0.895988 0.711303 0.111285
0.929322 0.715346 0.114618
0.962596 0.719384 0.117945
0.980943 0.721929 0.119780
0.980943 0.722640 0.119780
0.980943 0.723350 0.119780
0.091930 0.702444 0.098275
0.092009 0.703233 0.095581
0.097061 0.704022 0.092872
0.131912 0.704811 0.092167
0.165745 0.705599 0.092246
0.198977 0.706388 0.092325
0.231781 0.707176 0.092403
0.264253 0.707965 0.092482
0.296455 0.708753 0.092561
0.328429 0.709542 0.092640
0.360206 0.710330 0.092719
0.391811 0.711119 0.092798
0.423260 0.711907 0.092876
0.454570 0.712695 0.092955
0.485754 0.713483 0.093034
0.516821 0.714271 0.093113
0.547780 0.715060 0.093192
0.578640 0.715848 0.093271
0.609406 0.716636 0.093349
0.640085 0.717424 0.093428
0.670682 0.718212 0.093507
0.701201 0.719000 0.093586
0.732964 0.721105 0.094982
0.766628 0.725181 0.098349
0.800218 0.729249 0.101708
0.833737 0.733310 0.105060
0.867189 0.737364 0.108405
0.900577 0.741411 0.111744
0.933903 0.745453 0.115076
0.967169 0.749488 0.118403
0.980943 0.751574 0.119780
0.980943 0.752283 0.119780
0.980943 0.752992 0.119780
0.095222 0.735362 0.096109
0.095301 0.736149 0.095301
0.105230 0.736936 0.095379
0.139893 0.737723 0.095458
0.173627 0.738509 0.095537
0.206792 0.739296 0.095615
0.239545 0.740083 0.095694
0.271977 0.740870 0.095773
0.304146 0.741656 0.095851
0.336091 0.742443 0.095930
0.367843 0.743230 0.096009
0.399424 0.744016 0.096087
0.430854 0.744803 0.096166
0.462146 0.745589 0.096245
0.493312 0.746376 0.096323
0.524364 0.747162 0.096402
0.555309 0.747949 0.096481
0.586155 0.748735 0.096559
0.616909 0.749521 0.096638
0.647576 0.750307 0.096717
0.678162 0.751094 0.096795
0.708671 0.751880 0.096874
0.739106 0.752666 0.096952
0.771253 0.755232 0.098811
0.804833 0.759297 0.102169
0.838342 0.763356 0.105520
0.871786 0.767408 0.108864
0.905165 0.771453 0.112202
0.938482 0.775492 0.115534
0.971741 0.779525 0.118860
0.980943 0.781152 0.119780
0.980943 0.781860 0.119780
0.980943 0.782483 0.119780
0.098506 0.768206 0.098506
0.098585 0.768991 0.098585
0.113354 0.769776 0.098663
0.147849 0.770561 0.098742
0.181491 0.771347 0.098820
0.214592 0.772132 0.098899
0.247297 0.772917 0.098978
0.279689 0.773702 0.099056
0.311825 0.774487 0.099135
0.343742 0.775272 0.099213
0.375469 0.776057 0.099292
0.407028 0.776842 0.099370
0.438438 0.777626 0.099448
0.469712 0.778411 0.099527
0.500862 0.779196 0.099605
0.531898 0.779981 0.099684
0.562829 0.780765 0.099762
0.593662 0.781550 0.099841
0.624403 0.782335 0.099919
0.655059 0.783119 0.099998
0.685633 0.783904 0.100076
0.716131 0.784688 0.100155
0.746557 0.785472 0.100233
0.776914 0.786257 0.100312
0.809446 0.789282 0.102630
0.842947 0.793338 0.105981
0.876381 0.797387 0.109324
0.909751 0.801430 0.112661
0.943061 0.805467 0.115992
0.976311 0.809497 0.119317
0.980943 0.810587 0.119780
0.980943 0.811175 0.119780
0.980943 0.811763 0.119780
0.101784 0.800980 0.101784
0.101862 0.801763 0.101862
0.121439 0.802547 0.101941
0.155784 0.803330 0.102019
0.189338 0.804114 0.102097
0.222378 0.804897 0.102176
0.255035 0.805681 0.102254
0.287390 0.806464 0.102332
0.319493 0.807248 0.102411
0.351382 0.808031 0.102489
0.383085 0.808814 0.102567
0.414622 0.809598 0.102646
0.446012 0.810381 0.102724
0.477268 0.811164 0.102802
0.508402 0.811947 0.102881
0.539423 0.812730 0.102959
0.570340 0.813513 0.103037
0.601160 0.814296 0.103115
0.631889 0.815079 0.103194
0.662533 0.815862 0.103272
0.693096 0.816645 0.103350
0.723584 0.817428 0.103429
0.754000 0.818211 0.103507
0.784348 0.818994 0.103585
0.814630 0.819776 0.103663
0.847550 0.823258 0.106441
0.880975 0.827305 0.109783
0.914337 0.831346 0.113120
0.947145 0.835256 0.116400
0.979612 0.839090 0.119647
0.980943 0.839810 0.119780
0.980943 0.840397 0.119780
0.980943 0.840984 0.119780
0.105054 0.833687 0.105054
0.105133 0.834469 0.105133
0.129488 0.835251 0.105211
0.163697 0.836033 0.105289
0.197169 0.836815 0.105367
0.230150 0.837597 0.105445
0.262762 0.838378 0.105524
0.295078 0.839160 0.105602
0.327150 0.839942 0.105680
0.359012 0.840724 0.105758
0.390691 0.841506 0.105836
0.422207 0.842287 0.105915
0.453577 0.843069 0.105993
0.484816 0.843851 0.106071
0.515933 0.844632 0.106149
0.546939 0.845414 0.106227
0.577842 0.846195 0.106305
0.608649 0.846977 0.106384
0.639366 0.847758 0.106462
0.669999 0.848540 0.106540
0.700551 0.849321 0.106618
0.731029 0.850102 0.106696
0.761435 0.850884 0.106774
0.791774 0.851665 0.106852
0.822048 0.852446 0.106930
0.852259 0.853227 0.107009
0.885102 0.857048 0.110196
