backend/luts/anamorphic.cube
TITLE "Anamorphic"
LUT_3D_SIZE 5
DOMAIN_MIN 0.0 0.0 0.0
DOMAIN_MAX 1.0 1.0 1.0
0.031275 0.031275 0.095887
0.200584 0.041744 0.095867
0.468244 0.068510 0.112069
0.727987 0.094485 0.127393
0.980943 0.119780 0.141933
0.046615 0.249289 0.090564
0.217417 0.250397 0.080028
0.480878 0.274442 0.092325
0.740348 0.301385 0.107387
0.980943 0.329488 0.119780
0.072762 0.510765 0.095711
0.255377 0.511834 0.084939
0.502392 0.515975 0.073283
0.772499 0.547393 0.098936
0.980943 0.574000 0.119780
0.098506 0.768206 0.098506
0.311825 0.774487 0.099135
0.562829 0.780765 0.099762
0.809446 0.789282 0.102630
0.980943 0.811763 0.119780
0.119780 0.980943 0.119780
0.367497 0.980943 0.119780
0.614981 0.980943 0.119780
0.852472 0.980943 0.119780
0.980943 0.980943 0.119780
0.057513 0.057513 0.358267
0.217568 0.056424 0.347381
0.470699 0.068756 0.349900
0.730388 0.094725 0.366040
0.980943 0.119780 0.381250
0.055374 0.258428 0.336879
0.227271 0.258333 0.325959
0.483330 0.275067 0.331852
0.742748 0.302005 0.347932
0.980943 0.331764 0.352040
0.072803 0.511172 0.334998
0.257708 0.512241 0.325244
0.509241 0.518418 0.306516
0.779682 0.550309 0.312791
0.980943 0.576196 0.312981
0.098746 0.770601 0.332463
0.318886 0.776881 0.313243
0.569649 0.783158 0.293938
0.816612 0.792151 0.277257
0.980943 0.813557 0.280773
0.119780 0.980943 0.314451
0.374272 0.980943 0.294429
0.619355 0.980943 0.281143
0.856764 0.980943 0.271058
0.980943 0.980943 0.260944
0.082715 0.082715 0.610290
0.245103 0.081655 0.599694
0.484746 0.080595 0.589088
0.732789 0.094965 0.593905
0.980943 0.119780 0.609158
0.080634 0.284068 0.589479
0.254858 0.284004 0.578864
0.494027 0.283937 0.568239
0.749860 0.304961 0.573243
0.980943 0.334040 0.577174
0.078549 0.517285 0.568630
0.268267 0.518448 0.554401
0.517308 0.522084 0.533095
0.786860 0.553224 0.539258
0.980943 0.578392 0.539412
0.098985 0.772995 0.557791
0.325937 0.779275 0.539207
0.576465 0.785551 0.520582
0.823170 0.794869 0.505981
0.980943 0.815350 0.512096
0.119780 0.980943 0.540830
0.380686 0.980943 0.522114
0.623727 0.980943 0.512451
0.861055 0.980943 0.502778
0.980943 0.980943 0.493093
0.107391 0.107391 0.857054
0.272099 0.106350 0.846638
0.511668 0.105307 0.836215
0.744250 0.104264 0.825785
0.980943 0.119780 0.831908
0.105346 0.309160 0.836598
0.281883 0.309114 0.826169
0.520982 0.309067 0.815733
0.761087 0.311991 0.797393
0.980943 0.336314 0.796924
0.103298 0.542400 0.816117
0.299497 0.545023 0.798162
0.548319 0.548697 0.777247
0.794036 0.556138 0.760077
0.980943 0.580587 0.759893
0.099488 0.775653 0.778017
0.332980 0.781668 0.759534
0.583276 0.787944 0.741288
0.827943 0.797140 0.730904
0.980943 0.817143 0.736747
0.125350 0.980943 0.761282
0.385192 0.980943 0.746552
0.628097 0.980943 0.737095
0.865344 0.980943 0.727631
0.980943 0.980943 0.718159
0.119780 0.119780 0.980943
0.287830 0.119780 0.980943
0.528348 0.119780 0.980943
0.761926 0.119780 0.980943
0.980943 0.119780 0.980943
0.119780 0.323975 0.980943
0.299654 0.324971 0.980943
0.541293 0.326650 0.980943
0.785912 0.332622 0.980943
0.980943 0.338587 0.980943
0.119780 0.559732 0.980943
0.324619 0.565499 0.980943
0.575279 0.571264 0.980943
0.819182 0.577024 0.980943
0.980943 0.582781 0.976688
0.119780 0.798100 0.980943
0.359701 0.803749 0.980943
0.608747 0.809000 0.976976
0.845961 0.812656 0.965169
0.980943 0.818936 0.957428
0.132903 0.980943 0.978058
0.389696 0.980943 0.967089
0.632465 0.980943 0.957771
0.869633 0.980943 0.948447
0.980943 0.980943 0.939117
