backend/luts/bleach_bypass.cube
TITLE "Bleach Bypass"
LUT_3D_SIZE 5
DOMAIN_MIN 0.0 0.0 0.0
DOMAIN_MAX 1.0 1.0 1.0
0.000000 0.000000 0.000000
0.038305 0.000000 0.000000
0.226610 0.000000 0.000000
0.414915 0.024915 0.024915
0.603220 0.083220 0.083220
0.000000 0.094465 0.000000
0.152770 0.152770 0.022770
0.341075 0.211075 0.081075
0.529380 0.269380 0.139380
0.717685 0.327685 0.197685
0.078930 0.338930 0.078930
0.267235 0.397235 0.137235
0.455540 0.455540 0.195540
0.643845 0.513845 0.253845
0.832150 0.572150 0.312150
0.193395 0.583395 0.193395
0.381700 0.641700 0.251700
0.570005 0.700005 0.310005
0.758310 0.758310 0.368310
0.946615 0.816615 0.426615
0.307860 0.827860 0.307860
0.496165 0.886165 0.366165
0.684470 0.944470 0.424470
0.872775 1.000000 0.482775
1.000000 1.000000 0.541080
0.000000 0.000000 0.002230
0.060535 0.000000 0.060535
0.248840 0.000000 0.118840
0.437145 0.047145 0.177145
0.625450 0.105450 0.235450
0.000000 0.116695 0.116695
0.175000 0.175000 0.175000
0.363305 0.233305 0.233305
0.551610 0.291610 0.291610
0.739915 0.349915 0.349915
0.101160 0.361160 0.231160
0.289465 0.419465 0.289465
0.477770 0.477770 0.347770
0.666075 0.536075 0.406075
0.854380 0.594380 0.464380
0.215625 0.605625 0.345625
0.403930 0.663930 0.403930
0.592235 0.722235 0.462235
0.780540 0.780540 0.520540
0.968845 0.838845 0.578845
0.330090 0.850090 0.460090
0.518395 0.908395 0.518395
0.706700 0.966700 0.576700
0.895005 1.000000 0.635005
1.000000 1.000000 0.693310
0.000000 0.000000 0.154460
0.082765 0.000000 0.212765
0.271070 0.011070 0.271070
0.459375 0.069375 0.329375
0.647680 0.127680 0.387680
0.008925 0.138925 0.268925
0.197230 0.197230 0.327230
0.385535 0.255535 0.385535
0.573840 0.313840 0.443840
0.762145 0.372145 0.502145
0.123390 0.383390 0.383390
0.311695 0.441695 0.441695
0.500000 0.500000 0.500000
0.688305 0.558305 0.558305
0.876610 0.616610 0.616610
0.237855 0.627855 0.497855
0.426160 0.686160 0.556160
0.614465 0.744465 0.614465
0.802770 0.802770 0.672770
0.991075 0.861075 0.731075
0.352320 0.872320 0.612320
0.540625 0.930625 0.670625
0.728930 0.988930 0.728930
0.917235 1.000000 0.787235
1.000000 1.000000 0.845540
0.000000 0.000000 0.306690
0.104995 0.000000 0.364995
0.293300 0.033300 0.423300
0.481605 0.091605 0.481605
0.669910 0.149910 0.539910
0.031155 0.161155 0.421155
0.219460 0.219460 0.479460
0.407765 0.277765 0.537765
0.596070 0.336070 0.596070
0.784375 0.394375 0.654375
0.145620 0.405620 0.535620
0.333925 0.463925 0.593925
0.522230 0.522230 0.652230
0.710535 0.580535 0.710535
0.898840 0.638840 0.768840
0.260085 0.650085 0.650085
0.448390 0.708390 0.708390
0.636695 0.766695 0.766695
0.825000 0.825000 0.825000
1.000000 0.883305 0.883305
0.374550 0.894550 0.764550
0.562855 0.952855 0.822855
0.751160 1.000000 0.881160
0.939465 1.000000 0.939465
1.000000 1.000000 0.997770
0.000000 0.000000 0.458920
0.127225 0.000000 0.517225
0.315530 0.055530 0.575530
0.503835 0.113835 0.633835
0.692140 0.172140 0.692140
0.053385 0.183385 0.573385
0.241690 0.241690 0.631690
0.429995 0.299995 0.689995
0.618300 0.358300 0.748300
0.806605 0.416605 0.806605
0.167850 0.427850 0.687850
0.356155 0.486155 0.746155
0.544460 0.544460 0.804460
0.732765 0.602765 0.862765
0.921070 0.661070 0.921070
0.282315 0.672315 0.802315
0.470620 0.730620 0.860620
0.658925 0.788925 0.918925
0.847230 0.847230 0.977230
1.000000 0.905535 1.000000
0.396780 0.916780 0.916780
0.585085 0.975085 0.975085
0.773390 1.000000 1.000000
0.961695 1.000000 1.000000
1.000000 1.000000 1.000000
