backend/luts/bleach_bypass.cube
TITLE "Bleach Bypass"
LUT_3D_SIZE 33
DOMAIN_MIN 0.0 0.0 0.0
DOMAIN_MAX 1.0 1.0 1.0
0.000000 0.000000 0.000000
0.000000 0.000000 0.000000
0.000000 0.000000 0.000000
0.000000 0.000000 0.000000
0.000000 0.000000 0.000000
0.000000 0.000000 0.000000
0.000000 0.000000 0.000000
0.014767 0.000000 0.000000
0.038305 0.000000 0.000000
0.061843 0.000000 0.000000
0.085381 0.000000 0.000000
0.108919 0.000000 0.000000
0.132458 0.000000 0.000000
0.155996 0.000000 0.000000
0.179534 0.000000 0.000000
0.203072 0.000000 0.000000
0.226610 0.000000 0.000000
0.250148 0.000000 0.000000
0.273686 0.000000 0.000000
0.297224 0.000000 0.000000
0.320763 0.000000 0.000000
0.344301 0.003051 0.003051
0.367839 0.010339 0.010339
0.391377 0.017627 0.017627
0.414915 0.024915 0.024915
0.438453 0.032203 0.032203
0.461991 0.039491 0.039491
0.485529 0.046779 0.046779
0.509067 0.054068 0.054068
0.532606 0.061356 0.061356
0.556144 0.068644 0.068644
0.579682 0.075932 0.075932
0.603220 0.083220 0.083220
0.000000 0.000000 0.000000
0.000000 0.000000 0.000000
0.000000 0.000000 0.000000
0.000000 0.000000 0.000000
0.000000 0.000000 0.000000
0.000000 0.000000 0.000000
0.005537 0.000000 0.000000
0.029075 0.000000 0.000000
0.052613 0.000000 0.000000
0.076151 0.000000 0.000000
0.099689 0.000000 0.000000
0.123228 0.000000 0.000000
0.146766 0.000000 0.000000
0.170304 0.000000 0.000000
0.193842 0.000000 0.000000
0.217380 0.000000 0.000000
0.240918 0.000000 0.000000
0.264456 0.004456 0.000000
0.287994 0.011744 0.000000
0.311532 0.019033 0.002782
0.335071 0.026321 0.010071
0.358609 0.033609 0.017359
0.382147 0.040897 0.024647
0.405685 0.048185 0.031935
0.429223 0.055473 0.039223
0.452761 0.062761 0.046511
0.476299 0.070049 0.053799
0.499838 0.077338 0.061088
0.523376 0.084626 0.068376
0.546914 0.091914 0.075664
0.570452 0.099202 0.082952
0.593990 0.106490 0.090240
0.617528 0.113778 0.097528
0.000000 0.000000 0.000000
0.000000 0.000000 0.000000
0.000000 0.000000 0.000000
0.000000 0.000000 0.000000
0.000000 0.000000 0.000000
0.000000 0.000000 0.000000
0.019845 0.000000 0.000000
0.043383 0.000000 0.000000
0.066921 0.000000 0.000000
0.090459 0.000000 0.000000
0.113997 0.000000 0.000000
0.137536 0.000000 0.000000
0.161074 0.000000 0.000000
0.184612 0.005862 0.000000
0.208150 0.013150 0.000000
0.231688 0.020438 0.000000
0.255226 0.027726 0.000000
0.278764 0.035014 0.002514
0.302303 0.042303 0.009802
0.325841 0.049591 0.017091
0.349379 0.056879 0.024379
0.372917 0.064167 0.031667
0.396455 0.071455 0.038955
0.419993 0.078743 0.046243
0.443531 0.086031 0.053531
0.467069 0.093319 0.060819
0.490608 0.100608 0.068108
0.514146 0.107896 0.075396
0.537684 0.115184 0.082684
0.561222 0.122472 0.089972
0.584760 0.129760 0.097260
0.608298 0.137048 0.104548
0.631836 0.144336 0.111836
0.000000 0.000000 0.000000
0.000000 0.000000 0.000000
0.000000 0.000000 0.000000
0.000000 0.000000 0.000000
0.000000 0.000000 0.000000
0.010615 0.000000 0.000000
0.034153 0.000000 0.000000
0.057691 0.000000 0.000000
0.081229 0.000000 0.000000
0.104768 0.007268 0.000000
0.128306 0.014556 0.000000
0.151844 0.021844 0.000000
0.175382 0.029132 0.000000
0.198920 0.036420 0.000000
0.222458 0.043708 0.000000
0.245996 0.050996 0.002246
0.269534 0.058284 0.009534
0.293073 0.065573 0.016822
0.316611 0.072861 0.024111
0.340149 0.080149 0.031399
0.363687 0.087437 0.038687
0.387225 0.094725 0.045975
0.410763 0.102013 0.053263
0.434301 0.109301 0.060551
0.457839 0.116589 0.067839
0.481378 0.123878 0.075128
0.504916 0.131166 0.082416
0.528454 0.138454 0.089704
0.551992 0.145742 0.096992
0.575530 0.153030 0.104280
0.599068 0.160318 0.111568
0.622606 0.167606 0.118856
0.646144 0.174894 0.126144
0.000000 0.000000 0.000000
0.000000 0.000000 0.000000
0.000000 0.000000 0.000000
0.000000 0.000000 0.000000
0.001385 0.001385 0.000000
0.024923 0.008673 0.000000
0.048461 0.015961 0.000000
0.071999 0.023249 0.000000
0.095538 0.030538 0.000000
0.119076 0.037826 0.000000
0.142614 0.045114 0.000000
0.166152 0.052402 0.000000
0.189690 0.059690 0.000000
0.213228 0.066978 0.001978
0.236766 0.074266 0.009266
0.260304 0.081554 0.016554
0.283843 0.088843 0.023843
0.307381 0.096131 0.031131
0.330919 0.103419 0.038419
0.354457 0.110707 0.045707
0.377995 0.117995 0.052995
0.401533 0.125283 0.060283
0.425071 0.132571 0.067571
0.448609 0.139859 0.074859
0.472148 0.147148 0.082148
0.495686 0.154436 0.089436
0.519224 0.161724 0.096724
0.542762 0.169012 0.104012
0.566300 0.176300 0.111300
0.589838 0.183588 0.118588
0.613376 0.190876 0.125876
0.636914 0.198164 0.133164
0.660452 0.205453 0.140453
0.000000 0.002791 0.000000
0.000000 0.010079 0.000000
0.000000 0.017367 0.000000
0.000000 0.024655 0.000000
0.015693 0.031943 0.000000
0.039231 0.039231 0.000000
0.062769 0.046519 0.000000
0.086308 0.053808 0.000000
0.109846 0.061096 0.000000
0.133384 0.068384 0.000000
0.156922 0.075672 0.000000
0.180460 0.082960 0.001710
0.203998 0.090248 0.008998
0.227536 0.097536 0.016286
0.251074 0.104824 0.023574
0.274612 0.112112 0.030863
0.298151 0.119401 0.038151
0.321689 0.126689 0.045439
0.345227 0.133977 0.052727
0.368765 0.141265 0.060015
0.392303 0.148553 0.067303
0.415841 0.155841 0.074591
0.439379 0.163129 0.081879
0.462918 0.170418 0.089168
0.486456 0.177706 0.096456
0.509994 0.184994 0.103744
0.533532 0.192282 0.111032
0.557070 0.199570 0.118320
0.580608 0.206858 0.125608
0.604146 0.214146 0.132896
0.627684 0.221434 0.140184
0.651223 0.228723 0.147473
0.674761 0.236011 0.154761
0.000000 0.033349 0.000000
0.000000 0.040637 0.000000
0.000000 0.047925 0.000000
0.006463 0.055213 0.000000
0.030001 0.062501 0.000000
0.053539 0.069789 0.000000
0.077078 0.077078 0.000000
0.100616 0.084366 0.000000
0.124154 0.091654 0.000000
0.147692 0.098942 0.001442
0.171230 0.106230 0.008730
0.194768 0.113518 0.016018
0.218306 0.120806 0.023306
0.241844 0.128094 0.030594
0.265383 0.135383 0.037883
0.288921 0.142671 0.045171
0.312459 0.149959 0.052459
0.335997 0.157247 0.059747
0.359535 0.164535 0.067035
0.383073 0.171823 0.074323
0.406611 0.179111 0.081611
0.430149 0.186399 0.088899
0.453688 0.193688 0.096188
0.477226 0.200976 0.103476
0.500764 0.208264 0.110764
0.524302 0.215552 0.118052
0.547840 0.222840 0.125340
0.571378 0.230128 0.132628
0.594916 0.237416 0.139916
0.618454 0.244704 0.147204
0.641993 0.251993 0.154493
0.665531 0.259281 0.161781
0.689069 0.266569 0.169069
0.000000 0.063907 0.000000
0.000000 0.071195 0.000000
0.000000 0.078483 0.000000
0.020771 0.085771 0.000000
0.044309 0.093059 0.000000
0.067848 0.100348 0.000000
0.091386 0.107636 0.000000
0.114924 0.114924 0.001174
0.138462 0.122212 0.008462
0.162000 0.129500 0.015750
0.185538 0.136788 0.023038
0.209076 0.144076 0.030326
0.232614 0.151364 0.037614
0.256153 0.158653 0.044903
0.279691 0.165941 0.052191
0.303229 0.173229 0.059479
0.326767 0.180517 0.066767
0.350305 0.187805 0.074055
0.373843 0.195093 0.081343
0.397381 0.202381 0.088631
0.420919 0.209669 0.095919
0.444458 0.216958 0.103208
0.467996 0.224246 0.110496
0.491534 0.231534 0.117784
0.515072 0.238822 0.125072
0.538610 0.246110 0.132360
0.562148 0.253398 0.139648
0.585686 0.260686 0.146936
0.609224 0.267974 0.154224
0.632763 0.275263 0.161513
0.656301 0.282551 0.168801
0.679839 0.289839 0.176089
0.703377 0.297127 0.183377
0.000000 0.094465 0.000000
0.000000 0.101753 0.000000
0.011541 0.109041 0.000000
0.035079 0.116329 0.000000
0.058618 0.123618 0.000000
0.082156 0.130906 0.000906
0.105694 0.138194 0.008194
0.129232 0.145482 0.015482
0.152770 0.152770 0.022770
0.176308 0.160058 0.030058
0.199846 0.167346 0.037346
0.223384 0.174634 0.044634
0.246923 0.181923 0.051923
0.270461 0.189211 0.059211
0.293999 0.196499 0.066499
0.317537 0.203787 0.073787
0.341075 0.211075 0.081075
0.364613 0.218363 0.088363
0.388151 0.225651 0.095651
0.411689 0.232939 0.102939
0.435228 0.240228 0.110228
0.458766 0.247516 0.117516
0.482304 0.254804 0.124804
0.505842 0.262092 0.132092
0.529380 0.269380 0.139380
0.552918 0.276668 0.146668
0.576456 0.283956 0.153956
0.599994 0.291244 0.161244
0.623532 0.298533 0.168533
0.647071 0.305821 0.175821
0.670609 0.313109 0.183109
0.694147 0.320397 0.190397
0.717685 0.327685 0.197685
0.000000 0.125023 0.000000
0.002311 0.132311 0.000000
0.025849 0.139599 0.000000
0.049388 0.146888 0.000638
0.072926 0.154176 0.007926
0.096464 0.161464 0.015214
0.120002 0.168752 0.022502
0.143540 0.176040 0.029790
0.167078 0.183328 0.037078
0.190616 0.190616 0.044366
0.214154 0.197904 0.051654
0.237693 0.205193 0.058943
0.261231 0.212481 0.066231
0.284769 0.219769 0.073519
0.308307 0.227057 0.080807
0.331845 0.234345 0.088095
0.355383 0.241633 0.095383
0.378921 0.248921 0.102671
0.402459 0.256209 0.109959
0.425997 0.263498 0.117247
0.449536 0.270786 0.124536
0.473074 0.278074 0.131824
0.496612 0.285362 0.139112
0.520150 0.292650 0.146400
0.543688 0.299938 0.153688
0.567226 0.307226 0.160976
0.590764 0.314514 0.168264
0.614303 0.321803 0.175553
0.637841 0.329091 0.182841
0.661379 0.336379 0.190129
0.684917 0.343667 0.197417
0.708455 0.350955 0.204705
0.731993 0.358243 0.211993
0.000000 0.155581 0.000000
0.016619 0.162869 0.000369
0.040157 0.170158 0.007658
0.063696 0.177446 0.014946
0.087234 0.184734 0.022234
0.110772 0.192022 0.029522
0.134310 0.199310 0.036810
0.157848 0.206598 0.044098
0.181386 0.213886 0.051386
0.204924 0.221174 0.058674
0.228463 0.228463 0.065963
0.252001 0.235751 0.073251
0.275539 0.243039 0.080539
0.299077 0.250327 0.087827
0.322615 0.257615 0.095115
0.346153 0.264903 0.102403
0.369691 0.272191 0.109691
0.393229 0.279479 0.116979
0.416768 0.286767 0.124267
0.440306 0.294056 0.131556
0.463844 0.301344 0.138844
0.487382 0.308632 0.146132
0.510920 0.315920 0.153420
0.534458 0.323208 0.160708
0.557996 0.330496 0.167996
0.581534 0.337784 0.175284
0.605072 0.345072 0.182572
0.628611 0.352361 0.189861
0.652149 0.359649 0.197149
0.675687 0.366937 0.204437
0.699225 0.374225 0.211725
0.722763 0.381513 0.219013
0.746301 0.388801 0.226301
0.007389 0.186139 0.007389
0.030928 0.193428 0.014678
0.054466 0.200716 0.021966
0.078004 0.208004 0.029254
0.101542 0.215292 0.036542
0.125080 0.222580 0.043830
0.148618 0.229868 0.051118
0.172156 0.237156 0.058406
0.195694 0.244444 0.065694
0.219233 0.251733 0.072983
0.242771 0.259021 0.080271
0.266309 0.266309 0.087559
0.289847 0.273597 0.094847
0.313385 0.280885 0.102135
0.336923 0.288173 0.109423
0.360461 0.295461 0.116711
0.383999 0.302749 0.123999
0.407538 0.310038 0.131288
0.431076 0.317326 0.138576
0.454614 0.324614 0.145864
0.478152 0.331902 0.153152
0.501690 0.339190 0.160440
0.525228 0.346478 0.167728
0.548766 0.353766 0.175016
0.572304 0.361054 0.182304
0.595842 0.368343 0.189593
0.619381 0.375631 0.196881
0.642919 0.382919 0.204169
0.666457 0.390207 0.211457
0.689995 0.397495 0.218745
0.713533 0.404783 0.226033
0.737071 0.412071 0.233321
0.760609 0.419359 0.240609
0.021698 0.216698 0.021698
0.045236 0.223986 0.028986
0.068774 0.231274 0.036274
0.092312 0.238562 0.043562
0.115850 0.245850 0.050850
0.139388 0.253138 0.058138
0.162926 0.260426 0.065426
0.186464 0.267714 0.072714
0.210003 0.275003 0.080003
0.233541 0.282291 0.087291
0.257079 0.289579 0.094579
0.280617 0.296867 0.101867
0.304155 0.304155 0.109155
0.327693 0.311443 0.116443
0.351231 0.318731 0.123731
0.374769 0.326019 0.131019
0.398308 0.333308 0.138308
0.421846 0.340596 0.145596
0.445384 0.347884 0.152884
0.468922 0.355172 0.160172
0.492460 0.362460 0.167460
0.515998 0.369748 0.174748
0.539536 0.377036 0.182036
0.563074 0.384324 0.189324
0.586612 0.391612 0.196613
0.610151 0.398901 0.203901
0.633689 0.406189 0.211189
0.657227 0.413477 0.218477
0.680765 0.420765 0.225765
0.704303 0.428053 0.233053
0.727841 0.435341 0.240341
0.751379 0.442629 0.247629
0.774917 0.449918 0.254918
0.036006 0.247256 0.036006
0.059544 0.254544 0.043294
0.083082 0.261832 0.050582
0.106620 0.269120 0.057870
0.130158 0.276408 0.065158
0.153696 0.283696 0.072446
0.177234 0.290984 0.079734
0.200773 0.298273 0.087023
0.224311 0.305561 0.094311
0.247849 0.312849 0.101599
0.271387 0.320137 0.108887
0.294925 0.327425 0.116175
0.318463 0.334713 0.123463
0.342001 0.342001 0.130751
0.365539 0.349289 0.138039
0.389077 0.356578 0.145328
0.412616 0.363866 0.152616
0.436154 0.371154 0.159904
0.459692 0.378442 0.167192
0.483230 0.385730 0.174480
0.506768 0.393018 0.181768
0.530306 0.400306 0.189056
0.553844 0.407594 0.196344
0.577383 0.414883 0.203633
0.600921 0.422171 0.210921
0.624459 0.429459 0.218209
0.647997 0.436747 0.225497
0.671535 0.444035 0.232785
0.695073 0.451323 0.240073
0.718611 0.458611 0.247361
0.742149 0.465899 0.254649
0.765688 0.473188 0.261938
0.789226 0.480476 0.269226
0.050314 0.277814 0.050314
0.073852 0.285102 0.057602
0.097390 0.292390 0.064890
0.120928 0.299678 0.072178
0.144466 0.306966 0.079466
0.168004 0.314254 0.086754
0.191543 0.321543 0.094043
0.215081 0.328831 0.101331
0.238619 0.336119 0.108619
0.262157 0.343407 0.115907
0.285695 0.350695 0.123195
0.309233 0.357983 0.130483
0.332771 0.365271 0.137771
0.356309 0.372559 0.145059
0.379848 0.379848 0.152348
0.403386 0.387136 0.159636
0.426924 0.394424 0.166924
0.450462 0.401712 0.174212
0.474000 0.409000 0.181500
0.497538 0.416288 0.188788
0.521076 0.423576 0.196076
0.544614 0.430864 0.203364
0.568153 0.438152 0.210653
0.591691 0.445441 0.217941
0.615229 0.452729 0.225229
0.638767 0.460017 0.232517
0.662305 0.467305 0.239805
0.685843 0.474593 0.247093
0.709381 0.481881 0.254381
0.732919 0.489169 0.261669
0.756458 0.496457 0.268958
0.779996 0.503746 0.276246
0.803534 0.511034 0.283534
0.064622 0.308372 0.064622
0.088160 0.315660 0.071910
0.111698 0.322948 0.079198
0.135236 0.330236 0.086486
0.158774 0.337524 0.093774
0.182313 0.344813 0.101063
0.205851 0.352101 0.108351
0.229389 0.359389 0.115639
0.252927 0.366677 0.122927
0.276465 0.373965 0.130215
0.300003 0.381253 0.137503
0.323541 0.388541 0.144791
0.347079 0.395829 0.152079
0.370618 0.403118 0.159368
0.394156 0.410406 0.166656
0.417694 0.417694 0.173944
0.441232 0.424982 0.181232
0.464770 0.432270 0.188520
0.488308 0.439558 0.195808
0.511846 0.446846 0.203096
0.535384 0.454134 0.210384
0.558923 0.461423 0.217672
0.582461 0.468711 0.224961
0.605999 0.475999 0.232249
0.629537 0.483287 0.239537
0.653075 0.490575 0.246825
0.676613 0.497863 0.254113
0.700151 0.505151 0.261401
0.723689 0.512439 0.268689
0.747228 0.519727 0.275978
0.770766 0.527016 0.283266
0.794304 0.534304 0.290554
0.817842 0.541592 0.297842
0.078930 0.338930 0.078930
0.102468 0.346218 0.086218
0.126006 0.353506 0.093506
0.149544 0.360794 0.100794
0.173083 0.368083 0.108083
0.196621 0.375371 0.115371
0.220159 0.382659 0.122659
0.243697 0.389947 0.129947
0.267235 0.397235 0.137235
0.290773 0.404523 0.144523
0.314311 0.411811 0.151811
0.337849 0.419099 0.159099
0.361388 0.426387 0.166388
0.384926 0.433676 0.173676
0.408464 0.440964 0.180964
0.432002 0.448252 0.188252
0.455540 0.455540 0.195540
0.479078 0.462828 0.202828
0.502616 0.470116 0.210116
0.526154 0.477404 0.217404
0.549693 0.484692 0.224692
0.573231 0.491981 0.231981
0.596769 0.499269 0.239269
0.620307 0.506557 0.246557
0.643845 0.513845 0.253845
0.667383 0.521133 0.261133
0.690921 0.528421 0.268421
0.714459 0.535709 0.275709
0.737998 0.542998 0.282998
0.761536 0.550286 0.290286
0.785074 0.557574 0.297574
0.808612 0.564862 0.304862
0.832150 0.572150 0.312150
0.093238 0.369488 0.093238
0.116776 0.376776 0.100526
0.140314 0.384064 0.107814
0.163853 0.391353 0.115103
0.187391 0.398641 0.122391
0.210929 0.405929 0.129679
0.234467 0.413217 0.136967
0.258005 0.420505 0.144255
0.281543 0.427793 0.151543
0.305081 0.435081 0.158831
0.328619 0.442369 0.166119
0.352158 0.449657 0.173408
0.375696 0.456946 0.180696
0.399234 0.464234 0.187984
0.422772 0.471522 0.195272
0.446310 0.478810 0.202560
0.469848 0.486098 0.209848
0.493386 0.493386 0.217136
0.516924 0.500674 0.224424
0.540462 0.507962 0.231713
0.564001 0.515251 0.239001
0.587539 0.522539 0.246289
0.611077 0.529827 0.253577
0.634615 0.537115 0.260865
0.658153 0.544403 0.268153
0.681691 0.551691 0.275441
0.705229 0.558979 0.282729
0.728768 0.566268 0.290018
0.752306 0.573556 0.297306
0.775844 0.580844 0.304594
0.799382 0.588132 0.311882
0.822920 0.595420 0.319170
0.846458 0.602708 0.326458
0.107546 0.400046 0.107546
0.131084 0.407334 0.114834
0.154622 0.414623 0.122123
0.178161 0.421911 0.129411
0.201699 0.429199 0.136699
0.225237 0.436487 0.143987
0.248775 0.443775 0.151275
0.272313 0.451063 0.158563
0.295851 0.458351 0.165851
0.319389 0.465639 0.173139
0.342928 0.472928 0.180428
0.366466 0.480216 0.187716
0.390004 0.487504 0.195004
0.413542 0.494792 0.202292
0.437080 0.502080 0.209580
0.460618 0.509368 0.216868
0.484156 0.516656 0.224156
0.507694 0.523944 0.231444
0.531233 0.531233 0.238733
0.554771 0.538521 0.246021
0.578309 0.545809 0.253309
0.601847 0.553097 0.260597
0.625385 0.560385 0.267885
0.648923 0.567673 0.275173
0.672461 0.574961 0.282461
0.695999 0.582249 0.289749
0.719538 0.589538 0.297038
0.743076 0.596826 0.304326
0.766614 0.604114 0.311614
0.790152 0.611402 0.318902
0.813690 0.618690 0.326190
0.837228 0.625978 0.333478
0.860766 0.633266 0.340766
0.121854 0.430604 0.121854
0.145393 0.437892 0.129143
0.168931 0.445181 0.136431
0.192469 0.452469 0.143719
0.216007 0.459757 0.151007
0.239545 0.467045 0.158295
0.263083 0.474333 0.165583
0.286621 0.481621 0.172871
0.310159 0.488909 0.180159
0.333698 0.496198 0.187448
0.357236 0.503486 0.194736
0.380774 0.510774 0.202024
0.404312 0.518062 0.209312
0.427850 0.525350 0.216600
0.451388 0.532638 0.223888
0.474926 0.539926 0.231176
0.498464 0.547214 0.238464
0.522002 0.554502 0.245753
0.545541 0.561791 0.253041
0.569079 0.569079 0.260329
0.592617 0.576367 0.267617
0.616155 0.583655 0.274905
0.639693 0.590943 0.282193
0.663231 0.598231 0.289481
0.686769 0.605519 0.296769
0.710307 0.612808 0.304058
0.733846 0.620096 0.311346
0.757384 0.627384 0.318634
0.780922 0.634672 0.325922
0.804460 0.641960 0.333210
0.827998 0.649248 0.340498
0.851536 0.656536 0.347786
0.875074 0.663824 0.355074
0.136163 0.461163 0.136163
0.159701 0.468451 0.143451
0.183239 0.475739 0.150739
0.206777 0.483027 0.158027
0.230315 0.490315 0.165315
0.253853 0.497603 0.172603
0.277391 0.504891 0.179891
0.300929 0.512179 0.187179
0.324468 0.519468 0.194468
0.348006 0.526756 0.201756
0.371544 0.534044 0.209044
0.395082 0.541332 0.216332
0.418620 0.548620 0.223620
0.442158 0.555908 0.230908
0.465696 0.563196 0.238196
0.489234 0.570484 0.245484
0.512773 0.577772 0.252773
0.536311 0.585061 0.260061
0.559849 0.592349 0.267349
0.583387 0.599637 0.274637
0.606925 0.606925 0.281925
0.630463 0.614213 0.289213
0.654001 0.621501 0.296501
0.677539 0.628789 0.303789
0.701078 0.636078 0.311078
0.724616 0.643366 0.318366
0.748154 0.650654 0.325654
0.771692 0.657942 0.332942
0.795230 0.665230 0.340230
0.818768 0.672518 0.347518
0.842306 0.679806 0.354806
0.865844 0.687094 0.362094
0.889382 0.694382 0.369383
0.150471 0.491721 0.150471
0.174009 0.499009 0.157759
0.197547 0.506297 0.165047
0.221085 0.513585 0.172335
0.244623 0.520873 0.179623
0.268161 0.528161 0.186911
0.291699 0.535449 0.194199
0.315238 0.542738 0.201488
0.338776 0.550026 0.208776
0.362314 0.557314 0.216064
0.385852 0.564602 0.223352
0.409390 0.571890 0.230640
0.432928 0.579178 0.237928
0.456466 0.586466 0.245216
0.480004 0.593754 0.252504
0.503542 0.601043 0.259793
0.527081 0.608331 0.267081
0.550619 0.615619 0.274369
0.574157 0.622907 0.281657
0.597695 0.630195 0.288945
0.621233 0.637483 0.296233
0.644771 0.644771 0.303521
0.668309 0.652059 0.310809
0.691848 0.659348 0.318098
0.715386 0.666636 0.325386
0.738924 0.673924 0.332674
0.762462 0.681212 0.339962
0.786000 0.688500 0.347250
0.809538 0.695788 0.354538
0.833076 0.703076 0.361826
0.856614 0.710364 0.369114
0.880153 0.717653 0.376403
0.903691 0.724941 0.383691
0.164779 0.522279 0.164779
0.188317 0.529567 0.172067
0.211855 0.536855 0.179355
0.235393 0.544143 0.186643
0.258931 0.551431 0.193931
0.282469 0.558719 0.201219
0.306008 0.566008 0.208508
0.329546 0.573296 0.215796
0.353084 0.580584 0.223084
0.376622 0.587872 0.230372
0.400160 0.595160 0.237660
0.423698 0.602448 0.244948
0.447236 0.609736 0.252236
0.470774 0.617024 0.259524
0.494313 0.624313 0.266813
0.517851 0.631601 0.274101
0.541389 0.638889 0.281389
0.564927 0.646177 0.288677
0.588465 0.653465 0.295965
0.612003 0.660753 0.303253
0.635541 0.668041 0.310541
0.659079 0.675329 0.317829
0.682618 0.682618 0.325118
0.706156 0.689906 0.332406
0.729694 0.697194 0.339694
0.753232 0.704482 0.346982
0.776770 0.711770 0.354270
0.800308 0.719058 0.361558
0.823846 0.726346 0.368846
0.847384 0.733634 0.376134
0.870923 0.740923 0.383423
0.894461 0.748211 0.390711
0.917999 0.755499 0.397999
0.179087 0.552837 0.179087
0.202625 0.560125 0.186375
0.226163 0.567413 0.193663
0.249701 0.574701 0.200951
0.273239 0.581989 0.208239
0.296778 0.589278 0.215528
0.320316 0.596566 0.222816
0.343854 0.603854 0.230104
0.367392 0.611142 0.237392
0.390930 0.618430 0.244680
0.414468 0.625718 0.251968
0.438006 0.633006 0.259256
0.461544 0.640294 0.266544
0.485083 0.647583 0.273832
0.508621 0.654871 0.281121
0.532159 0.662159 0.288409
0.555697 0.669447 0.295697
0.579235 0.676735 0.302985
0.602773 0.684023 0.310273
0.626311 0.691311 0.317561
0.649849 0.698599 0.324849
0.673388 0.705888 0.332138
0.696926 0.713176 0.339426
0.720464 0.720464 0.346714
0.744002 0.727752 0.354002
0.767540 0.735040 0.361290
0.791078 0.742328 0.368578
0.814616 0.749616 0.375866
0.838154 0.756904 0.383154
0.861693 0.764193 0.390443
0.885231 0.771481 0.397731
0.908769 0.778769 0.405019
0.932307 0.786057 0.412307
0.193395 0.583395 0.193395
0.216933 0.590683 0.200683
0.240471 0.597971 0.207971
0.264009 0.605259 0.215259
0.287548 0.612548 0.222548
0.311086 0.619836 0.229836
0.334624 0.627124 0.237124
0.358162 0.634412 0.244412
0.381700 0.641700 0.251700
0.405238 0.648988 0.258988
0.428776 0.656276 0.266276
0.452314 0.663564 0.273564
0.475853 0.670853 0.280853
0.499391 0.678141 0.288141
0.522929 0.685429 0.295429
0.546467 0.692717 0.302717
0.570005 0.700005 0.310005
0.593543 0.707293 0.317293
0.617081 0.714581 0.324581
0.640619 0.721869 0.331869
0.664158 0.729158 0.339158
0.687696 0.736446 0.346446
0.711234 0.743734 0.353734
0.734772 0.751022 0.361022
0.758310 0.758310 0.368310
0.781848 0.765598 0.375598
0.805386 0.772886 0.382886
0.828924 0.780174 0.390174
0.852462 0.787462 0.397462
0.876001 0.794751 0.404751
0.899539 0.802039 0.412039
0.923077 0.809327 0.419327
0.946615 0.816615 0.426615
0.207703 0.613953 0.207703
0.231241 0.621241 0.214991
0.254779 0.628529 0.222279
0.278318 0.635818 0.229568
0.301856 0.643106 0.236856
0.325394 0.650394 0.244144
0.348932 0.657682 0.251432
0.372470 0.664970 0.258720
0.396008 0.672258 0.266008
0.419546 0.679546 0.273296
0.443084 0.686834 0.280584
0.466623 0.694122 0.287873
0.490161 0.701411 0.295161
0.513699 0.708699 0.302449
0.537237 0.715987 0.309737
0.560775 0.723275 0.317025
0.584313 0.730563 0.324313
0.607851 0.737851 0.331601
0.631389 0.745139 0.338889
0.654927 0.752427 0.346178
0.678466 0.759716 0.353466
0.702004 0.767004 0.360754
0.725542 0.774292 0.368042
0.749080 0.781580 0.375330
0.772618 0.788868 0.382618
0.796156 0.796156 0.389906
0.819694 0.803444 0.397194
0.843233 0.810732 0.404483
0.866771 0.818021 0.411771
0.890309 0.825309 0.419059
0.913847 0.832597 0.426347
0.937385 0.839885 0.433635
0.960923 0.847173 0.440923
0.222011 0.644511 0.222011
0.245549 0.651799 0.229299
0.269087 0.659088 0.236587
0.292626 0.666376 0.243876
0.316164 0.673664 0.251164
0.339702 0.680952 0.258452
0.363240 0.688240 0.265740
0.386778 0.695528 0.273028
0.410316 0.702816 0.280316
0.433854 0.710104 0.287604
0.457393 0.717393 0.294893
0.480931 0.724681 0.302181
0.504469 0.731969 0.309469
0.528007 0.739257 0.316757
0.551545 0.746545 0.324045
0.575083 0.753833 0.331333
0.598621 0.761121 0.338621
0.622159 0.768409 0.345909
0.645698 0.775698 0.353198
0.669236 0.782986 0.360486
0.692774 0.790274 0.367774
0.716312 0.797562 0.375062
0.739850 0.804850 0.382350
0.763388 0.812138 0.389638
0.786926 0.819426 0.396926
0.810464 0.826714 0.404214
0.834002 0.834002 0.411503
