backend/luts/bleach_bypass.cube
TITLE "Bleach Bypass"
LUT_3D_SIZE 9
DOMAIN_MIN 0.0 0.0 0.0
DOMAIN_MAX 1.0 1.0 1.0
0.000000 0.000000 0.000000
0.000000 0.000000 0.000000
0.038305 0.000000 0.000000
0.132458 0.000000 0.000000
0.226610 0.000000 0.000000
0.320763 0.000000 0.000000
0.414915 0.024915 0.024915
0.509067 0.054068 0.054068
0.603220 0.083220 0.083220
0.000000 0.000000 0.000000
0.001385 0.001385 0.000000
0.095538 0.030538 0.000000
0.189690 0.059690 0.000000
0.283843 0.088843 0.023843
0.377995 0.117995 0.052995
0.472148 0.147148 0.082148
0.566300 0.176300 0.111300
0.660452 0.205453 0.140453
0.000000 0.094465 0.000000
0.058618 0.123618 0.000000
0.152770 0.152770 0.022770
0.246923 0.181923 0.051923
0.341075 0.211075 0.081075
0.435228 0.240228 0.110228
0.529380 0.269380 0.139380
0.623532 0.298533 0.168533
0.717685 0.327685 0.197685
0.021698 0.216698 0.021698
0.115850 0.245850 0.050850
0.210003 0.275003 0.080003
0.304155 0.304155 0.109155
0.398308 0.333308 0.138308
0.492460 0.362460 0.167460
0.586612 0.391612 0.196613
0.680765 0.420765 0.225765
0.774917 0.449918 0.254918
0.078930 0.338930 0.078930
0.173083 0.368083 0.108083
0.267235 0.397235 0.137235
0.361388 0.426387 0.166388
0.455540 0.455540 0.195540
0.549693 0.484692 0.224692
0.643845 0.513845 0.253845
0.737998 0.542998 0.282998
0.832150 0.572150 0.312150
0.136163 0.461163 0.136163
0.230315 0.490315 0.165315
0.324468 0.519468 0.194468
0.418620 0.548620 0.223620
0.512773 0.577772 0.252773
0.606925 0.606925 0.281925
0.701078 0.636078 0.311078
0.795230 0.665230 0.340230
0.889382 0.694382 0.369383
0.193395 0.583395 0.193395
0.287548 0.612548 0.222548
0.381700 0.641700 0.251700
0.475853 0.670853 0.280853
0.570005 0.700005 0.310005
0.664158 0.729158 0.339158
0.758310 0.758310 0.368310
0.852462 0.787462 0.397462
0.946615 0.816615 0.426615
0.250628 0.705628 0.250628
0.344780 0.734780 0.279780
0.438933 0.763932 0.308933
0.533085 0.793085 0.338085
0.627238 0.822237 0.367238
0.721390 0.851390 0.396390
0.815543 0.880542 0.425543
0.909695 0.909695 0.454695
1.000000 0.938848 0.483848
0.307860 0.827860 0.307860
0.402013 0.857013 0.337012
0.496165 0.886165 0.366165
0.590318 0.915318 0.395318
0.684470 0.944470 0.424470
0.778623 0.973623 0.453623
0.872775 1.000000 0.482775
0.966927 1.000000 0.511927
1.000000 1.000000 0.541080
0.000000 0.000000 0.000000
0.000000 0.000000 0.000000
0.049420 0.000000 0.000000
0.143573 0.000000 0.013573
0.237725 0.000000 0.042725
0.331877 0.006878 0.071878
0.426030 0.036030 0.101030
0.520182 0.065183 0.130183
0.614335 0.094335 0.159335
0.000000 0.000000 0.000000
0.012500 0.012500 0.012500
0.106653 0.041653 0.041653
0.200805 0.070805 0.070805
0.294958 0.099957 0.099957
0.389110 0.129110 0.129110
0.483263 0.158263 0.158263
0.577415 0.187415 0.187415
0.671568 0.216568 0.216568
0.000000 0.105580 0.040580
0.069733 0.134733 0.069733
0.163885 0.163885 0.098885
0.258038 0.193038 0.128038
0.352190 0.222190 0.157190
0.446343 0.251343 0.186343
0.540495 0.280495 0.215495
0.634647 0.309648 0.244648
0.728800 0.338800 0.273800
0.032813 0.227813 0.097813
0.126965 0.256965 0.126965
0.221118 0.286118 0.156118
0.315270 0.315270 0.185270
0.409423 0.344423 0.214423
0.503575 0.373575 0.243575
0.597728 0.402728 0.272728
0.691880 0.431880 0.301880
0.786032 0.461033 0.331033
0.090045 0.350045 0.155045
0.184198 0.379198 0.184198
0.278350 0.408350 0.213350
0.372503 0.437503 0.242503
0.466655 0.466655 0.271655
0.560807 0.495808 0.300808
0.654960 0.524960 0.329960
0.749112 0.554113 0.359113
0.843265 0.583265 0.388265
0.147278 0.472278 0.212278
0.241430 0.501430 0.241430
0.335583 0.530582 0.270583
0.429735 0.559735 0.299735
0.523887 0.588887 0.328888
0.618040 0.618040 0.358040
0.712193 0.647192 0.387193
0.806345 0.676345 0.416345
0.900497 0.705497 0.445497
0.204510 0.594510 0.269510
0.298663 0.623663 0.298663
0.392815 0.652815 0.327815
0.486968 0.681967 0.356968
0.581120 0.711120 0.386120
0.675272 0.740273 0.415273
0.769425 0.769425 0.444425
0.863577 0.798577 0.473577
0.957730 0.827730 0.502730
0.261743 0.716743 0.326743
0.355895 0.745895 0.355895
0.450047 0.775048 0.385048
0.544200 0.804200 0.414200
0.638353 0.833353 0.443353
0.732505 0.862505 0.472505
0.826658 0.891657 0.501657
0.920810 0.920810 0.530810
1.000000 0.949962 0.559963
0.318975 0.838975 0.383975
0.413127 0.868127 0.413127
0.507280 0.897280 0.442280
0.601432 0.926432 0.471433
0.695585 0.955585 0.500585
0.789737 0.984737 0.529738
0.883890 1.000000 0.558890
0.978042 1.000000 0.588042
1.000000 1.000000 0.617195
0.000000 0.000000 0.002230
0.000000 0.000000 0.031383
0.060535 0.000000 0.060535
0.154688 0.000000 0.089687
0.248840 0.000000 0.118840
0.342993 0.017993 0.147993
0.437145 0.047145 0.177145
0.531297 0.076298 0.206298
0.625450 0.105450 0.235450
0.000000 0.000000 0.059463
0.023615 0.023615 0.088615
0.117768 0.052767 0.117768
0.211920 0.081920 0.146920
0.306073 0.111072 0.176073
0.400225 0.140225 0.205225
0.494378 0.169378 0.234378
0.588530 0.198530 0.263530
0.682682 0.227683 0.292683
0.000000 0.116695 0.116695
0.080848 0.145848 0.145848
0.175000 0.175000 0.175000
0.269153 0.204152 0.204152
0.363305 0.233305 0.233305
0.457458 0.262458 0.262458
0.551610 0.291610 0.291610
0.645763 0.320763 0.320763
0.739915 0.349915 0.349915
0.043928 0.238928 0.173928
0.138080 0.268080 0.203080
0.232233 0.297233 0.232233
0.326385 0.326385 0.261385
0.420538 0.355538 0.290538
0.514690 0.384690 0.319690
0.608842 0.413842 0.348843
0.702995 0.442995 0.377995
0.797148 0.472148 0.407148
0.101160 0.361160 0.231160
0.195312 0.390313 0.260313
0.289465 0.419465 0.289465
0.383618 0.448618 0.318618
0.477770 0.477770 0.347770
0.571923 0.506923 0.376923
0.666075 0.536075 0.406075
0.760228 0.565228 0.435228
0.854380 0.594380 0.464380
0.158393 0.483393 0.288392
0.252545 0.512545 0.317545
0.346698 0.541698 0.346698
0.440850 0.570850 0.375850
0.535003 0.600003 0.405003
0.629155 0.629155 0.434155
0.723308 0.658308 0.463308
0.817460 0.687460 0.492460
0.911613 0.716613 0.521612
0.215625 0.605625 0.345625
0.309778 0.634777 0.374778
0.403930 0.663930 0.403930
0.498083 0.693083 0.433083
0.592235 0.722235 0.462235
0.686388 0.751388 0.491388
0.780540 0.780540 0.520540
0.874692 0.809693 0.549693
0.968845 0.838845 0.578845
0.272858 0.727858 0.402858
0.367010 0.757010 0.432010
0.461163 0.786163 0.461163
0.555315 0.815315 0.490315
0.649468 0.844468 0.519468
0.743620 0.873620 0.548620
0.837772 0.902772 0.577772
0.931925 0.931925 0.606925
1.000000 0.961078 0.636078
0.330090 0.850090 0.460090
0.424243 0.879243 0.489243
0.518395 0.908395 0.518395
0.612548 0.937548 0.547548
0.706700 0.966700 0.576700
0.800853 0.995852 0.605852
0.895005 1.000000 0.635005
0.989158 1.000000 0.664158
1.000000 1.000000 0.693310
0.000000 0.000000 0.078345
0.000000 0.000000 0.107498
0.071650 0.000000 0.136650
0.165803 0.000000 0.165803
0.259955 0.000000 0.194955
0.354107 0.029108 0.224108
0.448260 0.058260 0.253260
0.542412 0.087413 0.282413
0.636565 0.116565 0.311565
0.000000 0.005578 0.135578
0.034730 0.034730 0.164730
0.128882 0.063883 0.193882
0.223035 0.093035 0.223035
0.317187 0.122188 0.252188
0.411340 0.151340 0.281340
0.505493 0.180493 0.310493
0.599645 0.209645 0.339645
0.693798 0.238798 0.368798
0.000000 0.127810 0.192810
0.091963 0.156963 0.221963
0.186115 0.186115 0.251115
0.280268 0.215268 0.280268
0.374420 0.244420 0.309420
0.468573 0.273573 0.338573
0.562725 0.302725 0.367725
0.656877 0.331877 0.396878
0.751030 0.361030 0.426030
0.055043 0.250043 0.250043
0.149195 0.279195 0.279195
0.243348 0.308348 0.308348
0.337500 0.337500 0.337500
0.431653 0.366652 0.366652
0.525805 0.395805 0.395805
0.619958 0.424958 0.424958
0.714110 0.454110 0.454110
0.808263 0.483263 0.483263
0.112275 0.372275 0.307275
0.206428 0.401428 0.336428
0.300580 0.430580 0.365580
0.394733 0.459733 0.394733
0.488885 0.488885 0.423885
0.583037 0.518037 0.453038
0.677190 0.547190 0.482190
0.771342 0.576342 0.511343
0.865495 0.605495 0.540495
0.169508 0.494507 0.364508
0.263660 0.523660 0.393660
0.357813 0.552812 0.422813
0.451965 0.581965 0.451965
0.546118 0.611118 0.481118
0.640270 0.640270 0.510270
0.734423 0.669423 0.539423
0.828575 0.698575 0.568575
0.922727 0.727727 0.597727
0.226740 0.616740 0.421740
0.320893 0.645893 0.450893
0.415045 0.675045 0.480045
0.509198 0.704198 0.509198
0.603350 0.733350 0.538350
0.697502 0.762503 0.567503
0.791655 0.791655 0.596655
0.885807 0.820808 0.625808
0.979960 0.849960 0.654960
0.283973 0.738973 0.478973
0.378125 0.768125 0.508125
0.472278 0.797278 0.537278
0.566430 0.826430 0.566430
0.660583 0.855582 0.595583
0.754735 0.884735 0.624735
0.848888 0.913888 0.653888
0.943040 0.943040 0.683040
1.000000 0.972193 0.712193
0.341205 0.861205 0.536205
0.435358 0.890357 0.565358
0.529510 0.919510 0.594510
0.623663 0.948663 0.623663
0.717815 0.977815 0.652815
0.811967 1.000000 0.681967
0.906120 1.000000 0.711120
1.000000 1.000000 0.740273
1.000000 1.000000 0.769425
0.000000 0.000000 0.154460
0.000000 0.000000 0.183612
0.082765 0.000000 0.212765
0.176918 0.000000 0.241917
0.271070 0.011070 0.271070
0.365223 0.040222 0.300223
0.459375 0.069375 0.329375
0.553528 0.098528 0.358528
0.647680 0.127680 0.387680
0.000000 0.016693 0.211693
0.045845 0.045845 0.240845
0.139998 0.074998 0.269998
0.234150 0.104150 0.299150
0.328303 0.133303 0.328303
0.422455 0.162455 0.357455
0.516608 0.191608 0.386608
0.610760 0.220760 0.415760
0.704913 0.249913 0.444913
0.008925 0.138925 0.268925
0.103078 0.168078 0.298078
0.197230 0.197230 0.327230
0.291383 0.226383 0.356383
0.385535 0.255535 0.385535
0.479688 0.284688 0.414688
0.573840 0.313840 0.443840
0.667993 0.342993 0.472993
0.762145 0.372145 0.502145
0.066158 0.261158 0.326158
0.160310 0.290310 0.355310
0.254463 0.319463 0.384463
0.348615 0.348615 0.413615
0.442768 0.377768 0.442768
0.536920 0.406920 0.471920
0.631073 0.436073 0.501072
0.725225 0.465225 0.530225
0.819377 0.494377 0.559377
0.123390 0.383390 0.383390
0.217543 0.412543 0.412543
0.311695 0.441695 0.441695
0.405848 0.470848 0.470848
0.500000 0.500000 0.500000
0.594153 0.529153 0.529153
0.688305 0.558305 0.558305
0.782458 0.587457 0.587457
0.876610 0.616610 0.616610
0.180623 0.505623 0.440623
0.274775 0.534775 0.469775
0.368928 0.563928 0.498928
0.463080 0.593080 0.528080
0.557232 0.622232 0.557232
0.651385 0.651385 0.586385
0.745538 0.680538 0.615537
0.839690 0.709690 0.644690
0.933842 0.738842 0.673842
0.237855 0.627855 0.497855
0.332008 0.657007 0.527008
0.426160 0.686160 0.556160
0.520312 0.715313 0.585312
0.614465 0.744465 0.614465
0.708618 0.773618 0.643618
0.802770 0.802770 0.672770
0.896922 0.831922 0.701922
0.991075 0.861075 0.731075
0.295088 0.750087 0.555088
0.389240 0.779240 0.584240
0.483393 0.808393 0.613393
0.577545 0.837545 0.642545
0.671697 0.866698 0.671697
0.765850 0.895850 0.700850
0.860002 0.925002 0.730003
0.954155 0.954155 0.759155
1.000000 0.983307 0.788308
0.352320 0.872320 0.612320
0.446473 0.901473 0.641473
0.540625 0.930625 0.670625
0.634777 0.959777 0.699777
0.728930 0.988930 0.728930
0.823083 1.000000 0.758083
0.917235 1.000000 0.787235
1.000000 1.000000 0.816388
1.000000 1.000000 0.845540
0.000000 0.000000 0.230575
0.000000 0.000000 0.259728
0.093880 0.000000 0.288880
0.188033 0.000000 0.318033
0.282185 0.022185 0.347185
0.376338 0.051338 0.376338
0.470490 0.080490 0.405490
0.564642 0.109643 0.434642
0.658795 0.138795 0.463795
0.000000 0.027808 0.287808
0.056960 0.056960 0.316960
0.151112 0.086113 0.346112
0.245265 0.115265 0.375265
0.339418 0.144418 0.404417
0.433570 0.173570 0.433570
0.527722 0.202723 0.462723
0.621875 0.231875 0.491875
0.716027 0.261028 0.521028
0.020040 0.150040 0.345040
0.114193 0.179193 0.374193
0.208345 0.208345 0.403345
0.302498 0.237498 0.432498
0.396650 0.266650 0.461650
0.490803 0.295803 0.490803
0.584955 0.324955 0.519955
0.679107 0.354107 0.549108
0.773260 0.383260 0.578260
0.077273 0.272273 0.402273
0.171425 0.301425 0.431425
0.265577 0.330578 0.460578
0.359730 0.359730 0.489730
0.453882 0.388883 0.518883
0.548035 0.418035 0.548035
0.642187 0.447188 0.577188
0.736340 0.476340 0.606340
0.830492 0.505493 0.635493
0.134505 0.394505 0.459505
0.228658 0.423658 0.488658
0.322810 0.452810 0.517810
0.416963 0.481963 0.546962
0.511115 0.511115 0.576115
0.605268 0.540268 0.605268
0.699420 0.569420 0.634420
0.793573 0.598573 0.663573
0.887725 0.627725 0.692725
0.191738 0.516737 0.516737
0.285890 0.545890 0.545890
0.380043 0.575042 0.575042
0.474195 0.604195 0.604195
0.568348 0.633348 0.633348
0.662500 0.662500 0.662500
0.756652 0.691653 0.691653
0.850805 0.720805 0.720805
0.944957 0.749958 0.749958
0.248970 0.638970 0.573970
0.343123 0.668123 0.603123
0.437275 0.697275 0.632275
0.531428 0.726428 0.661428
0.625580 0.755580 0.690580
0.719733 0.784733 0.719733
0.813885 0.813885 0.748885
0.908038 0.843037 0.778038
1.000000 0.872190 0.807190
0.306203 0.761202 0.631203
0.400355 0.790355 0.660355
0.494508 0.819508 0.689508
0.588660 0.848660 0.718660
0.682813 0.877813 0.747813
0.776965 0.906965 0.776965
0.871117 0.936118 0.806118
0.965270 0.965270 0.835270
1.000000 0.994423 0.864423
0.363435 0.883435 0.688435
0.457588 0.912588 0.717588
0.551740 0.941740 0.746740
0.645893 0.970893 0.775892
0.740045 1.000000 0.805045
0.834198 1.000000 0.834198
0.928350 1.000000 0.863350
1.000000 1.000000 0.892503
1.000000 1.000000 0.921655
0.000000 0.000000 0.306690
0.010843 0.000000 0.335843
0.104995 0.000000 0.364995
0.199148 0.004148 0.394148
0.293300 0.033300 0.423300
0.387453 0.062453 0.452453
0.481605 0.091605 0.481605
0.575758 0.120758 0.510758
0.669910 0.149910 0.539910
0.000000 0.038923 0.363923
0.068075 0.068075 0.393075
0.162228 0.097228 0.422228
0.256380 0.126380 0.451380
0.350533 0.155533 0.480533
0.444685 0.184685 0.509685
0.538838 0.213838 0.538838
0.632990 0.242990 0.567990
0.727143 0.272143 0.597143
0.031155 0.161155 0.421155
0.125308 0.190308 0.450308
0.219460 0.219460 0.479460
0.313613 0.248613 0.508613
0.407765 0.277765 0.537765
0.501918 0.306918 0.566918
0.596070 0.336070 0.596070
0.690223 0.365223 0.625223
0.784375 0.394375 0.654375
0.088388 0.283388 0.478388
0.182540 0.312540 0.507540
0.276693 0.341693 0.536693
0.370845 0.370845 0.565845
0.464998 0.399998 0.594998
0.559150 0.429150 0.624150
0.653303 0.458303 0.653303
0.747455 0.487455 0.682455
0.841607 0.516608 0.711608
0.145620 0.405620 0.535620
0.239773 0.434773 0.564772
0.333925 0.463925 0.593925
0.428078 0.493077 0.623078
0.522230 0.522230 0.652230
0.616382 0.551383 0.681383
0.710535 0.580535 0.710535
0.804688 0.609688 0.739688
0.898840 0.638840 0.768840
0.202853 0.527853 0.592853
0.297005 0.557005 0.622005
0.391158 0.586158 0.651157
0.485310 0.615310 0.680310
0.579463 0.644462 0.709463
0.673615 0.673615 0.738615
0.767768 0.702767 0.767768
0.861920 0.731920 0.796920
0.956073 0.761072 0.826073
0.260085 0.650085 0.650085
0.354238 0.679237 0.679237
0.448390 0.708390 0.708390
0.542543 0.737543 0.737543
0.636695 0.766695 0.766695
0.730847 0.795848 0.795848
0.825000 0.825000 0.825000
0.919152 0.854153 0.854153
1.000000 0.883305 0.883305
0.317318 0.772318 0.707318
0.411470 0.801470 0.736470
0.505623 0.830623 0.765623
0.599775 0.859775 0.794775
0.693928 0.888928 0.823928
0.788080 0.918080 0.853080
0.882233 0.947232 0.882233
0.976385 0.976385 0.911385
1.000000 1.000000 0.940538
0.374550 0.894550 0.764550
0.468703 0.923702 0.793702
0.562855 0.952855 0.822855
0.657007 0.982008 0.852008
0.751160 1.000000 0.881160
0.845312 1.000000 0.910313
0.939465 1.000000 0.939465
1.000000 1.000000 0.968618
1.000000 1.000000 0.997770
0.000000 0.000000 0.382805
0.021957 0.000000 0.411958
0.116110 0.000000 0.441110
0.210263 0.015263 0.470262
0.304415 0.044415 0.499415
0.398568 0.073568 0.528567
0.492720 0.102720 0.557720
0.586872 0.131873 0.586872
0.681025 0.161025 0.616025
0.000000 0.050038 0.440038
0.079190 0.079190 0.469190
0.173342 0.108342 0.498342
0.267495 0.137495 0.527495
0.361648 0.166647 0.556647
0.455800 0.195800 0.585800
0.549953 0.224953 0.614952
0.644105 0.254105 0.644105
0.738257 0.283258 0.673258
0.042270 0.172270 0.497270
0.136423 0.201423 0.526423
0.230575 0.230575 0.555575
0.324728 0.259728 0.584728
0.418880 0.288880 0.613880
0.513033 0.318033 0.643033
0.607185 0.347185 0.672185
0.701338 0.376338 0.701338
0.795490 0.405490 0.730490
0.099503 0.294503 0.554502
0.193655 0.323655 0.583655
0.287808 0.352808 0.612808
0.381960 0.381960 0.641960
0.476113 0.411113 0.671113
0.570265 0.440265 0.700265
0.664417 0.469418 0.729417
0.758570 0.498570 0.758570
0.852722 0.527722 0.787722
0.156735 0.416735 0.611735
0.250888 0.445888 0.640887
0.345040 0.475040 0.670040
0.439192 0.504192 0.699192
0.533345 0.533345 0.728345
0.627498 0.562497 0.757497
0.721650 0.591650 0.786650
0.815802 0.620803 0.815802
0.909955 0.649955 0.844955
0.213968 0.538967 0.668967
0.308120 0.568120 0.698120
0.402272 0.597273 0.727272
0.496425 0.626425 0.756425
0.590578 0.655578 0.785578
0.684730 0.684730 0.814730
0.778883 0.713883 0.843882
0.873035 0.743035 0.873035
0.967188 0.772188 0.902187
0.271200 0.661200 0.726200
0.365353 0.690352 0.755352
0.459505 0.719505 0.784505
0.553658 0.748657 0.813658
0.647810 0.777810 0.842810
0.741963 0.806962 0.871962
0.836115 0.836115 0.901115
0.930267 0.865267 0.930267
1.000000 0.894420 0.959420
0.328433 0.783432 0.783432
0.422585 0.812585 0.812585
0.516738 0.841738 0.841738
0.610890 0.870890 0.870890
0.705043 0.900043 0.900043
0.799195 0.929195 0.929195
0.893348 0.958347 0.958347
0.987500 0.987500 0.987500
1.000000 1.000000 1.000000
0.385665 0.905665 0.840665
0.479818 0.934818 0.869817
0.573970 0.963970 0.898970
0.668123 0.993123 0.928122
0.762275 1.000000 0.957275
0.856427 1.000000 0.986427
0.950580 1.000000 1.000000
1.000000 1.000000 1.000000
1.000000 1.000000 1.000000
0.000000 0.000000 0.458920
0.033073 0.000000 0.488072
0.127225 0.000000 0.517225
0.221378 0.026378 0.546378
0.315530 0.055530 0.575530
0.409683 0.084683 0.604683
0.503835 0.113835 0.633835
0.597987 0.142988 0.662988
0.692140 0.172140 0.692140
0.000000 0.061153 0.516153
0.090305 0.090305 0.545305
0.184457 0.119457 0.574458
0.278610 0.148610 0.603610
0.372763 0.177763 0.632762
0.466915 0.206915 0.661915
0.561068 0.236068 0.691068
0.655220 0.265220 0.720220
0.749373 0.294373 0.749373
0.053385 0.183385 0.573385
0.147537 0.212537 0.602538
0.241690 0.241690 0.631690
0.335842 0.270843 0.660842
0.429995 0.299995 0.689995
0.524148 0.329148 0.719148
0.618300 0.358300 0.748300
0.712452 0.387453 0.777453
0.806605 0.416605 0.806605
0.110618 0.305618 0.630617
0.204770 0.334770 0.659770
0.298922 0.363923 0.688923
0.393075 0.393075 0.718075
0.487227 0.422228 0.747228
0.581380 0.451380 0.776380
0.675533 0.480533 0.805533
0.769685 0.509685 0.834685
0.863838 0.538838 0.863838
0.167850 0.427850 0.687850
0.262003 0.457003 0.717003
0.356155 0.486155 0.746155
0.450308 0.515308 0.775308
0.544460 0.544460 0.804460
0.638613 0.573613 0.833613
0.732765 0.602765 0.862765
0.826918 0.631918 0.891918
0.921070 0.661070 0.921070
0.225083 0.550083 0.745082
0.319235 0.579235 0.774235
0.413388 0.608388 0.803388
0.507540 0.637540 0.832540
0.601692 0.666692 0.861693
0.695845 0.695845 0.890845
0.789998 0.724998 0.919998
0.884150 0.754150 0.949150
0.978303 0.783303 0.978303
0.282315 0.672315 0.802315
0.376468 0.701468 0.831468
0.470620 0.730620 0.860620
0.564773 0.759773 0.889773
0.658925 0.788925 0.918925
0.753078 0.818078 0.948078
0.847230 0.847230 0.977230
0.941382 0.876383 1.000000
1.000000 0.905535 1.000000
0.339548 0.794547 0.859548
0.433700 0.823700 0.888700
0.527853 0.852852 0.917853
0.622005 0.882005 0.947005
0.716158 0.911158 0.976158
0.810310 0.940310 1.000000
0.904463 0.969463 1.000000
0.998615 0.998615 1.000000
1.000000 1.000000 1.000000
0.396780 0.916780 0.916780
0.490933 0.945933 0.945933
0.585085 0.975085 0.975085
0.679237 1.000000 1.000000
0.773390 1.000000 1.000000
0.867543 1.000000 1.000000
0.961695 1.000000 1.000000
1.000000 1.000000 1.000000
1.000000 1.000000 1.000000
