backend/luts/cold_winter.cube
TITLE "Cold Winter"
LUT_3D_SIZE 9
DOMAIN_MIN 0.0 0.0 0.0
DOMAIN_MAX 1.0 1.0 1.0
0.042606 0.042606 0.062574
0.153649 0.042606 0.062574
0.262932 0.042606 0.062574
0.371285 0.042606 0.062574
0.479000 0.042606 0.062574
0.586228 0.042606 0.062574
0.693063 0.042606 0.062574
0.799569 0.042606 0.062574
0.905791 0.042606 0.062574
0.042606 0.162194 0.062574
0.153649 0.162194 0.062574
0.262932 0.162194 0.062574
0.371285 0.162194 0.062574
0.479000 0.162194 0.062574
0.586228 0.162194 0.062574
0.693063 0.162194 0.062574
0.799569 0.162194 0.062574
0.905791 0.162194 0.062574
0.042606 0.279838 0.062574
0.153649 0.279838 0.062574
0.262932 0.279838 0.062574
0.371285 0.279838 0.062574
0.479000 0.279838 0.062574
0.586228 0.279838 0.062574
0.693063 0.279838 0.062574
0.799569 0.279838 0.062574
0.905791 0.279838 0.062574
0.042606 0.396468 0.062574
0.153649 0.396468 0.062574
0.262932 0.396468 0.062574
0.371285 0.396468 0.062574
0.479000 0.396468 0.062574
0.586228 0.396468 0.062574
0.693063 0.396468 0.062574
0.799569 0.396468 0.062574
0.905791 0.396468 0.062574
0.042606 0.512407 0.062574
0.153649 0.512407 0.062574
0.262932 0.512407 0.062574
0.371285 0.512407 0.062574
0.479000 0.512407 0.062574
0.586228 0.512407 0.062574
0.693063 0.512407 0.062574
0.799569 0.512407 0.062574
0.905791 0.512407 0.062574
0.042606 0.627818 0.062574
0.153649 0.627818 0.062574
0.262932 0.627818 0.062574
0.371285 0.627818 0.062574
0.479000 0.627818 0.062574
0.586228 0.627818 0.062574
0.693063 0.627818 0.062574
0.799569 0.627818 0.062574
0.905791 0.627818 0.062574
0.042606 0.742804 0.062574
0.153649 0.742804 0.062574
0.262932 0.742804 0.062574
0.371285 0.742804 0.062574
0.479000 0.742804 0.062574
0.586228 0.742804 0.062574
0.693063 0.742804 0.062574
0.799569 0.742804 0.062574
0.905791 0.742804 0.062574
0.042606 0.857434 0.062574
0.153649 0.857434 0.062574
0.262932 0.857434 0.062574
0.371285 0.857434 0.062574
0.479000 0.857434 0.062574
0.586228 0.857434 0.062574
0.693063 0.857434 0.062574
0.799569 0.857434 0.062574
0.905791 0.857434 0.062574
0.042606 0.971757 0.062574
0.153649 0.971757 0.062574
0.262932 0.971757 0.062574
0.371285 0.971757 0.062574
0.479000 0.971757 0.062574
0.586228 0.971757 0.062574
0.693063 0.971757 0.062574
0.799569 0.971757 0.062574
0.905791 0.971757 0.062574
0.042606 0.042606 0.199934
0.153649 0.042606 0.199934
0.262932 0.042606 0.199934
0.371285 0.042606 0.199934
0.479000 0.042606 0.199934
0.586228 0.042606 0.199934
0.693063 0.042606 0.199934
0.799569 0.042606 0.199934
0.905791 0.042606 0.199934
0.042606 0.162194 0.199934
0.153649 0.162194 0.199934
0.262932 0.162194 0.199934
0.371285 0.162194 0.199934
0.479000 0.162194 0.199934
0.586228 0.162194 0.199934
0.693063 0.162194 0.199934
0.799569 0.162194 0.199934
0.905791 0.162194 0.199934
0.042606 0.279838 0.199934
0.153649 0.279838 0.199934
0.262932 0.279838 0.199934
0.371285 0.279838 0.199934
0.479000 0.279838 0.199934
0.586228 0.279838 0.199934
0.693063 0.279838 0.199934
0.799569 0.279838 0.199934
0.905791 0.279838 0.199934
0.042606 0.396468 0.199934
0.153649 0.396468 0.199934
0.262932 0.396468 0.199934
0.371285 0.396468 0.199934
0.479000 0.396468 0.199934
0.586228 0.396468 0.199934
0.693063 0.396468 0.199934
0.799569 0.396468 0.199934
0.905791 0.396468 0.199934
0.042606 0.512407 0.199934
0.153649 0.512407 0.199934
0.262932 0.512407 0.199934
0.371285 0.512407 0.199934
0.479000 0.512407 0.199934
0.586228 0.512407 0.199934
0.693063 0.512407 0.199934
0.799569 0.512407 0.199934
0.905791 0.512407 0.199934
0.042606 0.627818 0.199934
0.153649 0.627818 0.199934
0.262932 0.627818 0.199934
0.371285 0.627818 0.199934
0.479000 0.627818 0.199934
0.586228 0.627818 0.199934
0.693063 0.627818 0.199934
0.799569 0.627818 0.199934
0.905791 0.627818 0.199934
0.042606 0.742804 0.199934
0.153649 0.742804 0.199934
0.262932 0.742804 0.199934
0.371285 0.742804 0.199934
0.479000 0.742804 0.199934
0.586228 0.742804 0.199934
0.693063 0.742804 0.199934
0.799569 0.742804 0.199934
0.905791 0.742804 0.199934
0.042606 0.857434 0.199934
0.153649 0.857434 0.199934
0.262932 0.857434 0.199934
0.371285 0.857434 0.199934
0.479000 0.857434 0.199934
0.586228 0.857434 0.199934
0.693063 0.857434 0.199934
0.799569 0.857434 0.199934
0.905791 0.857434 0.199934
0.042606 0.971757 0.199934
0.153649 0.971757 0.199934
0.262932 0.971757 0.199934
0.371285 0.971757 0.199934
0.479000 0.971757 0.199934
0.586228 0.971757 0.199934
0.693063 0.971757 0.199934
0.799569 0.971757 0.199934
0.905791 0.971757 0.199934
0.042606 0.042606 0.335248
0.153649 0.042606 0.335248
0.262932 0.042606 0.335248
0.371285 0.042606 0.335248
0.479000 0.042606 0.335248
0.586228 0.042606 0.335248
0.693063 0.042606 0.335248
0.799569 0.042606 0.335248
0.905791 0.042606 0.335248
0.042606 0.162194 0.335248
0.153649 0.162194 0.335248
0.262932 0.162194 0.335248
0.371285 0.162194 0.335248
0.479000 0.162194 0.335248
0.586228 0.162194 0.335248
0.693063 0.162194 0.335248
0.799569 0.162194 0.335248
0.905791 0.162194 0.335248
0.042606 0.279838 0.335248
0.153649 0.279838 0.335248
0.262932 0.279838 0.335248
0.371285 0.279838 0.335248
0.479000 0.279838 0.335248
0.586228 0.279838 0.335248
0.693063 0.279838 0.335248
0.799569 0.279838 0.335248
0.905791 0.279838 0.335248
0.042606 0.396468 0.335248
0.153649 0.396468 0.335248
0.262932 0.396468 0.335248
0.371285 0.396468 0.335248
0.479000 0.396468 0.335248
0.586228 0.396468 0.335248
0.693063 0.396468 0.335248
0.799569 0.396468 0.335248
0.905791 0.396468 0.335248
0.042606 0.512407 0.335248
0.153649 0.512407 0.335248
0.262932 0.512407 0.335248
0.371285 0.512407 0.335248
0.479000 0.512407 0.335248
0.586228 0.512407 0.335248
0.693063 0.512407 0.335248
0.799569 0.512407 0.335248
0.905791 0.512407 0.335248
0.042606 0.627818 0.335248
0.153649 0.627818 0.335248
0.262932 0.627818 0.335248
0.371285 0.627818 0.335248
0.479000 0.627818 0.335248
0.586228 0.627818 0.335248
0.693063 0.627818 0.335248
0.799569 0.627818 0.335248
0.905791 0.627818 0.335248
0.042606 0.742804 0.335248
0.153649 0.742804 0.335248
0.262932 0.742804 0.335248
0.371285 0.742804 0.335248
0.479000 0.742804 0.335248
0.586228 0.742804 0.335248
0.693063 0.742804 0.335248
0.799569 0.742804 0.335248
0.905791 0.742804 0.335248
0.042606 0.857434 0.335248
0.153649 0.857434 0.335248
0.262932 0.857434 0.335248
0.371285 0.857434 0.335248
0.479000 0.857434 0.335248
0.586228 0.857434 0.335248
0.693063 0.857434 0.335248
0.799569 0.857434 0.335248
0.905791 0.857434 0.335248
0.042606 0.971757 0.335248
0.153649 0.971757 0.335248
0.262932 0.971757 0.335248
0.371285 0.971757 0.335248
0.479000 0.971757 0.335248
0.586228 0.971757 0.335248
0.693063 0.971757 0.335248
0.799569 0.971757 0.335248
0.905791 0.971757 0.335248
0.042606 0.042606 0.469447
0.153649 0.042606 0.469447
0.262932 0.042606 0.469447
0.371285 0.042606 0.469447
0.479000 0.042606 0.469447
0.586228 0.042606 0.469447
0.693063 0.042606 0.469447
0.799569 0.042606 0.469447
0.905791 0.042606 0.469447
0.042606 0.162194 0.469447
0.153649 0.162194 0.469447
0.262932 0.162194 0.469447
0.371285 0.162194 0.469447
0.479000 0.162194 0.469447
0.586228 0.162194 0.469447
0.693063 0.162194 0.469447
0.799569 0.162194 0.469447
0.905791 0.162194 0.469447
0.042606 0.279838 0.469447
0.153649 0.279838 0.469447
0.262932 0.279838 0.469447
0.371285 0.279838 0.469447
0.479000 0.279838 0.469447
0.586228 0.279838 0.469447
0.693063 0.279838 0.469447
0.799569 0.279838 0.469447
0.905791 0.279838 0.469447
0.042606 0.396468 0.469447
0.153649 0.396468 0.469447
0.262932 0.396468 0.469447
0.371285 0.396468 0.469447
0.479000 0.396468 0.469447
0.586228 0.396468 0.469447
0.693063 0.396468 0.469447
0.799569 0.396468 0.469447
0.905791 0.396468 0.469447
0.042606 0.512407 0.469447
0.153649 0.512407 0.469447
0.262932 0.512407 0.469447
0.371285 0.512407 0.469447
0.479000 0.512407 0.469447
0.586228 0.512407 0.469447
0.693063 0.512407 0.469447
0.799569 0.512407 0.469447
0.905791 0.512407 0.469447
0.042606 0.627818 0.469447
0.153649 0.627818 0.469447
0.262932 0.627818 0.469447
0.371285 0.627818 0.469447
0.479000 0.627818 0.469447
0.586228 0.627818 0.469447
0.693063 0.627818 0.469447
0.799569 0.627818 0.469447
0.905791 0.627818 0.469447
0.042606 0.742804 0.469447
0.153649 0.742804 0.469447
0.262932 0.742804 0.469447
0.371285 0.742804 0.469447
0.479000 0.742804 0.469447
0.586228 0.742804 0.469447
0.693063 0.742804 0.469447
0.799569 0.742804 0.469447
0.905791 0.742804 0.469447
0.042606 0.857434 0.469447
0.153649 0.857434 0.469447
0.262932 0.857434 0.469447
0.371285 0.857434 0.469447
0.479000 0.857434 0.469447
0.586228 0.857434 0.469447
0.693063 0.857434 0.469447
0.799569 0.857434 0.469447
0.905791 0.857434 0.469447
0.042606 0.971757 0.469447
0.153649 0.971757 0.469447
0.262932 0.971757 0.469447
0.371285 0.971757 0.469447
0.479000 0.971757 0.469447
0.586228 0.971757 0.469447
0.693063 0.971757 0.469447
0.799569 0.971757 0.469447
0.905791 0.971757 0.469447
0.042606 0.042606 0.602871
0.153649 0.042606 0.602871
0.262932 0.042606 0.602871
0.371285 0.042606 0.602871
0.479000 0.042606 0.602871
0.586228 0.042606 0.602871
0.693063 0.042606 0.602871
0.799569 0.042606 0.602871
0.905791 0.042606 0.602871
0.042606 0.162194 0.602871
0.153649 0.162194 0.602871
0.262932 0.162194 0.602871
0.371285 0.162194 0.602871
0.479000 0.162194 0.602871
0.586228 0.162194 0.602871
0.693063 0.162194 0.602871
0.799569 0.162194 0.602871
0.905791 0.162194 0.602871
0.042606 0.279838 0.602871
0.153649 0.279838 0.602871
0.262932 0.279838 0.602871
0.371285 0.279838 0.602871
0.479000 0.279838 0.602871
0.586228 0.279838 0.602871
0.693063 0.279838 0.602871
0.799569 0.279838 0.602871
0.905791 0.279838 0.602871
0.042606 0.396468 0.602871
0.153649 0.396468 0.602871
0.262932 0.396468 0.602871
0.371285 0.396468 0.602871
0.479000 0.396468 0.602871
0.586228 0.396468 0.602871
0.693063 0.396468 0.602871
0.799569 0.396468 0.602871
0.905791 0.396468 0.602871
0.042606 0.512407 0.602871
0.153649 0.512407 0.602871
0.262932 0.512407 0.602871
0.371285 0.512407 0.602871
0.479000 0.512407 0.602871
0.586228 0.512407 0.602871
0.693063 0.512407 0.602871
0.799569 0.512407 0.602871
0.905791 0.512407 0.602871
0.042606 0.627818 0.602871
0.153649 0.627818 0.602871
0.262932 0.627818 0.602871
0.371285 0.627818 0.602871
0.479000 0.627818 0.602871
0.586228 0.627818 0.602871
0.693063 0.627818 0.602871
0.799569 0.627818 0.602871
0.905791 0.627818 0.602871
0.042606 0.742804 0.602871
0.153649 0.742804 0.602871
0.262932 0.742804 0.602871
0.371285 0.742804 0.602871
0.479000 0.742804 0.602871
0.586228 0.742804 0.602871
0.693063 0.742804 0.602871
0.799569 0.742804 0.602871
0.905791 0.742804 0.602871
0.042606 0.857434 0.602871
0.153649 0.857434 0.602871
0.262932 0.857434 0.602871
0.371285 0.857434 0.602871
0.479000 0.857434 0.602871
0.586228 0.857434 0.602871
0.693063 0.857434 0.602871
0.799569 0.857434 0.602871
0.905791 0.857434 0.602871
0.042606 0.971757 0.602871
0.153649 0.971757 0.602871
0.262932 0.971757 0.602871
0.371285 0.971757 0.602871
0.479000 0.971757 0.602871
0.586228 0.971757 0.602871
0.693063 0.971757 0.602871
0.799569 0.971757 0.602871
0.905791 0.971757 0.602871
0.042606 0.042606 0.735702
0.153649 0.042606 0.735702
0.262932 0.042606 0.735702
0.371285 0.042606 0.735702
0.479000 0.042606 0.735702
0.586228 0.042606 0.735702
0.693063 0.042606 0.735702
0.799569 0.042606 0.735702
0.905791 0.042606 0.735702
0.042606 0.162194 0.735702
0.153649 0.162194 0.735702
0.262932 0.162194 0.735702
0.371285 0.162194 0.735702
0.479000 0.162194 0.735702
0.586228 0.162194 0.735702
0.693063 0.162194 0.735702
0.799569 0.162194 0.735702
0.905791 0.162194 0.735702
0.042606 0.279838 0.735702
0.153649 0.279838 0.735702
0.262932 0.279838 0.735702
0.371285 0.279838 0.735702
0.479000 0.279838 0.735702
0.586228 0.279838 0.735702
0.693063 0.279838 0.735702
0.799569 0.279838 0.735702
0.905791 0.279838 0.735702
0.042606 0.396468 0.735702
0.153649 0.396468 0.735702
0.262932 0.396468 0.735702
0.371285 0.396468 0.735702
0.479000 0.396468 0.735702
0.586228 0.396468 0.735702
0.693063 0.396468 0.735702
0.799569 0.396468 0.735702
0.905791 0.396468 0.735702
0.042606 0.512407 0.735702
0.153649 0.512407 0.735702
0.262932 0.512407 0.735702
0.371285 0.512407 0.735702
0.479000 0.512407 0.735702
0.586228 0.512407 0.735702
0.693063 0.512407 0.735702
0.799569 0.512407 0.735702
0.905791 0.512407 0.735702
0.042606 0.627818 0.735702
0.153649 0.627818 0.735702
0.262932 0.627818 0.735702
0.371285 0.627818 0.735702
0.479000 0.627818 0.735702
0.586228 0.627818 0.735702
0.693063 0.627818 0.735702
0.799569 0.627818 0.735702
0.905791 0.627818 0.735702
0.042606 0.742804 0.735702
0.153649 0.742804 0.735702
0.262932 0.742804 0.735702
0.371285 0.742804 0.735702
0.479000 0.742804 0.735702
0.586228 0.742804 0.735702
0.693063 0.742804 0.735702
0.799569 0.742804 0.735702
0.905791 0.742804 0.735702
0.042606 0.857434 0.735702
0.153649 0.857434 0.735702
0.262932 0.857434 0.735702
0.371285 0.857434 0.735702
0.479000 0.857434 0.735702
0.586228 0.857434 0.735702
0.693063 0.857434 0.735702
0.799569 0.857434 0.735702
0.905791 0.857434 0.735702
0.042606 0.971757 0.735702
0.153649 0.971757 0.735702
0.262932 0.971757 0.735702
0.371285 0.971757 0.735702
0.479000 0.971757 0.735702
0.586228 0.971757 0.735702
0.693063 0.971757 0.735702
0.799569 0.971757 0.735702
0.905791 0.971757 0.735702
0.042606 0.042606 0.868053
0.153649 0.042606 0.868053
0.262932 0.042606 0.868053
0.371285 0.042606 0.868053
0.479000 0.042606 0.868053
0.586228 0.042606 0.868053
0.693063 0.042606 0.868053
0.799569 0.042606 0.868053
0.905791 0.042606 0.868053
0.042606 0.162194 0.868053
0.153649 0.162194 0.868053
0.262932 0.162194 0.868053
0.371285 0.162194 0.868053
0.479000 0.162194 0.868053
0.586228 0.162194 0.868053
0.693063 0.162194 0.868053
0.799569 0.162194 0.868053
0.905791 0.162194 0.868053
0.042606 0.279838 0.868053
0.153649 0.279838 0.868053
0.262932 0.279838 0.868053
0.371285 0.279838 0.868053
0.479000 0.279838 0.868053
0.586228 0.279838 0.868053
0.693063 0.279838 0.868053
0.799569 0.279838 0.868053
0.905791 0.279838 0.868053
0.042606 0.396468 0.868053
0.153649 0.396468 0.868053
0.262932 0.396468 0.868053
0.371285 0.396468 0.868053
0.479000 0.396468 0.868053
0.586228 0.396468 0.868053
0.693063 0.396468 0.868053
0.799569 0.396468 0.868053
0.905791 0.396468 0.868053
0.042606 0.512407 0.868053
0.153649 0.512407 0.868053
0.262932 0.512407 0.868053
0.371285 0.512407 0.868053
0.479000 0.512407 0.868053
0.586228 0.512407 0.868053
0.693063 0.512407 0.868053
0.799569 0.512407 0.868053
0.905791 0.512407 0.868053
0.042606 0.627818 0.868053
0.153649 0.627818 0.868053
0.262932 0.627818 0.868053
0.371285 0.627818 0.868053
0.479000 0.627818 0.868053
0.586228 0.627818 0.868053
0.693063 0.627818 0.868053
0.799569 0.627818 0.868053
0.905791 0.627818 0.868053
0.042606 0.742804 0.868053
0.153649 0.742804 0.868053
0.262932 0.742804 0.868053
0.371285 0.742804 0.868053
0.479000 0.742804 0.868053
0.586228 0.742804 0.868053
0.693063 0.742804 0.868053
0.799569 0.742804 0.868053
0.905791 0.742804 0.868053
0.042606 0.857434 0.868053
0.153649 0.857434 0.868053
0.262932 0.857434 0.868053
0.371285 0.857434 0.868053
0.479000 0.857434 0.868053
0.586228 0.857434 0.868053
0.693063 0.857434 0.868053
0.799569 0.857434 0.868053
0.905791 0.857434 0.868053
0.042606 0.971757 0.868053
0.153649 0.971757 0.868053
0.262932 0.971757 0.868053
0.371285 0.971757 0.868053
0.479000 0.971757 0.868053
0.586228 0.971757 0.868053
0.693063 0.971757 0.868053
0.799569 0.971757 0.868053
0.905791 0.971757 0.868053
0.042606 0.042606 1.000000
0.153649 0.042606 1.000000
0.262932 0.042606 1.000000
0.371285 0.042606 1.000000
0.479000 0.042606 1.000000
0.586228 0.042606 1.000000
0.693063 0.042606 1.000000
0.799569 0.042606 1.000000
0.905791 0.042606 1.000000
0.042606 0.162194 1.000000
0.153649 0.162194 1.000000
0.262932 0.162194 1.000000
0.371285 0.162194 1.000000
0.479000 0.162194 1.000000
0.586228 0.162194 1.000000
0.693063 0.162194 1.000000
0.799569 0.162194 1.000000
0.905791 0.162194 1.000000
0.042606 0.279838 1.000000
0.153649 0.279838 1.000000
0.262932 0.279838 1.000000
0.371285 0.279838 1.000000
0.479000 0.279838 1.000000
0.586228 0.279838 1.000000
0.693063 0.279838 1.000000
0.799569 0.279838 1.000000
0.905791 0.279838 1.000000
0.042606 0.396468 1.000000
0.153649 0.396468 1.000000
0.262932 0.396468 1.000000
0.371285 0.396468 1.000000
0.479000 0.396468 1.000000
0.586228 0.396468 1.000000
0.693063 0.396468 1.000000
0.799569 0.396468 1.000000
0.905791 0.396468 1.000000
0.042606 0.512407 1.000000
0.153649 0.512407 1.000000
0.262932 0.512407 1.000000
0.371285 0.512407 1.000000
0.479000 0.512407 1.000000
0.586228 0.512407 1.000000
0.693063 0.512407 1.000000
0.799569 0.512407 1.000000
0.905791 0.512407 1.000000
0.042606 0.627818 1.000000
0.153649 0.627818 1.000000
0.262932 0.627818 1.000000
0.371285 0.627818 1.000000
0.479000 0.627818 1.000000
0.586228 0.627818 1.000000
0.693063 0.627818 1.000000
0.799569 0.627818 1.000000
0.905791 0.627818 1.000000
0.042606 0.742804 1.000000
0.153649 0.742804 1.000000
0.262932 0.742804 1.000000
0.371285 0.742804 1.000000
0.479000 0.742804 1.000000
0.586228 0.742804 1.000000
0.693063 0.742804 1.000000
0.799569 0.742804 1.000000
0.905791 0.742804 1.000000
0.042606 0.857434 1.000000
0.153649 0.857434 1.000000
0.262932 0.857434 1.000000
0.371285 0.857434 1.000000
0.479000 0.857434 1.000000
0.586228 0.857434 1.000000
0.693063 0.857434 1.000000
0.799569 0.857434 1.000000
0.905791 0.857434 1.000000
0.042606 0.971757 1.000000
0.153649 0.971757 1.000000
0.262932 0.971757 1.000000
0.371285 0.971757 1.000000
0.479000 0.971757 1.000000
0.586228 0.971757 1.000000
0.693063 0.971757 1.000000
0.799569 0.971757 1.000000
0.905791 0.971757 1.000000
0.042606 0.042606 1.000000
0.153649 0.042606 1.000000
0.262932 0.042606 1.000000
0.371285 0.042606 1.000000
0.479000 0.042606 1.000000
0.586228 0.042606 1.000000
0.693063 0.042606 1.000000
0.799569 0.042606 1.000000
0.905791 0.042606 1.000000
0.042606 0.162194 1.000000
0.153649 0.162194 1.000000
0.262932 0.162194 1.000000
0.371285 0.162194 1.000000
0.479000 0.162194 1.000000
0.586228 0.162194 1.000000
0.693063 0.162194 1.000000
0.799569 0.162194 1.000000
0.905791 0.162194 1.000000
0.042606 0.279838 1.000000
0.153649 0.279838 1.000000
0.262932 0.279838 1.000000
0.371285 0.279838 1.000000
0.479000 0.279838 1.000000
0.586228 0.279838 1.000000
0.693063 0.279838 1.000000
0.799569 0.279838 1.000000
0.905791 0.279838 1.000000
0.042606 0.396468 1.000000
0.153649 0.396468 1.000000
0.262932 0.396468 1.000000
0.371285 0.396468 1.000000
0.479000 0.396468 1.000000
0.586228 0.396468 1.000000
0.693063 0.396468 1.000000
0.799569 0.396468 1.000000
0.905791 0.396468 1.000000
0.042606 0.512407 1.000000
0.153649 0.512407 1.000000
0.262932 0.512407 1.000000
0.371285 0.512407 1.000000
0.479000 0.512407 1.000000
0.586228 0.512407 1.000000
0.693063 0.512407 1.000000
0.799569 0.512407 1.000000
0.905791 0.512407 1.000000
0.042606 0.627818 1.000000
0.153649 0.627818 1.000000
0.262932 0.627818 1.000000
0.371285 0.627818 1.000000
0.479000 0.627818 1.000000
0.586228 0.627818 1.000000
0.693063 0.627818 1.000000
0.799569 0.627818 1.000000
0.905791 0.627818 1.000000
0.042606 0.742804 1.000000
0.153649 0.742804 1.000000
0.262932 0.742804 1.000000
0.371285 0.742804 1.000000
0.479000 0.742804 1.000000
0.586228 0.742804 1.000000
0.693063 0.742804 1.000000
0.799569 0.742804 1.000000
0.905791 0.742804 1.000000
0.042606 0.857434 1.000000
0.153649 0.857434 1.000000
0.262932 0.857434 1.000000
0.371285 0.857434 1.000000
0.479000 0.857434 1.000000
0.586228 0.857434 1.000000
0.693063 0.857434 1.000000
0.799569 0.857434 1.000000
0.905791 0.857434 1.000000
0.042606 0.971757 1.000000
0.153649 0.971757 1.000000
0.262932 0.971757 1.000000
0.371285 0.971757 1.000000
0.479000 0.971757 1.000000
0.586228 0.971757 1.000000
0.693063 0.971757 1.000000
0.799569 0.971757 1.000000
0.905791 0.971757 1.000000
