backend/luts/cold_winter.cube
TITLE "Cold Winter"
LUT_3D_SIZE 5
DOMAIN_MIN 0.0 0.0 0.0
DOMAIN_MAX 1.0 1.0 1.0
0.042606 0.042606 0.062574
0.262932 0.042606 0.062574
0.479000 0.042606 0.062574
0.693063 0.042606 0.062574
0.905791 0.042606 0.062574
0.042606 0.279838 0.062574
0.262932 0.279838 0.062574
0.479000 0.279838 0.062574
0.693063 0.279838 0.062574
0.905791 0.279838 0.062574
0.042606 0.512407 0.062574
0.262932 0.512407 0.062574
0.479000 0.512407 0.062574
0.693063 0.512407 0.062574
0.905791 0.512407 0.062574
0.042606 0.742804 0.062574
0.262932 0.742804 0.062574
0.479000 0.742804 0.062574
0.693063 0.742804 0.062574
0.905791 0.742804 0.062574
0.042606 0.971757 0.062574
0.262932 0.971757 0.062574
0.479000 0.971757 0.062574
0.693063 0.971757 0.062574
0.905791 0.971757 0.062574
0.042606 0.042606 0.335248
0.262932 0.042606 0.335248
0.479000 0.042606 0.335248
0.693063 0.042606 0.335248
0.905791 0.042606 0.335248
0.042606 0.279838 0.335248
0.262932 0.279838 0.335248
0.479000 0.279838 0.335248
0.693063 0.279838 0.335248
0.905791 0.279838 0.335248
0.042606 0.512407 0.335248
0.262932 0.512407 0.335248
0.479000 0.512407 0.335248
0.693063 0.512407 0.335248
0.905791 0.512407 0.335248
0.042606 0.742804 0.335248
0.262932 0.742804 0.335248
0.479000 0.742804 0.335248
0.693063 0.742804 0.335248
0.905791 0.742804 0.335248
0.042606 0.971757 0.335248
0.262932 0.971757 0.335248
0.479000 0.971757 0.335248
0.693063 0.971757 0.335248
0.905791 0.971757 0.335248
0.042606 0.042606 0.602871
0.262932 0.042606 0.602871
0.479000 0.042606 0.602871
0.693063 0.042606 0.602871
0.905791 0.042606 0.602871
0.042606 0.279838 0.602871
0.262932 0.279838 0.602871
0.479000 0.279838 0.602871
0.693063 0.279838 0.602871
0.905791 0.279838 0.602871
0.042606 0.512407 0.602871
0.262932 0.512407 0.602871
0.479000 0.512407 0.602871
0.693063 0.512407 0.602871
0.905791 0.512407 0.602871
0.042606 0.742804 0.602871
0.262932 0.742804 0.602871
0.479000 0.742804 0.602871
0.693063 0.742804 0.602871
0.905791 0.742804 0.602871
0.042606 0.971757 0.602871
0.262932 0.971757 0.602871
0.479000 0.971757 0.602871
0.693063 0.971757 0.602871
0.905791 0.971757 0.602871
0.042606 0.042606 0.868053
0.262932 0.042606 0.868053
0.479000 0.042606 0.868053
0.693063 0.042606 0.868053
0.905791 0.042606 0.868053
0.042606 0.279838 0.868053
0.262932 0.279838 0.868053
0.479000 0.279838 0.868053
0.693063 0.279838 0.868053
0.905791 0.279838 0.868053
0.042606 0.512407 0.868053
0.262932 0.512407 0.868053
0.479000 0.512407 0.868053
0.693063 0.512407 0.868053
0.905791 0.512407 0.868053
0.042606 0.742804 0.868053
0.262932 0.742804 0.868053
0.479000 0.742804 0.868053
0.693063 0.742804 0.868053
0.905791 0.742804 0.868053
0.042606 0.971757 0.868053
0.262932 0.971757 0.868053
0.479000 0.971757 0.868053
0.693063 0.971757 0.868053
0.905791 0.971757 0.868053
0.042606 0.042606 1.000000
0.262932 0.042606 1.000000
0.479000 0.042606 1.000000
0.693063 0.042606 1.000000
0.905791 0.042606 1.000000
0.042606 0.279838 1.000000
0.262932 0.279838 1.000000
0.479000 0.279838 1.000000
0.693063 0.279838 1.000000
0.905791 0.279838 1.000000
0.042606 0.512407 1.000000
0.262932 0.512407 1.000000
0.479000 0.512407 1.000000
0.693063 0.512407 1.000000
0.905791 0.512407 1.000000
0.042606 0.742804 1.000000
0.262932 0.742804 1.000000
0.479000 0.742804 1.000000
0.693063 0.742804 1.000000
0.905791 0.742804 1.000000
0.042606 0.971757 1.000000
0.262932 0.971757 1.000000
0.479000 0.971757 1.000000
0.693063 0.971757 1.000000
0.905791 0.971757 1.000000
