backend/luts/cold_winter.cube
TITLE "Cold Winter"
LUT_3D_SIZE 33
DOMAIN_MIN 0.0 0.0 0.0
DOMAIN_MAX 1.0 1.0 1.0
0.042606 0.042606 0.062574
0.070647 0.042606 0.062574
0.098461 0.042606 0.062574
0.126116 0.042606 0.062574
0.153649 0.042606 0.062574
0.181084 0.042606 0.062574
0.208436 0.042606 0.062574
0.235715 0.042606 0.062574
0.262932 0.042606 0.062574
0.290092 0.042606 0.062574
0.317201 0.042606 0.062574
0.344264 0.042606 0.062574
0.371285 0.042606 0.062574
0.398266 0.042606 0.062574
0.425211 0.042606 0.062574
0.452121 0.042606 0.062574
0.479000 0.042606 0.062574
0.505848 0.042606 0.062574
0.532668 0.042606 0.062574
0.559461 0.042606 0.062574
0.586228 0.042606 0.062574
0.612971 0.042606 0.062574
0.639690 0.042606 0.062574
0.666388 0.042606 0.062574
0.693063 0.042606 0.062574
0.719719 0.042606 0.062574
0.746354 0.042606 0.062574
0.772971 0.042606 0.062574
0.799569 0.042606 0.062574
0.826149 0.042606 0.062574
0.852713 0.042606 0.062574
0.879260 0.042606 0.062574
0.905791 0.042606 0.062574
0.042606 0.072817 0.062574
0.070647 0.072817 0.062574
0.098461 0.072817 0.062574
0.126116 0.072817 0.062574
0.153649 0.072817 0.062574
0.181084 0.072817 0.062574
0.208436 0.072817 0.062574
0.235715 0.072817 0.062574
0.262932 0.072817 0.062574
0.290092 0.072817 0.062574
0.317201 0.072817 0.062574
0.344264 0.072817 0.062574
0.371285 0.072817 0.062574
0.398266 0.072817 0.062574
0.425211 0.072817 0.062574
0.452121 0.072817 0.062574
0.479000 0.072817 0.062574
0.505848 0.072817 0.062574
0.532668 0.072817 0.062574
0.559461 0.072817 0.062574
0.586228 0.072817 0.062574
0.612971 0.072817 0.062574
0.639690 0.072817 0.062574
0.666388 0.072817 0.062574
0.693063 0.072817 0.062574
0.719719 0.072817 0.062574
0.746354 0.072817 0.062574
0.772971 0.072817 0.062574
0.799569 0.072817 0.062574
0.826149 0.072817 0.062574
0.852713 0.072817 0.062574
0.879260 0.072817 0.062574
0.905791 0.072817 0.062574
0.042606 0.102772 0.062574
0.070647 0.102772 0.062574
0.098461 0.102772 0.062574
0.126116 0.102772 0.062574
0.153649 0.102772 0.062574
0.181084 0.102772 0.062574
0.208436 0.102772 0.062574
0.235715 0.102772 0.062574
0.262932 0.102772 0.062574
0.290092 0.102772 0.062574
0.317201 0.102772 0.062574
0.344264 0.102772 0.062574
0.371285 0.102772 0.062574
0.398266 0.102772 0.062574
0.425211 0.102772 0.062574
0.452121 0.102772 0.062574
0.479000 0.102772 0.062574
0.505848 0.102772 0.062574
0.532668 0.102772 0.062574
0.559461 0.102772 0.062574
0.586228 0.102772 0.062574
0.612971 0.102772 0.062574
0.639690 0.102772 0.062574
0.666388 0.102772 0.062574
0.693063 0.102772 0.062574
0.719719 0.102772 0.062574
0.746354 0.102772 0.062574
0.772971 0.102772 0.062574
0.799569 0.102772 0.062574
0.826149 0.102772 0.062574
0.852713 0.102772 0.062574
0.879260 0.102772 0.062574
0.905791 0.102772 0.062574
0.042606 0.132550 0.062574
0.070647 0.132550 0.062574
0.098461 0.132550 0.062574
0.126116 0.132550 0.062574
0.153649 0.132550 0.062574
0.181084 0.132550 0.062574
0.208436 0.132550 0.062574
0.235715 0.132550 0.062574
0.262932 0.132550 0.062574
0.290092 0.132550 0.062574
0.317201 0.132550 0.062574
0.344264 0.132550 0.062574
0.371285 0.132550 0.062574
0.398266 0.132550 0.062574
0.425211 0.132550 0.062574
0.452121 0.132550 0.062574
0.479000 0.132550 0.062574
0.505848 0.132550 0.062574
0.532668 0.132550 0.062574
0.559461 0.132550 0.062574
0.586228 0.132550 0.062574
0.612971 0.132550 0.062574
0.639690 0.132550 0.062574
0.666388 0.132550 0.062574
0.693063 0.132550 0.062574
0.719719 0.132550 0.062574
0.746354 0.132550 0.062574
0.772971 0.132550 0.062574
0.799569 0.132550 0.062574
0.826149 0.132550 0.062574
0.852713 0.132550 0.062574
0.879260 0.132550 0.062574
0.905791 0.132550 0.062574
0.042606 0.162194 0.062574
0.070647 0.162194 0.062574
0.098461 0.162194 0.062574
0.126116 0.162194 0.062574
0.153649 0.162194 0.062574
0.181084 0.162194 0.062574
0.208436 0.162194 0.062574
0.235715 0.162194 0.062574
0.262932 0.162194 0.062574
0.290092 0.162194 0.062574
0.317201 0.162194 0.062574
0.344264 0.162194 0.062574
0.371285 0.162194 0.062574
0.398266 0.162194 0.062574
0.425211 0.162194 0.062574
0.452121 0.162194 0.062574
0.479000 0.162194 0.062574
0.505848 0.162194 0.062574
0.532668 0.162194 0.062574
0.559461 0.162194 0.062574
0.586228 0.162194 0.062574
0.612971 0.162194 0.062574
0.639690 0.162194 0.062574
0.666388 0.162194 0.062574
0.693063 0.162194 0.062574
0.719719 0.162194 0.062574
0.746354 0.162194 0.062574
0.772971 0.162194 0.062574
0.799569 0.162194 0.062574
0.826149 0.162194 0.062574
0.852713 0.162194 0.062574
0.879260 0.162194 0.062574
0.905791 0.162194 0.062574
0.042606 0.191730 0.062574
0.070647 0.191730 0.062574
0.098461 0.191730 0.062574
0.126116 0.191730 0.062574
0.153649 0.191730 0.062574
0.181084 0.191730 0.062574
0.208436 0.191730 0.062574
0.235715 0.191730 0.062574
0.262932 0.191730 0.062574
0.290092 0.191730 0.062574
0.317201 0.191730 0.062574
0.344264 0.191730 0.062574
0.371285 0.191730 0.062574
0.398266 0.191730 0.062574
0.425211 0.191730 0.062574
0.452121 0.191730 0.062574
0.479000 0.191730 0.062574
0.505848 0.191730 0.062574
0.532668 0.191730 0.062574
0.559461 0.191730 0.062574
0.586228 0.191730 0.062574
0.612971 0.191730 0.062574
0.639690 0.191730 0.062574
0.666388 0.191730 0.062574
0.693063 0.191730 0.062574
0.719719 0.191730 0.062574
0.746354 0.191730 0.062574
0.772971 0.191730 0.062574
0.799569 0.191730 0.062574
0.826149 0.191730 0.062574
0.852713 0.191730 0.062574
0.879260 0.191730 0.062574
0.905791 0.191730 0.062574
0.042606 0.221174 0.062574
0.070647 0.221174 0.062574
0.098461 0.221174 0.062574
0.126116 0.221174 0.062574
0.153649 0.221174 0.062574
0.181084 0.221174 0.062574
0.208436 0.221174 0.062574
0.235715 0.221174 0.062574
0.262932 0.221174 0.062574
0.290092 0.221174 0.062574
0.317201 0.221174 0.062574
0.344264 0.221174 0.062574
0.371285 0.221174 0.062574
0.398266 0.221174 0.062574
0.425211 0.221174 0.062574
0.452121 0.221174 0.062574
0.479000 0.221174 0.062574
0.505848 0.221174 0.062574
0.532668 0.221174 0.062574
0.559461 0.221174 0.062574
0.586228 0.221174 0.062574
0.612971 0.221174 0.062574
0.639690 0.221174 0.062574
0.666388 0.221174 0.062574
0.693063 0.221174 0.062574
0.719719 0.221174 0.062574
0.746354 0.221174 0.062574
0.772971 0.221174 0.062574
0.799569 0.221174 0.062574
0.826149 0.221174 0.062574
0.852713 0.221174 0.062574
0.879260 0.221174 0.062574
0.905791 0.221174 0.062574
0.042606 0.250541 0.062574
0.070647 0.250541 0.062574
0.098461 0.250541 0.062574
0.126116 0.250541 0.062574
0.153649 0.250541 0.062574
0.181084 0.250541 0.062574
0.208436 0.250541 0.062574
0.235715 0.250541 0.062574
0.262932 0.250541 0.062574
0.290092 0.250541 0.062574
0.317201 0.250541 0.062574
0.344264 0.250541 0.062574
0.371285 0.250541 0.062574
0.398266 0.250541 0.062574
0.425211 0.250541 0.062574
0.452121 0.250541 0.062574
0.479000 0.250541 0.062574
0.505848 0.250541 0.062574
0.532668 0.250541 0.062574
0.559461 0.250541 0.062574
0.586228 0.250541 0.062574
0.612971 0.250541 0.062574
0.639690 0.250541 0.062574
0.666388 0.250541 0.062574
0.693063 0.250541 0.062574
0.719719 0.250541 0.062574
0.746354 0.250541 0.062574
0.772971 0.250541 0.062574
0.799569 0.250541 0.062574
0.826149 0.250541 0.062574
0.852713 0.250541 0.062574
0.879260 0.250541 0.062574
0.905791 0.250541 0.062574
0.042606 0.279838 0.062574
0.070647 0.279838 0.062574
0.098461 0.279838 0.062574
0.126116 0.279838 0.062574
0.153649 0.279838 0.062574
0.181084 0.279838 0.062574
0.208436 0.279838 0.062574
0.235715 0.279838 0.062574
0.262932 0.279838 0.062574
0.290092 0.279838 0.062574
0.317201 0.279838 0.062574
0.344264 0.279838 0.062574
0.371285 0.279838 0.062574
0.398266 0.279838 0.062574
0.425211 0.279838 0.062574
0.452121 0.279838 0.062574
0.479000 0.279838 0.062574
0.505848 0.279838 0.062574
0.532668 0.279838 0.062574
0.559461 0.279838 0.062574
0.586228 0.279838 0.062574
0.612971 0.279838 0.062574
0.639690 0.279838 0.062574
0.666388 0.279838 0.062574
0.693063 0.279838 0.062574
0.719719 0.279838 0.062574
0.746354 0.279838 0.062574
0.772971 0.279838 0.062574
0.799569 0.279838 0.062574
0.826149 0.279838 0.062574
0.852713 0.279838 0.062574
0.879260 0.279838 0.062574
0.905791 0.279838 0.062574
0.042606 0.309074 0.062574
0.070647 0.309074 0.062574
0.098461 0.309074 0.062574
0.126116 0.309074 0.062574
0.153649 0.309074 0.062574
0.181084 0.309074 0.062574
0.208436 0.309074 0.062574
0.235715 0.309074 0.062574
0.262932 0.309074 0.062574
0.290092 0.309074 0.062574
0.317201 0.309074 0.062574
0.344264 0.309074 0.062574
0.371285 0.309074 0.062574
0.398266 0.309074 0.062574
0.425211 0.309074 0.062574
0.452121 0.309074 0.062574
0.479000 0.309074 0.062574
0.505848 0.309074 0.062574
0.532668 0.309074 0.062574
0.559461 0.309074 0.062574
0.586228 0.309074 0.062574
0.612971 0.309074 0.062574
0.639690 0.309074 0.062574
0.666388 0.309074 0.062574
0.693063 0.309074 0.062574
0.719719 0.309074 0.062574
0.746354 0.309074 0.062574
0.772971 0.309074 0.062574
0.799569 0.309074 0.062574
0.826149 0.309074 0.062574
0.852713 0.309074 0.062574
0.879260 0.309074 0.062574
0.905791 0.309074 0.062574
0.042606 0.338254 0.062574
0.070647 0.338254 0.062574
0.098461 0.338254 0.062574
0.126116 0.338254 0.062574
0.153649 0.338254 0.062574
0.181084 0.338254 0.062574
0.208436 0.338254 0.062574
0.235715 0.338254 0.062574
0.262932 0.338254 0.062574
0.290092 0.338254 0.062574
0.317201 0.338254 0.062574
0.344264 0.338254 0.062574
0.371285 0.338254 0.062574
0.398266 0.338254 0.062574
0.425211 0.338254 0.062574
0.452121 0.338254 0.062574
0.479000 0.338254 0.062574
0.505848 0.338254 0.062574
0.532668 0.338254 0.062574
0.559461 0.338254 0.062574
0.586228 0.338254 0.062574
0.612971 0.338254 0.062574
0.639690 0.338254 0.062574
0.666388 0.338254 0.062574
0.693063 0.338254 0.062574
0.719719 0.338254 0.062574
0.746354 0.338254 0.062574
0.772971 0.338254 0.062574
0.799569 0.338254 0.062574
0.826149 0.338254 0.062574
0.852713 0.338254 0.062574
0.879260 0.338254 0.062574
0.905791 0.338254 0.062574
0.042606 0.367384 0.062574
0.070647 0.367384 0.062574
0.098461 0.367384 0.062574
0.126116 0.367384 0.062574
0.153649 0.367384 0.062574
0.181084 0.367384 0.062574
0.208436 0.367384 0.062574
0.235715 0.367384 0.062574
0.262932 0.367384 0.062574
0.290092 0.367384 0.062574
0.317201 0.367384 0.062574
0.344264 0.367384 0.062574
0.371285 0.367384 0.062574
0.398266 0.367384 0.062574
0.425211 0.367384 0.062574
0.452121 0.367384 0.062574
0.479000 0.367384 0.062574
0.505848 0.367384 0.062574
0.532668 0.367384 0.062574
0.559461 0.367384 0.062574
0.586228 0.367384 0.062574
0.612971 0.367384 0.062574
0.639690 0.367384 0.062574
0.666388 0.367384 0.062574
0.693063 0.367384 0.062574
0.719719 0.367384 0.062574
0.746354 0.367384 0.062574
0.772971 0.367384 0.062574
0.799569 0.367384 0.062574
0.826149 0.367384 0.062574
0.852713 0.367384 0.062574
0.879260 0.367384 0.062574
0.905791 0.367384 0.062574
0.042606 0.396468 0.062574
0.070647 0.396468 0.062574
0.098461 0.396468 0.062574
0.126116 0.396468 0.062574
0.153649 0.396468 0.062574
0.181084 0.396468 0.062574
0.208436 0.396468 0.062574
0.235715 0.396468 0.062574
0.262932 0.396468 0.062574
0.290092 0.396468 0.062574
0.317201 0.396468 0.062574
0.344264 0.396468 0.062574
0.371285 0.396468 0.062574
0.398266 0.396468 0.062574
0.425211 0.396468 0.062574
0.452121 0.396468 0.062574
0.479000 0.396468 0.062574
0.505848 0.396468 0.062574
0.532668 0.396468 0.062574
0.559461 0.396468 0.062574
0.586228 0.396468 0.062574
0.612971 0.396468 0.062574
0.639690 0.396468 0.062574
0.666388 0.396468 0.062574
0.693063 0.396468 0.062574
0.719719 0.396468 0.062574
0.746354 0.396468 0.062574
0.772971 0.396468 0.062574
0.799569 0.396468 0.062574
0.826149 0.396468 0.062574
0.852713 0.396468 0.062574
0.879260 0.396468 0.062574
0.905791 0.396468 0.062574
0.042606 0.425510 0.062574
0.070647 0.425510 0.062574
0.098461 0.425510 0.062574
0.126116 0.425510 0.062574
0.153649 0.425510 0.062574
0.181084 0.425510 0.062574
0.208436 0.425510 0.062574
0.235715 0.425510 0.062574
0.262932 0.425510 0.062574
0.290092 0.425510 0.062574
0.317201 0.425510 0.062574
0.344264 0.425510 0.062574
0.371285 0.425510 0.062574
0.398266 0.425510 0.062574
0.425211 0.425510 0.062574
0.452121 0.425510 0.062574
0.479000 0.425510 0.062574
0.505848 0.425510 0.062574
0.532668 0.425510 0.062574
0.559461 0.425510 0.062574
0.586228 0.425510 0.062574
0.612971 0.425510 0.062574
0.639690 0.425510 0.062574
0.666388 0.425510 0.062574
0.693063 0.425510 0.062574
0.719719 0.425510 0.062574
0.746354 0.425510 0.062574
0.772971 0.425510 0.062574
0.799569 0.425510 0.062574
0.826149 0.425510 0.062574
0.852713 0.425510 0.062574
0.879260 0.425510 0.062574
0.905791 0.425510 0.062574
0.042606 0.454512 0.062574
0.070647 0.454512 0.062574
0.098461 0.454512 0.062574
0.126116 0.454512 0.062574
0.153649 0.454512 0.062574
0.181084 0.454512 0.062574
0.208436 0.454512 0.062574
0.235715 0.454512 0.062574
0.262932 0.454512 0.062574
0.290092 0.454512 0.062574
0.317201 0.454512 0.062574
0.344264 0.454512 0.062574
0.371285 0.454512 0.062574
0.398266 0.454512 0.062574
0.425211 0.454512 0.062574
0.452121 0.454512 0.062574
0.479000 0.454512 0.062574
0.505848 0.454512 0.062574
0.532668 0.454512 0.062574
0.559461 0.454512 0.062574
0.586228 0.454512 0.062574
0.612971 0.454512 0.062574
0.639690 0.454512 0.062574
0.666388 0.454512 0.062574
0.693063 0.454512 0.062574
0.719719 0.454512 0.062574
0.746354 0.454512 0.062574
0.772971 0.454512 0.062574
0.799569 0.454512 0.062574
0.826149 0.454512 0.062574
0.852713 0.454512 0.062574
0.879260 0.454512 0.062574
0.905791 0.454512 0.062574
0.042606 0.483476 0.062574
0.070647 0.483476 0.062574
0.098461 0.483476 0.062574
0.126116 0.483476 0.062574
0.153649 0.483476 0.062574
0.181084 0.483476 0.062574
0.208436 0.483476 0.062574
0.235715 0.483476 0.062574
0.262932 0.483476 0.062574
0.290092 0.483476 0.062574
0.317201 0.483476 0.062574
0.344264 0.483476 0.062574
0.371285 0.483476 0.062574
0.398266 0.483476 0.062574
0.425211 0.483476 0.062574
0.452121 0.483476 0.062574
0.479000 0.483476 0.062574
0.505848 0.483476 0.062574
0.532668 0.483476 0.062574
0.559461 0.483476 0.062574
0.586228 0.483476 0.062574
0.612971 0.483476 0.062574
0.639690 0.483476 0.062574
0.666388 0.483476 0.062574
0.693063 0.483476 0.062574
0.719719 0.483476 0.062574
0.746354 0.483476 0.062574
0.772971 0.483476 0.062574
0.799569 0.483476 0.062574
0.826149 0.483476 0.062574
0.852713 0.483476 0.062574
0.879260 0.483476 0.062574
0.905791 0.483476 0.062574
0.042606 0.512407 0.062574
0.070647 0.512407 0.062574
0.098461 0.512407 0.062574
0.126116 0.512407 0.062574
0.153649 0.512407 0.062574
0.181084 0.512407 0.062574
0.208436 0.512407 0.062574
0.235715 0.512407 0.062574
0.262932 0.512407 0.062574
0.290092 0.512407 0.062574
0.317201 0.512407 0.062574
0.344264 0.512407 0.062574
0.371285 0.512407 0.062574
0.398266 0.512407 0.062574
0.425211 0.512407 0.062574
0.452121 0.512407 0.062574
0.479000 0.512407 0.062574
0.505848 0.512407 0.062574
0.532668 0.512407 0.062574
0.559461 0.512407 0.062574
0.586228 0.512407 0.062574
0.612971 0.512407 0.062574
0.639690 0.512407 0.062574
0.666388 0.512407 0.062574
0.693063 0.512407 0.062574
0.719719 0.512407 0.062574
0.746354 0.512407 0.062574
0.772971 0.512407 0.062574
0.799569 0.512407 0.062574
0.826149 0.512407 0.062574
0.852713 0.512407 0.062574
0.879260 0.512407 0.062574
0.905791 0.512407 0.062574
0.042606 0.541304 0.062574
0.070647 0.541304 0.062574
0.098461 0.541304 0.062574
0.126116 0.541304 0.062574
0.153649 0.541304 0.062574
0.181084 0.541304 0.062574
0.208436 0.541304 0.062574
0.235715 0.541304 0.062574
0.262932 0.541304 0.062574
0.290092 0.541304 0.062574
0.317201 0.541304 0.062574
0.344264 0.541304 0.062574
0.371285 0.541304 0.062574
0.398266 0.541304 0.062574
0.425211 0.541304 0.062574
0.452121 0.541304 0.062574
0.479000 0.541304 0.062574
0.505848 0.541304 0.062574
0.532668 0.541304 0.062574
0.559461 0.541304 0.062574
0.586228 0.541304 0.062574
0.612971 0.541304 0.062574
0.639690 0.541304 0.062574
0.666388 0.541304 0.062574
0.693063 0.541304 0.062574
0.719719 0.541304 0.062574
0.746354 0.541304 0.062574
0.772971 0.541304 0.062574
0.799569 0.541304 0.062574
0.826149 0.541304 0.062574
0.852713 0.541304 0.062574
0.879260 0.541304 0.062574
0.905791 0.541304 0.062574
0.042606 0.570171 0.062574
0.070647 0.570171 0.062574
0.098461 0.570171 0.062574
0.126116 0.570171 0.062574
0.153649 0.570171 0.062574
0.181084 0.570171 0.062574
0.208436 0.570171 0.062574
0.235715 0.570171 0.062574
0.262932 0.570171 0.062574
0.290092 0.570171 0.062574
0.317201 0.570171 0.062574
0.344264 0.570171 0.062574
0.371285 0.570171 0.062574
0.398266 0.570171 0.062574
0.425211 0.570171 0.062574
0.452121 0.570171 0.062574
0.479000 0.570171 0.062574
0.505848 0.570171 0.062574
0.532668 0.570171 0.062574
0.559461 0.570171 0.062574
0.586228 0.570171 0.062574
0.612971 0.570171 0.062574
0.639690 0.570171 0.062574
0.666388 0.570171 0.062574
0.693063 0.570171 0.062574
0.719719 0.570171 0.062574
0.746354 0.570171 0.062574
0.772971 0.570171 0.062574
0.799569 0.570171 0.062574
0.826149 0.570171 0.062574
0.852713 0.570171 0.062574
0.879260 0.570171 0.062574
0.905791 0.570171 0.062574
0.042606 0.599008 0.062574
0.070647 0.599008 0.062574
0.098461 0.599008 0.062574
0.126116 0.599008 0.062574
0.153649 0.599008 0.062574
0.181084 0.599008 0.062574
0.208436 0.599008 0.062574
0.235715 0.599008 0.062574
0.262932 0.599008 0.062574
0.290092 0.599008 0.062574
0.317201 0.599008 0.062574
0.344264 0.599008 0.062574
0.371285 0.599008 0.062574
0.398266 0.599008 0.062574
0.425211 0.599008 0.062574
0.452121 0.599008 0.062574
0.479000 0.599008 0.062574
0.505848 0.599008 0.062574
0.532668 0.599008 0.062574
0.559461 0.599008 0.062574
0.586228 0.599008 0.062574
0.612971 0.599008 0.062574
0.639690 0.599008 0.062574
0.666388 0.599008 0.062574
0.693063 0.599008 0.062574
0.719719 0.599008 0.062574
0.746354 0.599008 0.062574
0.772971 0.599008 0.062574
0.799569 0.599008 0.062574
0.826149 0.599008 0.062574
0.852713 0.599008 0.062574
0.879260 0.599008 0.062574
0.905791 0.599008 0.062574
0.042606 0.627818 0.062574
0.070647 0.627818 0.062574
0.098461 0.627818 0.062574
0.126116 0.627818 0.062574
0.153649 0.627818 0.062574
0.181084 0.627818 0.062574
0.208436 0.627818 0.062574
0.235715 0.627818 0.062574
0.262932 0.627818 0.062574
0.290092 0.627818 0.062574
0.317201 0.627818 0.062574
0.344264 0.627818 0.062574
0.371285 0.627818 0.062574
0.398266 0.627818 0.062574
0.425211 0.627818 0.062574
0.452121 0.627818 0.062574
0.479000 0.627818 0.062574
0.505848 0.627818 0.062574
0.532668 0.627818 0.062574
0.559461 0.627818 0.062574
0.586228 0.627818 0.062574
0.612971 0.627818 0.062574
0.639690 0.627818 0.062574
0.666388 0.627818 0.062574
0.693063 0.627818 0.062574
0.719719 0.627818 0.062574
0.746354 0.627818 0.062574
0.772971 0.627818 0.062574
0.799569 0.627818 0.062574
0.826149 0.627818 0.062574
0.852713 0.627818 0.062574
0.879260 0.627818 0.062574
0.905791 0.627818 0.062574
0.042606 0.656601 0.062574
0.070647 0.656601 0.062574
0.098461 0.656601 0.062574
0.126116 0.656601 0.062574
0.153649 0.656601 0.062574
0.181084 0.656601 0.062574
0.208436 0.656601 0.062574
0.235715 0.656601 0.062574
0.262932 0.656601 0.062574
0.290092 0.656601 0.062574
0.317201 0.656601 0.062574
0.344264 0.656601 0.062574
0.371285 0.656601 0.062574
0.398266 0.656601 0.062574
0.425211 0.656601 0.062574
0.452121 0.656601 0.062574
0.479000 0.656601 0.062574
0.505848 0.656601 0.062574
0.532668 0.656601 0.062574
0.559461 0.656601 0.062574
0.586228 0.656601 0.062574
0.612971 0.656601 0.062574
0.639690 0.656601 0.062574
0.666388 0.656601 0.062574
0.693063 0.656601 0.062574
0.719719 0.656601 0.062574
0.746354 0.656601 0.062574
0.772971 0.656601 0.062574
0.799569 0.656601 0.062574
0.826149 0.656601 0.062574
0.852713 0.656601 0.062574
0.879260 0.656601 0.062574
0.905791 0.656601 0.062574
0.042606 0.685359 0.062574
0.070647 0.685359 0.062574
0.098461 0.685359 0.062574
0.126116 0.685359 0.062574
0.153649 0.685359 0.062574
0.181084 0.685359 0.062574
0.208436 0.685359 0.062574
0.235715 0.685359 0.062574
0.262932 0.685359 0.062574
0.290092 0.685359 0.062574
0.317201 0.685359 0.062574
0.344264 0.685359 0.062574
0.371285 0.685359 0.062574
0.398266 0.685359 0.062574
0.425211 0.685359 0.062574
0.452121 0.685359 0.062574
0.479000 0.685359 0.062574
0.505848 0.685359 0.062574
0.532668 0.685359 0.062574
0.559461 0.685359 0.062574
0.586228 0.685359 0.062574
0.612971 0.685359 0.062574
0.639690 0.685359 0.062574
0.666388 0.685359 0.062574
0.693063 0.685359 0.062574
0.719719 0.685359 0.062574
0.746354 0.685359 0.062574
0.772971 0.685359 0.062574
0.799569 0.685359 0.062574
0.826149 0.685359 0.062574
0.852713 0.685359 0.062574
0.879260 0.685359 0.062574
0.905791 0.685359 0.062574
0.042606 0.714093 0.062574
0.070647 0.714093 0.062574
0.098461 0.714093 0.062574
0.126116 0.714093 0.062574
0.153649 0.714093 0.062574
0.181084 0.714093 0.062574
0.208436 0.714093 0.062574
0.235715 0.714093 0.062574
0.262932 0.714093 0.062574
0.290092 0.714093 0.062574
0.317201 0.714093 0.062574
0.344264 0.714093 0.062574
0.371285 0.714093 0.062574
0.398266 0.714093 0.062574
0.425211 0.714093 0.062574
0.452121 0.714093 0.062574
0.479000 0.714093 0.062574
0.505848 0.714093 0.062574
0.532668 0.714093 0.062574
0.559461 0.714093 0.062574
0.586228 0.714093 0.062574
0.612971 0.714093 0.062574
0.639690 0.714093 0.062574
0.666388 0.714093 0.062574
0.693063 0.714093 0.062574
0.719719 0.714093 0.062574
0.746354 0.714093 0.062574
0.772971 0.714093 0.062574
0.799569 0.714093 0.062574
0.826149 0.714093 0.062574
0.852713 0.714093 0.062574
0.879260 0.714093 0.062574
0.905791 0.714093 0.062574
0.042606 0.742804 0.062574
0.070647 0.742804 0.062574
0.098461 0.742804 0.062574
0.126116 0.742804 0.062574
0.153649 0.742804 0.062574
0.181084 0.742804 0.062574
0.208436 0.742804 0.062574
0.235715 0.742804 0.062574
0.262932 0.742804 0.062574
0.290092 0.742804 0.062574
0.317201 0.742804 0.062574
0.344264 0.742804 0.062574
0.371285 0.742804 0.062574
0.398266 0.742804 0.062574
0.425211 0.742804 0.062574
0.452121 0.742804 0.062574
0.479000 0.742804 0.062574
0.505848 0.742804 0.062574
0.532668 0.742804 0.062574
0.559461 0.742804 0.062574
0.586228 0.742804 0.062574
0.612971 0.742804 0.062574
0.639690 0.742804 0.062574
0.666388 0.742804 0.062574
0.693063 0.742804 0.062574
0.719719 0.742804 0.062574
0.746354 0.742804 0.062574
0.772971 0.742804 0.062574
0.799569 0.742804 0.062574
0.826149 0.742804 0.062574
0.852713 0.742804 0.062574
0.879260 0.742804 0.062574
0.905791 0.742804 0.062574
0.042606 0.771493 0.062574
0.070647 0.771493 0.062574
0.098461 0.771493 0.062574
0.126116 0.771493 0.062574
0.153649 0.771493 0.062574
0.181084 0.771493 0.062574
0.208436 0.771493 0.062574
0.235715 0.771493 0.062574
0.262932 0.771493 0.062574
0.290092 0.771493 0.062574
0.317201 0.771493 0.062574
0.344264 0.771493 0.062574
0.371285 0.771493 0.062574
0.398266 0.771493 0.062574
0.425211 0.771493 0.062574
0.452121 0.771493 0.062574
0.479000 0.771493 0.062574
0.505848 0.771493 0.062574
0.532668 0.771493 0.062574
0.559461 0.771493 0.062574
0.586228 0.771493 0.062574
0.612971 0.771493 0.062574
0.639690 0.771493 0.062574
0.666388 0.771493 0.062574
0.693063 0.771493 0.062574
0.719719 0.771493 0.062574
0.746354 0.771493 0.062574
0.772971 0.771493 0.062574
0.799569 0.771493 0.062574
0.826149 0.771493 0.062574
0.852713 0.771493 0.062574
0.879260 0.771493 0.062574
0.905791 0.771493 0.062574
0.042606 0.800160 0.062574
0.070647 0.800160 0.062574
0.098461 0.800160 0.062574
0.126116 0.800160 0.062574
0.153649 0.800160 0.062574
0.181084 0.800160 0.062574
0.208436 0.800160 0.062574
0.235715 0.800160 0.062574
0.262932 0.800160 0.062574
0.290092 0.800160 0.062574
0.317201 0.800160 0.062574
0.344264 0.800160 0.062574
0.371285 0.800160 0.062574
0.398266 0.800160 0.062574
0.425211 0.800160 0.062574
0.452121 0.800160 0.062574
0.479000 0.800160 0.062574
0.505848 0.800160 0.062574
0.532668 0.800160 0.062574
0.559461 0.800160 0.062574
0.586228 0.800160 0.062574
0.612971 0.800160 0.062574
0.639690 0.800160 0.062574
0.666388 0.800160 0.062574
0.693063 0.800160 0.062574
0.719719 0.800160 0.062574
0.746354 0.800160 0.062574
