backend/luts/cyberpunk.cube
TITLE "Cyberpunk"
LUT_3D_SIZE 5
DOMAIN_MIN 0.0 0.0 0.0
DOMAIN_MAX 1.0 1.0 1.0
0.000000 0.024500 0.139500
0.096340 0.000000 0.114743
0.402510 0.000000 0.088037
0.706514 0.000000 0.065228
1.000000 0.000000 0.040471
0.000000 0.290398 0.090896
0.093785 0.279395 0.012825
0.434912 0.250881 0.000000
0.746645 0.240649 0.000000
1.000000 0.225163 0.000000
0.000000 0.556297 0.042293
0.153837 0.543950 0.000000
0.500600 0.527446 0.000000
0.833051 0.505307 0.000000
1.000000 0.489229 0.000000
0.000000 0.815553 0.018598
0.246423 0.799048 0.000000
0.585338 0.782543 0.000000
0.910736 0.768846 0.000000
1.000000 0.756633 0.000000
0.000837 1.000000 0.000000
0.322155 1.000000 0.000000
0.635451 1.000000 0.000000
0.962497 1.000000 0.000000
1.000000 1.000000 0.000000
0.000000 0.020305 0.417561
0.097812 0.000000 0.392804
0.408802 0.000000 0.368046
0.712807 0.000000 0.343289
1.000000 0.000000 0.318532
0.000000 0.286203 0.368957
0.085450 0.257950 0.344200
0.441205 0.219945 0.289002
0.763426 0.121082 0.194578
1.000000 0.041307 0.130277
0.000000 0.552102 0.320354
0.099094 0.537658 0.251210
0.517611 0.521153 0.250178
0.849832 0.418352 0.162851
1.000000 0.360179 0.120151
0.000000 0.809260 0.304525
0.143327 0.792755 0.177310
0.561844 0.776250 0.176278
0.921224 0.731888 0.163029
1.000000 0.705317 0.169124
0.000000 1.000000 0.276078
0.181515 1.000000 0.142386
0.575275 1.000000 0.168175
0.969035 1.000000 0.193964
1.000000 1.000000 0.219753
0.000000 0.016110 0.695622
0.106797 0.000000 0.670864
0.415095 0.000000 0.646107
0.719100 0.000000 0.621350
1.000000 0.000000 0.598249
0.000000 0.282008 0.647018
0.023801 0.183191 0.622261
0.411267 0.175103 0.598401
0.780206 0.109020 0.547791
1.000000 0.033441 0.487685
0.000000 0.547870 0.598552
0.105877 0.515599 0.594426
0.521300 0.496000 0.590300
0.866613 0.406291 0.516064
1.000000 0.356821 0.487703
0.000000 0.802967 0.590452
0.165876 0.786462 0.536291
0.577590 0.773159 0.543464
0.931712 0.726644 0.529615
1.000000 0.702695 0.538331
0.000000 1.000000 0.571195
0.194625 1.000000 0.511594
0.588385 1.000000 0.537382
0.982145 1.000000 0.563171
1.000000 1.000000 0.588960
0.000000 0.011915 0.973682
0.116584 0.000000 0.948925
0.421388 0.000000 0.924168
0.725393 0.000000 0.899411
1.000000 0.000000 0.884175
0.000000 0.277813 0.925079
0.000000 0.140379 0.900322
0.360761 0.095755 0.884327
0.776184 0.076156 0.880201
1.000000 0.025575 0.845094
0.000000 0.541577 0.884479
0.055372 0.436252 0.880353
0.470794 0.416652 0.876227
0.883394 0.394230 0.869277
1.000000 0.354199 0.856910
0.000000 0.796674 0.876379
0.165405 0.757149 0.872252
0.562798 0.742635 0.884769
0.942200 0.721400 0.896200
1.000000 0.700073 0.907539
0.000000 1.000000 0.877753
0.207735 1.000000 0.880801
0.601495 1.000000 0.906590
0.995255 1.000000 0.932379
1.000000 1.000000 0.958168
0.000000 0.007719 1.000000
0.123676 0.000000 1.000000
0.427681 0.000000 1.000000
0.731686 0.000000 1.000000
1.000000 0.000000 1.000000
0.000000 0.273618 1.000000
0.000000 0.126239 1.000000
0.352819 0.058971 1.000000
0.767210 0.038340 1.000000
1.000000 0.017709 1.000000
0.000000 0.535284 1.000000
0.046436 0.398474 1.000000
0.460827 0.377843 1.000000
0.873355 0.358454 1.000000
1.000000 0.351577 1.000000
0.000000 0.790381 1.000000
0.153340 0.718082 1.000000
0.547100 0.711205 1.000000
0.940860 0.704328 1.000000
1.000000 0.697451 1.000000
0.000000 1.000000 1.000000
0.220845 1.000000 1.000000
0.614605 1.000000 1.000000
1.000000 1.000000 1.000000
1.000000 1.000000 1.000000
