backend/luts/cyberpunk.cube
TITLE "Cyberpunk"
LUT_3D_SIZE 9
DOMAIN_MIN 0.0 0.0 0.0
DOMAIN_MAX 1.0 1.0 1.0
0.000000 0.024500 0.139500
0.000000 0.018998 0.127121
0.096340 0.000000 0.114743
0.250507 0.000000 0.097480
0.402510 0.000000 0.088037
0.554512 0.000000 0.077607
0.706514 0.000000 0.065228
0.858517 0.000000 0.052850
1.000000 0.000000 0.040471
0.000000 0.157449 0.115198
0.000000 0.151948 0.102820
0.106771 0.146446 0.076440
0.266708 0.109503 0.030901
0.418711 0.082738 0.000000
0.570713 0.084531 0.000000
0.722716 0.088526 0.000000
0.874718 0.093440 0.000000
1.000000 0.091489 0.000000
0.000000 0.290398 0.090896
0.000000 0.284897 0.078518
0.093785 0.279395 0.012825
0.282910 0.271778 0.000000
0.434912 0.250881 0.000000
0.586914 0.246046 0.000000
0.746645 0.240649 0.000000
0.912401 0.232419 0.000000
1.000000 0.225163 0.000000
0.000000 0.423348 0.066595
0.000000 0.417846 0.054216
0.117158 0.412344 0.000000
0.290701 0.406843 0.000000
0.458335 0.396880 0.000000
0.624092 0.383776 0.000000
0.789848 0.373713 0.000000
0.955604 0.365062 0.000000
1.000000 0.357739 0.000000
0.000000 0.556297 0.042293
0.000000 0.550795 0.018997
0.153837 0.543950 0.000000
0.327823 0.535698 0.000000
0.500600 0.527446 0.000000
0.667295 0.515466 0.000000
0.833051 0.505307 0.000000
0.998808 0.496524 0.000000
1.000000 0.489229 0.000000
0.000000 0.688004 0.022649
0.027727 0.679752 0.000000
0.200230 0.671499 0.000000
0.371751 0.663247 0.000000
0.542264 0.654994 0.000000
0.710498 0.645616 0.000000
0.876254 0.635670 0.000000
1.000000 0.627261 0.000000
1.000000 0.620533 0.000000
0.000000 0.815553 0.018598
0.075691 0.807300 0.000000
0.246423 0.799048 0.000000
0.416312 0.790796 0.000000
0.585338 0.782543 0.000000
0.752981 0.774604 0.000000
0.910736 0.768846 0.000000
1.000000 0.762055 0.000000
1.000000 0.756633 0.000000
0.000000 0.943102 0.014548
0.123037 0.934849 0.000000
0.292503 0.926597 0.000000
0.460938 0.918455 0.000000
0.616548 0.915704 0.000000
0.775843 0.912953 0.000000
0.937738 0.908990 0.000000
1.000000 0.902594 0.000000
1.000000 0.898598 0.000000
0.000837 1.000000 0.000000
0.170082 1.000000 0.000000
0.322155 1.000000 0.000000
0.477139 1.000000 0.000000
0.635451 1.000000 0.000000
0.797199 1.000000 0.000000
0.962497 1.000000 0.000000
1.000000 1.000000 0.000000
1.000000 1.000000 0.000000
0.000000 0.022402 0.278530
0.000000 0.016901 0.266152
0.094497 0.000000 0.253773
0.253654 0.000000 0.241103
0.405656 0.000000 0.228843
0.557658 0.000000 0.216637
0.709661 0.000000 0.204259
0.861663 0.000000 0.191880
1.000000 0.000000 0.179502
0.000000 0.155352 0.254229
0.000000 0.149850 0.241850
0.089948 0.123068 0.229471
0.269855 0.106095 0.203902
0.421857 0.061217 0.150428
0.573860 0.016340 0.096955
0.725862 0.000000 0.069294
0.877864 0.000000 0.058528
1.000000 0.000000 0.063572
0.000000 0.288301 0.229927
0.000000 0.282799 0.217548
0.098243 0.277298 0.187138
0.286056 0.268231 0.169475
0.438058 0.223353 0.116001
0.590061 0.178476 0.062527
0.755035 0.127112 0.017971
0.920792 0.098615 0.000000
1.000000 0.089341 0.000000
0.000000 0.421250 0.205625
0.000000 0.415748 0.193246
0.085257 0.410247 0.123523
0.276635 0.404745 0.109425
0.466726 0.379257 0.090144
0.632482 0.327502 0.046126
0.798238 0.275747 0.002108
0.963995 0.254824 0.000000
1.000000 0.245058 0.000000
0.000000 0.554199 0.181323
0.000000 0.548698 0.158671
0.087819 0.540804 0.071719
0.297078 0.532552 0.071203
0.506336 0.524299 0.070688
0.675685 0.476137 0.030262
0.841442 0.431091 0.000000
1.000000 0.407587 0.000000
1.000000 0.399286 0.000000
0.000000 0.684858 0.165612
0.000000 0.676605 0.117377
0.109936 0.668353 0.034769
0.319194 0.660100 0.034253
0.528453 0.651848 0.033737
0.718888 0.624772 0.014398
0.884645 0.583114 0.000000
1.000000 0.560714 0.000000
1.000000 0.551968 0.000000
0.000000 0.812406 0.161562
0.000000 0.804154 0.068923
0.133867 0.795902 0.000000
0.342834 0.787649 0.000000
0.551509 0.779397 0.000000
0.754706 0.773555 0.002448
0.915980 0.738438 0.000000
1.000000 0.718066 0.000000
1.000000 0.711100 0.000000
0.000000 0.939955 0.157511
0.000000 0.931703 0.015554
0.185442 0.923450 0.000000
0.378695 0.917406 0.000000
0.564124 0.914655 0.000000
0.755045 0.911904 0.000000
0.942982 0.900773 0.000000
1.000000 0.883360 0.000000
1.000000 0.879565 0.009834
0.000000 1.000000 0.136435
0.031458 1.000000 0.000000
0.208380 1.000000 0.000000
0.389735 1.000000 0.000000
0.575691 1.000000 0.000000
0.766426 1.000000 0.000000
0.962480 1.000000 0.009360
1.000000 1.000000 0.022254
1.000000 1.000000 0.035149
0.000000 0.020305 0.417561
0.000000 0.014803 0.405182
0.097812 0.000000 0.392804
0.255553 0.000000 0.380425
0.408802 0.000000 0.368046
0.560805 0.000000 0.355668
0.712807 0.000000 0.343289
0.864810 0.000000 0.330911
1.000000 0.000000 0.318532
0.000000 0.153254 0.393259
0.000000 0.147752 0.380880
0.059123 0.085688 0.368502
0.252221 0.081906 0.356123
0.425004 0.057809 0.323430
0.577006 0.012931 0.269956
0.729008 0.000000 0.237999
0.885979 0.000000 0.225543
1.000000 0.000000 0.226690
0.000000 0.286203 0.368957
0.000000 0.280702 0.356579
0.085450 0.257950 0.344200
0.278548 0.254168 0.331821
0.441205 0.219945 0.289002
0.597669 0.172836 0.238596
0.763426 0.121082 0.194578
0.929182 0.069327 0.150560
1.000000 0.041307 0.130277
0.000000 0.419152 0.344655
0.000000 0.413651 0.332001
0.089714 0.408149 0.297836
0.286235 0.401856 0.287644
0.475116 0.373226 0.266750
0.640872 0.321471 0.222732
0.806629 0.269717 0.178714
0.972385 0.217962 0.134697
1.000000 0.200743 0.125214
0.000000 0.552102 0.320354
0.000000 0.545910 0.301124
0.099094 0.537658 0.251210
0.308352 0.529405 0.250694
0.517611 0.521153 0.250178
0.684076 0.470107 0.206869
0.849832 0.418352 0.162851
1.000000 0.370494 0.122730
1.000000 0.360179 0.120151
0.000000 0.681711 0.308575
0.000000 0.673459 0.267810
0.121210 0.665206 0.214260
0.330469 0.656954 0.213744
0.539728 0.648702 0.213228
0.727279 0.618742 0.191005
0.893035 0.566987 0.146987
1.000000 0.535818 0.130915
1.000000 0.532380 0.143809
0.000000 0.809260 0.304525
0.000000 0.801008 0.225219
0.143327 0.792755 0.177310
0.352586 0.784503 0.176794
0.561844 0.776250 0.176278
0.761523 0.772506 0.187314
0.921224 0.731888 0.163029
1.000000 0.708755 0.156229
1.000000 0.705317 0.169124
0.000000 0.936809 0.300475
0.000000 0.928556 0.176368
0.165444 0.920304 0.140360
0.365553 0.916357 0.150877
0.563121 0.913606 0.164459
0.760689 0.910856 0.178041
0.948226 0.898074 0.181593
1.000000 0.881692 0.181544
1.000000 0.878254 0.194438
0.000000 1.000000 0.276078
0.000000 1.000000 0.142665
0.181515 1.000000 0.142386
0.378395 1.000000 0.155281
0.575275 1.000000 0.168175
0.772155 1.000000 0.181069
0.969035 1.000000 0.193964
1.000000 1.000000 0.206858
1.000000 1.000000 0.219753
0.000000 0.018207 0.556591
0.000000 0.012706 0.544213
0.102123 0.000000 0.531834
0.259093 0.000000 0.519455
0.411949 0.000000 0.507077
0.563951 0.000000 0.494698
0.715954 0.000000 0.482320
0.867956 0.000000 0.469941
1.000000 0.000000 0.457562
0.000000 0.151156 0.532289
0.000000 0.145655 0.519911
0.028298 0.048308 0.507532
0.221396 0.044526 0.495154
0.414494 0.040744 0.482775
0.580152 0.009522 0.442957
0.732155 0.000000 0.405269
0.894369 0.000000 0.391055
1.000000 0.000000 0.388665
0.000000 0.284106 0.507988
0.000000 0.278604 0.495609
0.054625 0.220570 0.483230
0.247723 0.216788 0.470852
0.440821 0.213006 0.458473
0.606060 0.166806 0.415203
0.771816 0.115051 0.371185
0.937572 0.063296 0.327167
1.000000 0.037374 0.308981
0.000000 0.417055 0.483686
0.000000 0.410971 0.471307
0.080952 0.392832 0.458929
0.283825 0.385025 0.453450
0.483506 0.367195 0.443357
0.649263 0.315441 0.399339
0.815019 0.263686 0.355321
0.980776 0.211932 0.311303
1.000000 0.196810 0.303918
0.000000 0.550004 0.459384
0.000000 0.542764 0.448408
0.110368 0.534511 0.430701
0.319627 0.526259 0.430185
0.526710 0.515831 0.427493
0.692466 0.464076 0.383475
0.858222 0.412321 0.339457
1.000000 0.366561 0.301434
1.000000 0.358132 0.303099
0.000000 0.678565 0.451539
0.000000 0.670312 0.422634
0.132485 0.662060 0.393751
0.341744 0.653808 0.393235
0.551002 0.645555 0.392719
0.735669 0.612711 0.367612
0.899466 0.563080 0.327758
1.000000 0.534507 0.315519
1.000000 0.531069 0.328413
0.000000 0.806114 0.447488
0.000000 0.797861 0.385561
0.154602 0.789609 0.356801
0.363860 0.781356 0.356285
0.570773 0.774208 0.358598
0.768341 0.771457 0.372180
0.926468 0.729266 0.346322
1.000000 0.707445 0.340833
1.000000 0.704006 0.353728
0.000000 0.933662 0.443438
0.000000 0.925410 0.340918
0.174803 0.918059 0.322161
0.372370 0.915308 0.335743
0.569938 0.912558 0.349325
0.767506 0.909807 0.362907
0.953470 0.895452 0.364886
1.000000 0.880381 0.366148
1.000000 0.876943 0.379042
0.000000 1.000000 0.420416
0.000000 1.000000 0.320086
0.188070 1.000000 0.326990
0.384950 1.000000 0.339884
0.581830 1.000000 0.352779
0.778710 1.000000 0.365673
0.975590 1.000000 0.378567
1.000000 1.000000 0.391462
1.000000 1.000000 0.404356
0.000000 0.016110 0.695622
0.000000 0.010608 0.683243
0.106797 0.000000 0.670864
0.263093 0.000000 0.658486
0.415095 0.000000 0.646107
0.567098 0.000000 0.633729
0.719100 0.000000 0.621350
0.871102 0.000000 0.608971
1.000000 0.000000 0.598249
0.000000 0.149059 0.671320
0.000000 0.143557 0.658941
0.000000 0.013403 0.646563
0.190571 0.007146 0.634184
0.383669 0.003364 0.621805
0.576789 0.000000 0.609427
0.737003 0.000000 0.572498
0.902760 0.000000 0.554850
1.000000 0.000000 0.549508
0.000000 0.282008 0.647018
0.000000 0.276506 0.634639
0.023801 0.183191 0.622261
0.216898 0.179408 0.609882
0.411267 0.175103 0.598401
0.614450 0.160775 0.591809
0.780206 0.109020 0.547791
0.945963 0.057266 0.503773
1.000000 0.033441 0.487685
0.000000 0.414957 0.622716
0.000000 0.406892 0.610338
0.050861 0.355151 0.598477
0.258572 0.345351 0.596413
0.466283 0.335551 0.594350
0.657653 0.309410 0.575946
0.823410 0.257656 0.531928
0.989166 0.205901 0.487910
1.000000 0.192877 0.482622
0.000000 0.547870 0.598552
0.000000 0.535766 0.596489
0.105877 0.515599 0.594426
0.313589 0.505800 0.592363
0.521300 0.496000 0.590300
0.700856 0.458045 0.560082
0.866613 0.406291 0.516064
1.000000 0.362629 0.480138
1.000000 0.356821 0.487703
0.000000 0.675418 0.594502
0.000000 0.667166 0.582108
0.143760 0.658914 0.573241
0.353018 0.650661 0.572726
0.562277 0.642409 0.572210
0.744060 0.606681 0.544218
0.904710 0.560458 0.511051
1.000000 0.533197 0.500122
1.000000 0.529758 0.513017
0.000000 0.802967 0.590452
0.000000 0.794715 0.550157
0.165876 0.786462 0.536291
0.375135 0.778210 0.535776
0.577590 0.773159 0.543464
0.774208 0.769458 0.556096
0.931712 0.726644 0.529615
1.000000 0.706133 0.525437
1.000000 0.702695 0.538331
0.000000 0.930516 0.585778
0.000000 0.922264 0.509377
0.181620 0.917010 0.507027
0.379188 0.914260 0.520609
0.576755 0.911509 0.534191
0.774323 0.908758 0.547773
0.958714 0.892831 0.548178
1.000000 0.879071 0.550751
1.000000 0.875632 0.563646
0.000000 1.000000 0.571195
0.000000 1.000000 0.499827
0.194625 1.000000 0.511594
0.391505 1.000000 0.524488
0.588385 1.000000 0.537382
0.785265 1.000000 0.550277
0.982145 1.000000 0.563171
1.000000 1.000000 0.576066
1.000000 1.000000 0.588960
0.000000 0.014012 0.834652
0.000000 0.008510 0.822273
0.111643 0.000000 0.809895
0.266239 0.000000 0.797516
0.418242 0.000000 0.785138
0.570244 0.000000 0.772759
0.722246 0.000000 0.760380
0.874249 0.000000 0.748002
1.000000 0.000000 0.741212
0.000000 0.146961 0.810350
0.000000 0.141459 0.797972
0.000000 0.006619 0.785593
0.182831 0.000000 0.773214
0.370304 0.000000 0.760836
0.555678 0.000000 0.748457
0.745394 0.000000 0.740558
0.911150 0.000000 0.716998
1.000000 0.000000 0.709231
0.000000 0.279910 0.786048
0.000000 0.274409 0.773670
0.000000 0.151438 0.761291
0.186074 0.142029 0.748913
0.386014 0.135429 0.741364
0.593725 0.125629 0.739301
0.788597 0.102990 0.724398
0.954353 0.051235 0.680380
1.000000 0.029508 0.666390
0.000000 0.412860 0.761747
0.000000 0.402339 0.749368
0.025608 0.315477 0.741440
0.233319 0.305677 0.739377
0.441031 0.295878 0.737314
0.648742 0.286078 0.735251
0.831800 0.251625 0.708535
0.997556 0.199870 0.664516
1.000000 0.188944 0.661326
0.000000 0.544723 0.741516
0.000000 0.522937 0.739453
0.080625 0.475926 0.737390
0.288336 0.466126 0.735326
0.496047 0.456326 0.733263
0.703758 0.446526 0.731200
0.875003 0.400260 0.692671
1.000000 0.358948 0.659412
1.000000 0.355510 0.672306
0.000000 0.672272 0.737466
0.000000 0.654138 0.735402
0.135641 0.636374 0.733339
0.343352 0.626574 0.731276
0.551064 0.616775 0.729213
0.752450 0.600650 0.720825
0.909954 0.557835 0.694343
1.000000 0.531886 0.684726
1.000000 0.528447 0.697621
0.000000 0.799821 0.733415
0.000000 0.791568 0.719232
0.177151 0.783316 0.715782
0.386410 0.775064 0.715266
0.584407 0.772110 0.728330
0.779452 0.766836 0.739389
0.936956 0.724022 0.712907
1.000000 0.704822 0.710041
1.000000 0.701384 0.722935
0.000000 0.927370 0.727190
0.000000 0.919117 0.681926
0.188437 0.915962 0.691893
0.386005 0.913211 0.705475
0.583573 0.910460 0.719057
0.781140 0.907709 0.732639
0.963958 0.890208 0.731471
1.000000 0.877760 0.735355
1.000000 0.874321 0.748249
0.000000 1.000000 0.723632
0.004300 1.000000 0.683303
0.201180 1.000000 0.696197
0.398060 1.000000 0.709092
0.594940 1.000000 0.721986
0.791820 1.000000 0.734881
0.988700 1.000000 0.747775
1.000000 1.000000 0.760669
1.000000 1.000000 0.773564
0.000000 0.011915 0.973682
0.000000 0.006413 0.961304
0.116584 0.000000 0.948925
0.269386 0.000000 0.936547
0.421388 0.000000 0.924168
0.573390 0.000000 0.911789
0.725393 0.000000 0.899411
0.877395 0.000000 0.887032
1.000000 0.000000 0.884175
0.000000 0.144864 0.949381
0.000000 0.139362 0.937002
0.000000 0.000323 0.924623
0.182973 0.000000 0.912245
0.364496 0.000000 0.899866
0.544197 0.000000 0.887488
0.735361 0.000000 0.884251
0.919540 0.000000 0.877571
1.000000 0.000000 0.867847
0.000000 0.277813 0.925079
0.000000 0.272311 0.912700
0.000000 0.140379 0.900322
0.155249 0.104649 0.887943
0.360761 0.095755 0.884327
0.568472 0.085955 0.882264
0.776184 0.076156 0.880201
0.962744 0.045205 0.856987
1.000000 0.025575 0.845094
0.000000 0.410762 0.900777
0.000000 0.397533 0.888398
0.000355 0.275803 0.884403
0.208066 0.266004 0.882340
0.415778 0.256204 0.880277
0.623489 0.246404 0.878214
0.831200 0.236604 0.876151
1.000000 0.195327 0.842610
1.000000 0.185011 0.840031
0.000000 0.541577 0.884479
0.000000 0.510294 0.882416
0.055372 0.436252 0.880353
0.263083 0.426452 0.878290
0.470794 0.416652 0.876227
0.678506 0.406853 0.874164
0.883394 0.394230 0.869277
1.000000 0.357638 0.844016
1.000000 0.354199 0.856910
0.000000 0.669126 0.880429
0.000000 0.633618 0.878366
0.110388 0.596700 0.876303
0.318100 0.586901 0.874240
0.525811 0.577101 0.872177
0.728409 0.568743 0.874833
0.915198 0.555214 0.877636
1.000000 0.530575 0.869330
1.000000 0.527136 0.882224
0.000000 0.796674 0.876379
0.000000 0.771904 0.874316
0.165405 0.757149 0.872252
0.368497 0.748652 0.874454
0.562798 0.742635 0.884769
0.757099 0.736617 0.895085
0.942200 0.721400 0.896200
1.000000 0.703511 0.894644
1.000000 0.700073 0.907539
0.000000 0.924223 0.871270
0.000000 0.917664 0.863314
0.195254 0.914913 0.876759
0.392822 0.912162 0.890341
0.590390 0.909411 0.903923
0.785789 0.904492 0.915336
0.969202 0.887587 0.914764
1.000000 0.876449 0.919959
1.000000 0.873010 0.932853
0.000000 1.000000 0.877753
0.010855 1.000000 0.867907
0.207735 1.000000 0.880801
0.404615 1.000000 0.893696
0.601495 1.000000 0.906590
0.798375 1.000000 0.919484
0.995255 1.000000 0.932379
1.000000 1.000000 0.945273
1.000000 1.000000 0.958168
0.000000 0.009817 1.000000
0.000000 0.004315 1.000000
0.120530 0.000000 1.000000
0.272532 0.000000 1.000000
0.424534 0.000000 1.000000
0.576537 0.000000 1.000000
0.728539 0.000000 1.000000
0.884727 0.000000 1.000000
1.000000 0.000000 1.000000
0.000000 0.142766 1.000000
0.000000 0.137264 1.000000
0.005722 0.000000 1.000000
0.185950 0.000000 1.000000
0.363923 0.000000 1.000000
0.544221 0.000000 1.000000
0.733896 0.000000 1.000000
0.920099 0.000000 1.000000
1.000000 0.000000 1.000000
0.000000 0.275715 1.000000
0.000000 0.269535 1.000000
0.000000 0.131961 1.000000
0.135136 0.073220 1.000000
0.342331 0.062904 1.000000
0.549526 0.052588 1.000000
0.756722 0.042273 1.000000
0.963917 0.031957 1.000000
1.000000 0.021642 1.000000
0.000000 0.408664 1.000000
0.000000 0.390563 1.000000
0.000000 0.256397 1.000000
0.189139 0.232656 1.000000
0.396335 0.222340 1.000000
0.603531 0.212025 1.000000
0.810726 0.201709 1.000000
1.000000 0.191394 1.000000
1.000000 0.181078 1.000000
0.000000 0.538430 1.000000
0.000000 0.498588 1.000000
0.035948 0.402407 1.000000
0.243143 0.392092 1.000000
0.450339 0.381776 1.000000
0.657534 0.371460 1.000000
0.864730 0.361145 1.000000
1.000000 0.356326 1.000000
1.000000 0.352888 1.000000
0.000000 0.665979 1.000000
0.000000 0.617056 1.000000
0.089952 0.561843 1.000000
0.297147 0.551527 1.000000
0.504343 0.541212 1.000000
0.703673 0.536141 1.000000
0.900553 0.532702 1.000000
1.000000 0.529263 1.000000
1.000000 0.525825 1.000000
0.000000 0.793528 1.000000
0.000000 0.747559 1.000000
0.143956 0.721279 1.000000
0.343665 0.715955 1.000000
0.540545 0.712516 1.000000
0.737425 0.709077 1.000000
0.934305 0.705639 1.000000
1.000000 0.702200 1.000000
1.000000 0.698762 1.000000
0.000000 0.918899 1.000000
0.000000 0.897444 1.000000
0.180538 0.892330 1.000000
0.377418 0.888891 1.000000
0.574298 0.885453 1.000000
0.771178 0.882015 1.000000
0.968058 0.878576 1.000000
1.000000 0.875138 1.000000
1.000000 0.871699 1.000000
0.000000 1.000000 1.000000
0.017410 1.000000 1.000000
0.214290 1.000000 1.000000
0.411170 1.000000 1.000000
0.608050 1.000000 1.000000
0.804930 1.000000 1.000000
1.000000 1.000000 1.000000
1.000000 1.000000 1.000000
1.000000 1.000000 1.000000
0.000000 0.007719 1.000000
0.000000 0.002218 1.000000
0.123676 0.000000 1.000000
0.275679 0.000000 1.000000
0.427681 0.000000 1.000000
0.579683 0.000000 1.000000
0.731686 0.000000 1.000000
0.893118 0.000000 1.000000
1.000000 0.000000 1.000000
0.000000 0.140668 1.000000
0.000000 0.135167 1.000000
0.011734 0.000000 1.000000
0.191493 0.000000 1.000000
0.369007 0.000000 1.000000
0.555277 0.000000 1.000000
0.744184 0.000000 1.000000
0.929646 0.000000 1.000000
1.000000 0.000000 1.000000
0.000000 0.273618 1.000000
0.000000 0.265121 1.000000
0.000000 0.126239 1.000000
0.145623 0.069287 1.000000
0.352819 0.058971 1.000000
0.560014 0.048656 1.000000
0.767210 0.038340 1.000000
0.974406 0.028025 1.000000
1.000000 0.017709 1.000000
0.000000 0.406567 1.000000
0.000000 0.382064 1.000000
0.000000 0.244754 1.000000
0.199628 0.228722 1.000000
0.406823 0.218407 1.000000
0.614018 0.208091 1.000000
0.821214 0.197776 1.000000
1.000000 0.187461 1.000000
1.000000 0.178640 1.000000
0.000000 0.535284 1.000000
0.000000 0.490669 1.000000
0.046436 0.398474 1.000000
0.253632 0.388159 1.000000
0.460827 0.377843 1.000000
0.668022 0.367527 1.000000
0.873355 0.358454 1.000000
1.000000 0.355015 1.000000
1.000000 0.351577 1.000000
0.000000 0.662833 1.000000
0.000000 0.609874 1.000000
0.100440 0.557910 1.000000
0.307636 0.547595 1.000000
0.513348 0.538268 1.000000
0.710228 0.534830 1.000000
0.907108 0.531391 1.000000
1.000000 0.527952 1.000000
1.000000 0.524514 1.000000
0.000000 0.790381 1.000000
0.000000 0.741308 1.000000
0.153340 0.718082 1.000000
0.350220 0.714644 1.000000
0.547100 0.711205 1.000000
0.743980 0.707766 1.000000
0.940860 0.704328 1.000000
1.000000 0.700890 1.000000
1.000000 0.697451 1.000000
0.000000 0.915383 1.000000
0.000000 0.895481 1.000000
0.187092 0.891019 1.000000
0.383973 0.887580 1.000000
0.580853 0.884142 1.000000
0.777732 0.880704 1.000000
0.974612 0.877265 1.000000
1.000000 0.873827 1.000000
1.000000 0.870388 1.000000
0.000000 1.000000 1.000000
0.023965 1.000000 1.000000
0.220845 1.000000 1.000000
0.417725 1.000000 1.000000
0.614605 1.000000 1.000000
0.811485 1.000000 1.000000
1.000000 1.000000 1.000000
1.000000 1.000000 1.000000
1.000000 1.000000 1.000000
