backend/luts/cyberpunk.cube
TITLE "Cyberpunk"
LUT_3D_SIZE 33
DOMAIN_MIN 0.0 0.0 0.0
DOMAIN_MAX 1.0 1.0 1.0
0.000000 0.024500 0.139500
0.000000 0.023125 0.136405
0.000000 0.021749 0.133311
0.000000 0.020374 0.130216
0.000000 0.018998 0.127121
0.000000 0.017623 0.124027
0.007227 0.000000 0.120932
0.052223 0.000000 0.117837
0.096340 0.000000 0.114743
0.136505 0.000000 0.109226
0.174506 0.000000 0.104226
0.212507 0.000000 0.100521
0.250507 0.000000 0.097480
0.288508 0.000000 0.094826
0.326508 0.000000 0.092415
0.364509 0.000000 0.090168
0.402510 0.000000 0.088037
0.440510 0.000000 0.085991
0.478511 0.000000 0.083796
0.516511 0.000000 0.080702
0.554512 0.000000 0.077607
0.592513 0.000000 0.074512
0.630513 0.000000 0.071418
0.668514 0.000000 0.068323
0.706514 0.000000 0.065228
0.744515 0.000000 0.062134
0.782516 0.000000 0.059039
0.820516 0.000000 0.055944
0.858517 0.000000 0.052850
0.896517 0.000000 0.049755
0.934518 0.000000 0.046660
0.972519 0.000000 0.043566
1.000000 0.000000 0.040471
0.000000 0.057737 0.133425
0.000000 0.056362 0.130330
0.000000 0.054986 0.127235
0.000000 0.053611 0.124141
0.000000 0.052236 0.121046
0.000000 0.050860 0.117951
0.004478 0.033142 0.114857
0.052753 0.032196 0.111762
0.101027 0.031251 0.108667
0.140556 0.021559 0.096827
0.178556 0.010340 0.083458
0.216557 0.000000 0.070682
0.254558 0.000000 0.065698
0.292558 0.000000 0.061750
0.330559 0.000000 0.058418
0.368559 0.000000 0.055485
0.406560 0.000000 0.052822
0.444560 0.000000 0.050351
0.482561 0.000000 0.048023
0.520562 0.000000 0.045802
0.558562 0.000000 0.043665
0.596563 0.000000 0.041595
0.634564 0.000000 0.039577
0.672564 0.000000 0.037604
0.710565 0.000000 0.035667
0.748565 0.000000 0.033759
0.786566 0.000000 0.031877
0.824566 0.000000 0.030018
0.862567 0.000000 0.028176
0.900568 0.000000 0.026351
0.938568 0.000000 0.024541
0.976569 0.000000 0.022742
1.000000 0.000000 0.020959
0.000000 0.090975 0.127349
0.000000 0.089599 0.124254
0.000000 0.088224 0.121160
0.000000 0.086848 0.118065
0.000000 0.085473 0.114971
0.000000 0.084098 0.111876
0.011060 0.076207 0.108781
0.059334 0.075262 0.105687
0.106605 0.073313 0.101589
0.144606 0.062093 0.088220
0.182607 0.050874 0.074852
0.220607 0.039655 0.061483
0.258608 0.028435 0.048115
0.296608 0.017216 0.034746
0.334609 0.005997 0.021378
0.372610 0.000000 0.013049
0.410610 0.000000 0.010656
0.448611 0.000000 0.008415
0.486611 0.000000 0.006283
0.524612 0.000000 0.004232
0.562613 0.000000 0.002243
0.600613 0.000000 0.000301
0.638614 0.001597 0.000000
0.676614 0.003455 0.000000
0.714615 0.005280 0.000000
0.752616 0.007077 0.000000
0.790616 0.008851 0.000000
0.828617 0.010606 0.000000
0.866617 0.012344 0.000000
0.904618 0.014069 0.000000
0.942619 0.015781 0.000000
0.980619 0.017482 0.000000
1.000000 0.019185 0.000000
0.000000 0.124212 0.121274
0.000000 0.122837 0.118179
0.000000 0.121461 0.115084
0.000000 0.120086 0.111990
0.000000 0.118710 0.108895
0.000000 0.117335 0.105800
0.014328 0.115959 0.099392
0.062173 0.114584 0.095868
0.110017 0.113209 0.092343
0.148656 0.102628 0.079613
0.186657 0.091408 0.066245
0.224658 0.080189 0.052876
0.262658 0.068969 0.039508
0.300659 0.057750 0.026139
0.338659 0.046531 0.012771
0.376660 0.035852 0.000000
0.414661 0.036818 0.000000
0.452661 0.037917 0.000000
0.490662 0.039111 0.000000
0.528662 0.040375 0.000000
0.566663 0.041692 0.000000
0.604663 0.043050 0.000000
0.642664 0.044440 0.000000
0.680665 0.045856 0.000000
0.718665 0.047293 0.000000
0.756666 0.048748 0.000000
0.794667 0.050218 0.000000
0.832667 0.051700 0.000000
0.870668 0.053193 0.000000
0.908668 0.054694 0.000000
0.946669 0.056204 0.000000
0.984669 0.057720 0.000000
1.000000 0.057897 0.000000
0.000000 0.157449 0.115198
0.000000 0.156074 0.112104
0.000000 0.154698 0.109009
0.000000 0.153323 0.105914
0.000000 0.151948 0.102820
0.000000 0.150572 0.099486
0.011082 0.149197 0.083489
0.058926 0.147821 0.079964
0.106771 0.146446 0.076440
0.152707 0.143162 0.071006
0.190707 0.131942 0.057638
0.228708 0.120723 0.044269
0.266708 0.109503 0.030901
0.304709 0.098284 0.017532
0.342710 0.087065 0.004164
0.380710 0.083042 0.000000
0.418711 0.082738 0.000000
0.456711 0.082829 0.000000
0.494712 0.083204 0.000000
0.532713 0.083788 0.000000
0.570713 0.084531 0.000000
0.608714 0.085399 0.000000
0.646714 0.086367 0.000000
0.684715 0.087414 0.000000
0.722716 0.088526 0.000000
0.760716 0.089693 0.000000
0.798717 0.090905 0.000000
0.836717 0.092156 0.000000
0.874718 0.093440 0.000000
0.912719 0.094752 0.000000
0.952076 0.094869 0.000000
0.993515 0.093135 0.000000
1.000000 0.091489 0.000000
0.000000 0.190686 0.109123
0.000000 0.189311 0.106028
0.000000 0.187936 0.102933
0.000000 0.186560 0.099839
0.000000 0.185185 0.096744
0.000000 0.183810 0.091255
0.007835 0.182434 0.067585
0.055680 0.181059 0.064061
0.103525 0.179683 0.060536
0.151369 0.178308 0.057012
0.194757 0.172476 0.049031
0.232758 0.161257 0.035663
0.270759 0.150037 0.022294
0.308759 0.138818 0.008926
0.346760 0.130371 0.000000
0.384761 0.128254 0.000000
0.422761 0.126975 0.000000
0.460762 0.126280 0.000000
0.498762 0.126006 0.000000
0.536763 0.126047 0.000000
0.574763 0.126330 0.000000
0.612764 0.126801 0.000000
0.650765 0.127423 0.000000
0.688765 0.128168 0.000000
0.726766 0.129012 0.000000
0.764766 0.129941 0.000000
0.802767 0.130939 0.000000
0.840768 0.131997 0.000000
0.879999 0.132044 0.000000
0.921438 0.130220 0.000000
0.962877 0.128422 0.000000
1.000000 0.126659 0.000000
1.000000 0.125011 0.000000
0.000000 0.223924 0.103047
0.000000 0.222548 0.099953
0.000000 0.221173 0.096858
0.000000 0.219798 0.093763
0.000000 0.218422 0.090669
0.000000 0.217047 0.082100
0.004589 0.215671 0.051681
0.052434 0.214296 0.048157
0.100278 0.212921 0.044633
0.148123 0.211545 0.041108
0.195967 0.210170 0.037584
0.236808 0.201791 0.027056
0.274809 0.190571 0.013687
0.312810 0.179352 0.000319
0.350810 0.174684 0.000000
0.388811 0.171667 0.000000
0.426811 0.169665 0.000000
0.464812 0.168375 0.000000
0.502813 0.167604 0.000000
0.540813 0.167224 0.000000
0.578814 0.167146 0.000000
0.616814 0.167304 0.000000
0.654815 0.167652 0.000000
0.692816 0.168155 0.000000
0.730816 0.168784 0.000000
0.768817 0.169520 0.000000
0.807921 0.169439 0.000000
0.849360 0.167496 0.000000
0.890800 0.165594 0.000000
0.932239 0.163727 0.000000
0.973678 0.161889 0.000000
1.000000 0.160128 0.000000
1.000000 0.158464 0.000000
0.000000 0.257161 0.096972
0.000000 0.255786 0.093877
0.000000 0.254410 0.090783
0.000000 0.253035 0.087688
0.000000 0.251659 0.084593
0.000000 0.250284 0.072360
0.001342 0.248909 0.035778
0.049187 0.247533 0.032253
0.097032 0.246158 0.028729
0.144876 0.244783 0.025204
0.192721 0.243407 0.021680
0.240565 0.242032 0.018155
0.278859 0.231106 0.005080
0.316860 0.222358 0.000000
0.354860 0.217076 0.000000
0.392861 0.213443 0.000000
0.430862 0.210930 0.000000
0.468862 0.209212 0.000000
0.506863 0.208077 0.000000
0.544864 0.207384 0.000000
0.582864 0.207034 0.000000
0.620865 0.206955 0.000000
0.658865 0.207093 0.000000
0.696866 0.207409 0.000000
0.735844 0.207118 0.000000
0.777283 0.205020 0.000000
0.818722 0.202982 0.000000
0.860161 0.200995 0.000000
0.901600 0.199051 0.000000
0.943039 0.197146 0.000000
0.984479 0.195273 0.000000
1.000000 0.193528 0.000000
1.000000 0.191848 0.000000
0.000000 0.290398 0.090896
0.000000 0.289023 0.087802
0.000000 0.287648 0.084707
0.000000 0.286272 0.081612
0.000000 0.284897 0.078518
0.000000 0.283521 0.062228
0.000000 0.282146 0.021632
0.045941 0.280771 0.016350
0.093785 0.279395 0.012825
0.141630 0.278020 0.009301
0.189474 0.276644 0.005776
0.237319 0.275269 0.002252
0.282910 0.271778 0.000000
0.320910 0.263446 0.000000
0.358911 0.257732 0.000000
0.396911 0.253722 0.000000
0.434912 0.250881 0.000000
0.472913 0.248879 0.000000
0.510913 0.247497 0.000000
0.548914 0.246587 0.000000
0.586914 0.246046 0.000000
0.624915 0.245797 0.000000
0.663767 0.245180 0.000000
0.705206 0.242869 0.000000
0.746645 0.240649 0.000000
0.788084 0.238504 0.000000
0.829523 0.236424 0.000000
0.870962 0.234398 0.000000
0.912401 0.232419 0.000000
0.953840 0.230480 0.000000
0.995279 0.228577 0.000000
1.000000 0.226858 0.000000
1.000000 0.225163 0.000000
0.000000 0.323636 0.084821
0.000000 0.322260 0.081726
0.000000 0.320885 0.078632
0.000000 0.319510 0.075537
0.000000 0.318134 0.072442
0.000000 0.316759 0.051820
0.000000 0.315383 0.008974
0.042694 0.314008 0.000446
0.092704 0.312633 0.000000
0.141974 0.311257 0.000000
0.190141 0.309882 0.000000
0.237227 0.308506 0.000000
0.283253 0.307131 0.000000
0.324961 0.302701 0.000000
0.362961 0.296818 0.000000
0.400962 0.292629 0.000000
0.438962 0.289617 0.000000
0.476963 0.287455 0.000000
0.514964 0.285928 0.000000
0.552964 0.284887 0.000000
0.591689 0.283768 0.000000
0.633128 0.281158 0.000000
0.674567 0.278687 0.000000
0.716007 0.276331 0.000000
0.757446 0.274068 0.000000
0.798885 0.271885 0.000000
0.840324 0.269769 0.000000
0.881763 0.267710 0.000000
0.923202 0.265701 0.000000
0.964641 0.263734 0.000000
1.000000 0.261833 0.000000
1.000000 0.260120 0.000000
1.000000 0.258409 0.000000
0.000000 0.356873 0.078746
0.000000 0.355498 0.075651
0.000000 0.354122 0.072556
0.000000 0.352747 0.069462
0.000000 0.351371 0.066367
0.000000 0.349996 0.041211
0.003419 0.348621 0.000000
0.052565 0.347245 0.000000
0.100745 0.345870 0.000000
0.147976 0.344494 0.000000
0.194274 0.343119 0.000000
0.239655 0.341744 0.000000
0.284136 0.340368 0.000000
0.327731 0.338993 0.000000
0.367011 0.334478 0.000000
0.405012 0.330277 0.000000
0.443013 0.327227 0.000000
0.481013 0.325015 0.000000
0.519612 0.323113 0.000000
0.561051 0.320065 0.000000
0.602490 0.317237 0.000000
0.643929 0.314584 0.000000
0.685368 0.312073 0.000000
0.726807 0.309679 0.000000
0.768246 0.307382 0.000000
0.809685 0.305167 0.000000
0.851125 0.303021 0.000000
0.892564 0.300935 0.000000
0.934003 0.298899 0.000000
0.975442 0.296908 0.000000
1.000000 0.295043 0.000000
1.000000 0.293314 0.000000
1.000000 0.291587 0.000000
0.000000 0.390110 0.072670
0.000000 0.388735 0.069575
0.000000 0.387359 0.066481
0.000000 0.385984 0.063386
0.000000 0.384609 0.060292
0.000000 0.383233 0.030449
0.015093 0.381858 0.000000
0.062418 0.380482 0.000000
0.108910 0.379107 0.000000
0.154582 0.377732 0.000000
0.199447 0.376356 0.000000
0.243517 0.374981 0.000000
0.286805 0.373605 0.000000
0.329322 0.372230 0.000000
0.371062 0.370837 0.000000
0.409062 0.366765 0.000000
0.447534 0.363601 0.000000
0.488973 0.359876 0.000000
0.530413 0.356514 0.000000
0.571852 0.353432 0.000000
0.613291 0.350570 0.000000
0.654730 0.347885 0.000000
0.696169 0.345343 0.000000
0.737608 0.342920 0.000000
0.779047 0.340596 0.000000
0.820486 0.338355 0.000000
0.861925 0.336185 0.000000
0.903364 0.334076 0.000000
0.944804 0.332019 0.000000
0.986243 0.330008 0.000000
1.000000 0.328183 0.000000
1.000000 0.326439 0.000000
1.000000 0.324697 0.000000
0.000000 0.423348 0.066595
0.000000 0.421972 0.063500
0.000000 0.420597 0.060405
0.000000 0.419221 0.057311
0.000000 0.417846 0.054216
0.000000 0.416471 0.019570
0.026100 0.415095 0.000000
0.071995 0.413720 0.000000
0.117158 0.412344 0.000000
0.161601 0.410969 0.000000
0.205332 0.409594 0.000000
0.248362 0.408218 0.000000
0.290701 0.406843 0.000000
0.332358 0.405467 0.000000
0.373691 0.404023 0.000000
0.416896 0.401087 0.000000
0.458335 0.396880 0.000000
0.499774 0.393144 0.000000
0.541213 0.389764 0.000000
0.582653 0.386661 0.000000
0.624092 0.383776 0.000000
0.665531 0.381068 0.000000
0.706970 0.378504 0.000000
0.748409 0.376059 0.000000
0.789848 0.373713 0.000000
0.831287 0.371452 0.000000
0.872726 0.369263 0.000000
0.914165 0.367136 0.000000
0.955604 0.365062 0.000000
0.997043 0.363035 0.000000
1.000000 0.361256 0.000000
1.000000 0.359496 0.000000
1.000000 0.357739 0.000000
0.000000 0.456585 0.060519
0.000000 0.455209 0.057425
0.000000 0.453834 0.054330
0.000000 0.452459 0.051235
0.000000 0.451083 0.048141
0.000000 0.449708 0.008600
0.036634 0.448332 0.000000
0.081376 0.446957 0.000000
0.125467 0.445582 0.000000
0.168914 0.444206 0.000000
0.211727 0.442831 0.000000
0.253912 0.441456 0.000000
0.295653 0.440036 0.000000
0.339648 0.437973 0.000000
0.383553 0.435910 0.000000
0.427368 0.433847 0.000000
0.469136 0.429991 0.000000
0.510575 0.426258 0.000000
0.552014 0.422873 0.000000
0.593453 0.419760 0.000000
0.634892 0.416862 0.000000
0.676332 0.414140 0.000000
0.717771 0.411560 0.000000
0.759210 0.409100 0.000000
0.800649 0.406739 0.000000
0.842088 0.404463 0.000000
0.883527 0.402260 0.000000
0.924966 0.400119 0.000000
0.966405 0.398031 0.000000
1.000000 0.396038 0.000000
1.000000 0.394261 0.000000
1.000000 0.392486 0.000000
1.000000 0.390712 0.000000
0.000000 0.489822 0.054444
0.000000 0.488447 0.051349
0.000000 0.487071 0.048254
0.000000 0.485696 0.045160
0.000000 0.484321 0.039117
0.002433 0.482945 0.000000
0.046820 0.481570 0.000000
0.090613 0.480194 0.000000
0.133819 0.478819 0.000000
0.176445 0.477444 0.000000
0.218555 0.476050 0.000000
0.262454 0.473987 0.000000
0.306270 0.471924 0.000000
0.350003 0.469860 0.000000
0.393650 0.467797 0.000000
0.437212 0.465734 0.000000
0.479937 0.462946 0.000000
0.521376 0.459229 0.000000
0.562815 0.455850 0.000000
0.604254 0.452737 0.000000
0.645693 0.449835 0.000000
0.687132 0.447106 0.000000
0.728571 0.444518 0.000000
0.770011 0.442048 0.000000
0.811450 0.439678 0.000000
0.852889 0.437392 0.000000
0.894328 0.435178 0.000000
0.935767 0.433027 0.000000
0.977206 0.430930 0.000000
1.000000 0.428990 0.000000
1.000000 0.427198 0.000000
1.000000 0.425407 0.000000
1.000000 0.423619 0.000000
0.000000 0.523059 0.048368
0.000000 0.521684 0.045274
0.000000 0.520309 0.042179
0.000000 0.518933 0.039084
0.000000 0.517558 0.029141
0.013204 0.516182 0.000000
0.056742 0.514807 0.000000
0.099741 0.513432 0.000000
0.142205 0.512056 0.000000
0.186008 0.510000 0.000000
0.229751 0.507937 0.000000
0.273415 0.505874 0.000000
0.317001 0.503811 0.000000
0.360507 0.501748 0.000000
0.403933 0.499685 0.000000
0.447278 0.497621 0.000000
0.490541 0.495558 0.000000
0.532177 0.492068 0.000000
0.573616 0.488704 0.000000
0.615055 0.485599 0.000000
0.656494 0.482701 0.000000
0.697933 0.479971 0.000000
0.739372 0.477381 0.000000
0.780811 0.474908 0.000000
0.822250 0.472532 0.000000
0.863690 0.470241 0.000000
0.905129 0.468021 0.000000
0.946568 0.465864 0.000000
0.988007 0.463760 0.000000
1.000000 0.461875 0.000000
1.000000 0.460067 0.000000
1.000000 0.458261 0.000000
1.000000 0.456457 0.000000
0.000000 0.556297 0.042293
0.000000 0.554921 0.039198
0.000000 0.553546 0.036104
0.000000 0.552171 0.033009
0.000000 0.550795 0.018997
0.023642 0.549420 0.000000
0.066461 0.548044 0.000000
0.110156 0.546013 0.000000
0.153837 0.543950 0.000000
0.197445 0.541887 0.000000
0.240979 0.539824 0.000000
0.284439 0.537761 0.000000
0.327823 0.535698 0.000000
0.371133 0.533635 0.000000
0.414366 0.531572 0.000000
0.457521 0.529509 0.000000
0.500600 0.527446 0.000000
0.542978 0.524782 0.000000
0.584417 0.521443 0.000000
0.625856 0.518354 0.000000
0.667295 0.515466 0.000000
0.708734 0.512742 0.000000
0.750173 0.510155 0.000000
0.791612 0.507683 0.000000
0.833051 0.505307 0.000000
0.874490 0.503014 0.000000
0.915929 0.500792 0.000000
0.957369 0.498631 0.000000
0.998808 0.496524 0.000000
1.000000 0.494692 0.000000
1.000000 0.492869 0.000000
1.000000 0.491048 0.000000
1.000000 0.489229 0.000000
0.000000 0.589534 0.036217
0.000000 0.588159 0.033123
0.000000 0.586783 0.030028
0.000000 0.585408 0.026934
0.000000 0.584033 0.008710
0.034783 0.582027 0.000000
0.078411 0.579964 0.000000
0.121971 0.577901 0.000000
0.165461 0.575838 0.000000
0.208882 0.573775 0.000000
0.252233 0.571711 0.000000
0.295513 0.569648 0.000000
0.338721 0.567585 0.000000
0.381857 0.565522 0.000000
0.424921 0.563459 0.000000
0.467911 0.561396 0.000000
0.510827 0.559333 0.000000
0.553669 0.557270 0.000000
0.595217 0.554073 0.000000
0.636657 0.551006 0.000000
0.678096 0.548134 0.000000
0.719535 0.545423 0.000000
0.760974 0.542844 0.000000
0.802413 0.540377 0.000000
0.843852 0.538005 0.000000
0.885291 0.535714 0.000000
0.926730 0.533493 0.000000
0.968169 0.531332 0.000000
1.000000 0.529283 0.000000
1.000000 0.527443 0.000000
1.000000 0.525604 0.000000
1.000000 0.523768 0.000000
1.000000 0.521934 0.000000
0.000000 0.622771 0.030142
0.000000 0.621396 0.027047
0.000000 0.620021 0.023953
0.000000 0.618040 0.023126
0.003385 0.615977 0.000000
0.046903 0.613914 0.000000
0.090357 0.611851 0.000000
0.133745 0.609788 0.000000
0.177066 0.607725 0.000000
0.220322 0.605662 0.000000
0.263509 0.603599 0.000000
0.306630 0.601535 0.000000
0.349681 0.599472 0.000000
0.392664 0.597409 0.000000
0.435578 0.595346 0.000000
0.478422 0.593283 0.000000
0.521195 0.591220 0.000000
0.563897 0.589157 0.000000
0.606018 0.586601 0.000000
0.647457 0.583563 0.000000
0.688896 0.580713 0.000000
0.730335 0.578017 0.000000
0.771775 0.575451 0.000000
0.813214 0.572994 0.000000
0.854653 0.570629 0.000000
0.896092 0.568344 0.000000
0.937531 0.566127 0.000000
0.978970 0.563970 0.000000
1.000000 0.561981 0.000000
1.000000 0.560126 0.000000
1.000000 0.558273 0.000000
1.000000 0.556421 0.000000
1.000000 0.554570 0.000000
0.000000 0.656009 0.024066
0.000000 0.654054 0.023145
0.000000 0.651991 0.022629
0.000000 0.649927 0.022114
0.015593 0.647864 0.000000
0.058953 0.645801 0.000000
0.102250 0.643738 0.000000
0.145484 0.641675 0.000000
0.188655 0.639612 0.000000
0.231762 0.637549 0.000000
0.274804 0.635486 0.000000
0.317782 0.633423 0.000000
0.360694 0.631360 0.000000
0.403541 0.629296 0.000000
0.446321 0.627233 0.000000
0.489034 0.625170 0.000000
0.531680 0.623107 0.000000
0.574258 0.621044 0.000000
0.616768 0.618981 0.000000
0.658258 0.616029 0.000000
0.699697 0.613205 0.000000
0.741136 0.610531 0.000000
0.782575 0.607981 0.000000
0.824014 0.605537 0.000000
0.865454 0.603183 0.000000
0.906893 0.600907 0.000000
0.948332 0.598697 0.000000
0.989771 0.596545 0.000000
1.000000 0.594613 0.000000
1.000000 0.592742 0.000000
1.000000 0.590919 0.000000
1.000000 0.589155 0.000000
1.000000 0.587382 0.000000
0.000000 0.688004 0.022649
0.000000 0.685941 0.022133
0.000000 0.683878 0.021617
0.000000 0.681815 0.015202
0.027727 0.679752 0.000000
0.070943 0.677688 0.000000
0.114099 0.675625 0.000000
0.157195 0.673562 0.000000
0.200230 0.671499 0.000000
0.243203 0.669436 0.000000
0.286115 0.667373 0.000000
0.328964 0.665310 0.000000
0.371751 0.663247 0.000000
0.414475 0.661184 0.000000
0.457136 0.659121 0.000000
0.499732 0.657058 0.000000
0.542264 0.654994 0.000000
0.584731 0.652931 0.000000
0.627132 0.650868 0.000000
0.669059 0.648409 0.000000
0.710498 0.645616 0.000000
0.751937 0.642966 0.000000
0.793376 0.640437 0.000000
0.834815 0.638010 0.000000
0.876254 0.635670 0.000000
0.917693 0.633405 0.000000
0.959133 0.631205 0.000000
1.000000 0.629065 0.000000
1.000000 0.627261 0.000000
1.000000 0.625592 0.000000
1.000000 0.623915 0.000000
1.000000 0.622228 0.000000
1.000000 0.620533 0.000000
0.000000 0.719891 0.021636
0.000000 0.717828 0.021120
0.000000 0.715765 0.020604
0.000000 0.713702 0.003333
0.039795 0.711639 0.000000
0.082881 0.709576 0.000000
0.125910 0.707513 0.000000
0.168880 0.705449 0.000000
0.211792 0.703386 0.000000
0.254645 0.701323 0.000000
0.297439 0.699260 0.000000
0.340173 0.697197 0.000000
0.382847 0.695134 0.000000
0.425460 0.693071 0.000000
0.468012 0.691008 0.000000
0.510503 0.688945 0.000000
0.552932 0.686882 0.000000
0.595299 0.684819 0.000000
0.637604 0.682755 0.000000
0.679845 0.680692 0.000000
0.721299 0.677949 0.000000
0.762738 0.675328 0.000000
0.804177 0.672822 0.000000
0.845616 0.670415 0.000000
0.887055 0.668092 0.000000
0.928494 0.665841 0.000000
0.969236 0.663793 0.000000
1.000000 0.662022 0.000000
1.000000 0.660440 0.000000
1.000000 0.658850 0.000000
1.000000 0.657251 0.000000
1.000000 0.655644 0.000000
1.000000 0.654028 0.000000
0.000000 0.751778 0.020623
0.000000 0.749715 0.020108
0.000000 0.747652 0.019592
0.008784 0.745589 0.000000
0.051807 0.743526 0.000000
0.094775 0.741463 0.000000
0.137688 0.739400 0.000000
0.180544 0.737337 0.000000
0.223344 0.735274 0.000000
0.266088 0.733210 0.000000
0.308774 0.731147 0.000000
0.351403 0.729084 0.000000
0.393975 0.727021 0.000000
0.436488 0.724958 0.000000
0.478942 0.722895 0.000000
0.521338 0.720832 0.000000
0.563674 0.718769 0.000000
0.605950 0.716706 0.000000
0.648167 0.714643 0.000000
0.690322 0.712579 0.000000
0.732100 0.710208 0.000000
0.773539 0.707619 0.000000
0.814978 0.705140 0.000000
0.856417 0.702755 0.000000
0.897235 0.700668 0.000000
0.936611 0.699008 0.000000
0.975987 0.697208 0.000000
1.000000 0.695464 0.000000
1.000000 0.693962 0.000000
1.000000 0.692452 0.000000
1.000000 0.690933 0.000000
1.000000 0.689407 0.000000
1.000000 0.687873 0.000000
0.000000 0.783666 0.019611
0.000000 0.781603 0.019095
0.000000 0.779539 0.018579
0.020857 0.777476 0.000000
0.063770 0.775413 0.000000
0.106631 0.773350 0.000000
0.149437 0.771287 0.000000
0.192189 0.769224 0.000000
0.234888 0.767161 0.000000
0.277531 0.765098 0.000000
0.320120 0.763035 0.000000
0.362653 0.760971 0.000000
0.405131 0.758908 0.000000
0.447553 0.756845 0.000000
0.489918 0.754782 0.000000
0.532227 0.752719 0.000000
0.574478 0.750656 0.000000
0.616672 0.748593 0.000000
0.658809 0.746530 0.000000
0.700887 0.744467 0.000000
0.742900 0.742397 0.000000
0.784339 0.739842 0.000000
0.825233 0.737677 0.000000
0.864609 0.736222 0.000000
0.903986 0.734597 0.000000
0.943362 0.732824 0.000000
0.982738 0.730920 0.000000
1.000000 0.729252 0.000000
1.000000 0.727832 0.000000
1.000000 0.726403 0.000000
1.000000 0.724967 0.000000
1.000000 0.723524 0.000000
1.000000 0.722072 0.000000
0.000000 0.815553 0.018598
0.000000 0.813490 0.018082
0.000000 0.811427 0.009864
0.032878 0.809363 0.000000
0.075691 0.807300 0.000000
0.118452 0.805237 0.000000
0.161161 0.803174 0.000000
0.203818 0.801111 0.000000
0.246423 0.799048 0.000000
0.288975 0.796985 0.000000
0.331474 0.794922 0.000000
0.373920 0.792859 0.000000
0.416312 0.790796 0.000000
0.458650 0.788732 0.000000
0.500934 0.786669 0.000000
0.543163 0.784606 0.000000
0.585338 0.782543 0.000000
0.627457 0.780480 0.000000
0.669520 0.778417 0.000000
0.711527 0.776354 0.000000
0.752981 0.774604 0.000000
0.792608 0.773639 0.000000
0.831984 0.772212 0.000000
0.871360 0.770607 0.000000
0.910736 0.768846 0.000000
0.950112 0.766947 0.000000
0.989488 0.764926 0.000000
1.000000 0.763392 0.000000
1.000000 0.762055 0.000000
1.000000 0.760710 0.000000
1.000000 0.759358 0.000000
1.000000 0.757999 0.000000
1.000000 0.756633 0.000000
0.000000 0.847440 0.017586
0.000000 0.845377 0.017070
0.002085 0.843314 0.000000
0.044854 0.841251 0.000000
0.087574 0.839188 0.000000
0.130243 0.837124 0.000000
0.172863 0.835061 0.000000
0.215433 0.832998 0.000000
0.257952 0.830935 0.000000
0.300420 0.828872 0.000000
0.342836 0.826809 0.000000
0.385202 0.824746 0.000000
0.427515 0.822683 0.000000
0.469777 0.820620 0.000000
0.511985 0.818557 0.000000
0.554142 0.816494 0.000000
0.596245 0.814430 0.000000
0.638295 0.812367 0.000000
0.679796 0.810566 0.000000
0.719324 0.809879 0.000000
0.759113 0.809191 0.000000
0.799166 0.808503 0.000000
0.838735 0.807091 0.000000
0.878110 0.805322 0.000000
0.917486 0.803411 0.000000
0.956863 0.801374 0.000000
0.996238 0.799227 0.000000
1.000000 0.797889 0.000000
1.000000 0.796637 0.000000
1.000000 0.795378 0.000000
1.000000 0.794112 0.000000
1.000000 0.792839 0.000000
1.000000 0.791560 0.000000
0.000000 0.879327 0.016573
0.000000 0.877264 0.016057
0.014108 0.875201 0.000000
0.056790 0.873138 0.000000
0.099423 0.871075 0.000000
0.142009 0.869012 0.000000
0.184546 0.866949 0.000000
0.227035 0.864885 0.000000
0.269474 0.862822 0.000000
0.311865 0.860759 0.000000
0.354205 0.858696 0.000000
0.396496 0.856633 0.000000
0.438737 0.854570 0.000000
0.480928 0.852507 0.000000
0.523068 0.850444 0.000000
0.565157 0.848381 0.000000
0.606737 0.846529 0.000000
0.645916 0.845842 0.000000
0.685342 0.845154 0.000000
0.725018 0.844466 0.000000
0.764947 0.843778 0.000000
0.805132 0.843091 0.000000
0.845485 0.842312 0.000000
0.884861 0.840365 0.000000
0.924237 0.838291 0.000000
0.963613 0.836105 0.000000
1.000000 0.833908 0.000000
