backend/luts/kodachrome.cube
TITLE "Kodachrome"
LUT_3D_SIZE 33
DOMAIN_MIN 0.0 0.0 0.0
DOMAIN_MAX 1.0 1.0 1.0
0.000000 0.000000 0.000000
0.000000 0.000000 0.000000
0.027875 0.000000 0.000000
0.064312 0.000000 0.000000
0.100750 0.000000 0.000000
0.137188 0.000000 0.000000
0.173625 0.000000 0.000000
0.210062 0.000000 0.000000
0.246500 0.000000 0.000000
0.282938 0.000000 0.000000
0.319375 0.000000 0.000000
0.355812 0.000000 0.000000
0.392250 0.000000 0.000000
0.428688 0.000000 0.000000
0.465125 0.000000 0.000000
0.501563 0.000000 0.000000
0.538000 0.000000 0.000000
0.574437 0.000000 0.000000
0.610875 0.000000 0.000000
0.647313 0.000000 0.000000
0.683750 0.000000 0.000000
0.720188 0.000000 0.000000
0.756625 0.000000 0.000000
0.793063 0.000000 0.000000
0.829500 0.000000 0.000000
0.865938 0.000000 0.000000
0.902375 0.000000 0.000000
0.938813 0.000000 0.000000
0.975250 0.000000 0.000000
1.000000 0.000000 0.000000
1.000000 0.000000 0.000000
1.000000 0.000000 0.000000
1.000000 0.000000 0.000000
0.000000 0.000000 0.000000
0.000000 0.000000 0.000000
0.027875 0.000000 0.000000
0.064312 0.000000 0.000000
0.100750 0.000000 0.000000
0.137188 0.000000 0.000000
0.173625 0.000000 0.000000
0.210062 0.000000 0.000000
0.246500 0.000000 0.000000
0.282938 0.000000 0.000000
0.319375 0.000000 0.000000
0.355812 0.000000 0.000000
0.392250 0.000000 0.000000
0.428688 0.000000 0.000000
0.465125 0.000000 0.000000
0.501563 0.000000 0.000000
0.538000 0.000000 0.000000
0.574437 0.000000 0.000000
0.610875 0.000000 0.000000
0.647313 0.000000 0.000000
0.683750 0.000000 0.000000
0.720188 0.000000 0.000000
0.756625 0.000000 0.000000
0.793063 0.000000 0.000000
0.829500 0.000000 0.000000
0.865938 0.000000 0.000000
0.902375 0.000000 0.000000
0.938813 0.000000 0.000000
0.975250 0.000000 0.000000
1.000000 0.000000 0.000000
1.000000 0.000000 0.000000
1.000000 0.000000 0.000000
1.000000 0.000000 0.000000
0.000000 0.023750 0.000000
0.000000 0.023750 0.000000
0.027875 0.023750 0.000000
0.064312 0.023750 0.000000
0.100750 0.023750 0.000000
0.137188 0.023750 0.000000
0.173625 0.023750 0.000000
0.210062 0.023750 0.000000
0.246500 0.023750 0.000000
0.282938 0.023750 0.000000
0.319375 0.023750 0.000000
0.355812 0.023750 0.000000
0.392250 0.023750 0.000000
0.428688 0.023750 0.000000
0.465125 0.023750 0.000000
0.501563 0.023750 0.000000
0.538000 0.023750 0.000000
0.574437 0.023750 0.000000
0.610875 0.023750 0.000000
0.647313 0.023750 0.000000
0.683750 0.023750 0.000000
0.720188 0.023750 0.000000
0.756625 0.023750 0.000000
0.793063 0.023750 0.000000
0.829500 0.023750 0.000000
0.865938 0.023750 0.000000
0.902375 0.023750 0.000000
0.938813 0.023750 0.000000
0.975250 0.023750 0.000000
1.000000 0.023750 0.000000
1.000000 0.023750 0.000000
1.000000 0.023750 0.000000
1.000000 0.023750 0.000000
0.000000 0.058125 0.000000
0.000000 0.058125 0.000000
0.027875 0.058125 0.000000
0.064312 0.058125 0.000000
0.100750 0.058125 0.000000
0.137188 0.058125 0.000000
0.173625 0.058125 0.000000
0.210062 0.058125 0.000000
0.246500 0.058125 0.000000
0.282938 0.058125 0.000000
0.319375 0.058125 0.000000
0.355812 0.058125 0.000000
0.392250 0.058125 0.000000
0.428688 0.058125 0.000000
0.465125 0.058125 0.000000
0.501563 0.058125 0.000000
0.538000 0.058125 0.000000
0.574437 0.058125 0.000000
0.610875 0.058125 0.000000
0.647313 0.058125 0.000000
0.683750 0.058125 0.000000
0.720188 0.058125 0.000000
0.756625 0.058125 0.000000
0.793063 0.058125 0.000000
0.829500 0.058125 0.000000
0.865938 0.058125 0.000000
0.902375 0.058125 0.000000
0.938813 0.058125 0.000000
0.975250 0.058125 0.000000
1.000000 0.058125 0.000000
1.000000 0.058125 0.000000
1.000000 0.058125 0.000000
1.000000 0.058125 0.000000
0.000000 0.092500 0.000000
0.000000 0.092500 0.000000
0.027875 0.092500 0.000000
0.064312 0.092500 0.000000
0.100750 0.092500 0.000000
0.137188 0.092500 0.000000
0.173625 0.092500 0.000000
0.210062 0.092500 0.000000
0.246500 0.092500 0.000000
0.282938 0.092500 0.000000
0.319375 0.092500 0.000000
0.355812 0.092500 0.000000
0.392250 0.092500 0.000000
0.428688 0.092500 0.000000
0.465125 0.092500 0.000000
0.501563 0.092500 0.000000
0.538000 0.092500 0.000000
0.574437 0.092500 0.000000
0.610875 0.092500 0.000000
0.647313 0.092500 0.000000
0.683750 0.092500 0.000000
0.720188 0.092500 0.000000
0.756625 0.092500 0.000000
0.793063 0.092500 0.000000
0.829500 0.092500 0.000000
0.865938 0.092500 0.000000
0.902375 0.092500 0.000000
0.938813 0.092500 0.000000
0.975250 0.092500 0.000000
1.000000 0.092500 0.000000
1.000000 0.092500 0.000000
1.000000 0.092500 0.000000
1.000000 0.092500 0.000000
0.000000 0.126875 0.000000
0.000000 0.126875 0.000000
0.027875 0.126875 0.000000
0.064312 0.126875 0.000000
0.100750 0.126875 0.000000
0.137188 0.126875 0.000000
0.173625 0.126875 0.000000
0.210062 0.126875 0.000000
0.246500 0.126875 0.000000
0.282938 0.126875 0.000000
0.319375 0.126875 0.000000
0.355812 0.126875 0.000000
0.392250 0.126875 0.000000
0.428688 0.126875 0.000000
0.465125 0.126875 0.000000
0.501563 0.126875 0.000000
0.538000 0.126875 0.000000
0.574437 0.126875 0.000000
0.610875 0.126875 0.000000
0.647313 0.126875 0.000000
0.683750 0.126875 0.000000
0.720188 0.126875 0.000000
0.756625 0.126875 0.000000
0.793063 0.126875 0.000000
0.829500 0.126875 0.000000
0.865938 0.126875 0.000000
0.902375 0.126875 0.000000
0.938813 0.126875 0.000000
0.975250 0.126875 0.000000
1.000000 0.126875 0.000000
1.000000 0.126875 0.000000
1.000000 0.126875 0.000000
1.000000 0.126875 0.000000
0.000000 0.161250 0.000000
0.000000 0.161250 0.000000
0.027875 0.161250 0.000000
0.064312 0.161250 0.000000
0.100750 0.161250 0.000000
0.137187 0.161250 0.000000
0.173625 0.161250 0.000000
0.210062 0.161250 0.000000
0.246500 0.161250 0.000000
0.282938 0.161250 0.000000
0.319375 0.161250 0.000000
0.355812 0.161250 0.000000
0.392250 0.161250 0.000000
0.428688 0.161250 0.000000
0.465125 0.161250 0.000000
0.501563 0.161250 0.000000
0.538000 0.161250 0.000000
0.574437 0.161250 0.000000
0.610875 0.161250 0.000000
0.647313 0.161250 0.000000
0.683750 0.161250 0.000000
0.720188 0.161250 0.000000
0.756625 0.161250 0.000000
0.793063 0.161250 0.000000
0.829500 0.161250 0.000000
0.865938 0.161250 0.000000
0.902375 0.161250 0.000000
0.938813 0.161250 0.000000
0.975250 0.161250 0.000000
1.000000 0.161250 0.000000
1.000000 0.161250 0.000000
1.000000 0.161250 0.000000
1.000000 0.161250 0.000000
0.000000 0.195625 0.000000
0.000000 0.195625 0.000000
0.027875 0.195625 0.000000
0.064313 0.195625 0.000000
0.100750 0.195625 0.000000
0.137187 0.195625 0.000000
0.173625 0.195625 0.000000
0.210062 0.195625 0.000000
0.246500 0.195625 0.000000
0.282938 0.195625 0.000000
0.319375 0.195625 0.000000
0.355812 0.195625 0.000000
0.392250 0.195625 0.000000
0.428688 0.195625 0.000000
0.465125 0.195625 0.000000
0.501563 0.195625 0.000000
0.538000 0.195625 0.000000
0.574437 0.195625 0.000000
0.610875 0.195625 0.000000
0.647313 0.195625 0.000000
0.683750 0.195625 0.000000
0.720188 0.195625 0.000000
0.756625 0.195625 0.000000
0.793063 0.195625 0.000000
0.829500 0.195625 0.000000
0.865938 0.195625 0.000000
0.902375 0.195625 0.000000
0.938813 0.195625 0.000000
0.975250 0.195625 0.000000
1.000000 0.195625 0.000000
1.000000 0.195625 0.000000
1.000000 0.195625 0.000000
1.000000 0.195625 0.000000
0.000000 0.230000 0.000000
0.000000 0.230000 0.000000
0.027875 0.230000 0.000000
0.064312 0.230000 0.000000
0.100750 0.230000 0.000000
0.137188 0.230000 0.000000
0.173625 0.230000 0.000000
0.210062 0.230000 0.000000
0.246500 0.230000 0.000000
0.282938 0.230000 0.000000
0.319375 0.230000 0.000000
0.355812 0.230000 0.000000
0.392250 0.230000 0.000000
0.428688 0.230000 0.000000
0.465125 0.230000 0.000000
0.501563 0.230000 0.000000
0.538000 0.230000 0.000000
0.574437 0.230000 0.000000
0.610875 0.230000 0.000000
0.647313 0.230000 0.000000
0.683750 0.230000 0.000000
0.720188 0.230000 0.000000
0.756625 0.230000 0.000000
0.793063 0.230000 0.000000
0.829500 0.230000 0.000000
0.865938 0.230000 0.000000
0.902375 0.230000 0.000000
0.938813 0.230000 0.000000
0.975250 0.230000 0.000000
1.000000 0.230000 0.000000
1.000000 0.230000 0.000000
1.000000 0.230000 0.000000
1.000000 0.230000 0.000000
0.000000 0.264375 0.000000
0.000000 0.264375 0.000000
0.027875 0.264375 0.000000
0.064312 0.264375 0.000000
0.100750 0.264375 0.000000
0.137188 0.264375 0.000000
0.173625 0.264375 0.000000
0.210062 0.264375 0.000000
0.246500 0.264375 0.000000
0.282938 0.264375 0.000000
0.319375 0.264375 0.000000
0.355812 0.264375 0.000000
0.392250 0.264375 0.000000
0.428688 0.264375 0.000000
0.465125 0.264375 0.000000
0.501563 0.264375 0.000000
0.538000 0.264375 0.000000
0.574437 0.264375 0.000000
0.610875 0.264375 0.000000
0.647313 0.264375 0.000000
0.683750 0.264375 0.000000
0.720188 0.264375 0.000000
0.756625 0.264375 0.000000
0.793063 0.264375 0.000000
0.829500 0.264375 0.000000
0.865938 0.264375 0.000000
0.902375 0.264375 0.000000
0.938813 0.264375 0.000000
0.975250 0.264375 0.000000
1.000000 0.264375 0.000000
1.000000 0.264375 0.000000
1.000000 0.264375 0.000000
1.000000 0.264375 0.000000
0.000000 0.298750 0.000000
0.000000 0.298750 0.000000
0.027875 0.298750 0.000000
0.064312 0.298750 0.000000
0.100750 0.298750 0.000000
0.137188 0.298750 0.000000
0.173625 0.298750 0.000000
0.210063 0.298750 0.000000
0.246500 0.298750 0.000000
0.282938 0.298750 0.000000
0.319375 0.298750 0.000000
0.355812 0.298750 0.000000
0.392250 0.298750 0.000000
0.428688 0.298750 0.000000
0.465125 0.298750 0.000000
0.501563 0.298750 0.000000
0.538000 0.298750 0.000000
0.574437 0.298750 0.000000
0.610875 0.298750 0.000000
0.647313 0.298750 0.000000
0.683750 0.298750 0.000000
0.720188 0.298750 0.000000
0.756625 0.298750 0.000000
0.793063 0.298750 0.000000
0.829500 0.298750 0.000000
0.865938 0.298750 0.000000
0.902375 0.298750 0.000000
0.938813 0.298750 0.000000
0.975250 0.298750 0.000000
1.000000 0.298750 0.000000
1.000000 0.298750 0.000000
1.000000 0.298750 0.000000
1.000000 0.298750 0.000000
0.000000 0.333125 0.000000
0.000000 0.333125 0.000000
0.027875 0.333125 0.000000
0.064312 0.333125 0.000000
0.100750 0.333125 0.000000
0.137188 0.333125 0.000000
0.173625 0.333125 0.000000
0.210062 0.333125 0.000000
0.246500 0.333125 0.000000
0.282937 0.333125 0.000000
0.319375 0.333125 0.000000
0.355812 0.333125 0.000000
0.392250 0.333125 0.000000
0.428688 0.333125 0.000000
0.465125 0.333125 0.000000
0.501563 0.333125 0.000000
0.538000 0.333125 0.000000
0.574437 0.333125 0.000000
0.610875 0.333125 0.000000
0.647313 0.333125 0.000000
0.683750 0.333125 0.000000
0.720188 0.333125 0.000000
0.756625 0.333125 0.000000
0.793063 0.333125 0.000000
0.829500 0.333125 0.000000
0.865938 0.333125 0.000000
0.902375 0.333125 0.000000
0.938813 0.333125 0.000000
0.975250 0.333125 0.000000
1.000000 0.333125 0.000000
1.000000 0.333125 0.000000
1.000000 0.333125 0.000000
1.000000 0.333125 0.000000
0.000000 0.367500 0.000000
0.000000 0.367500 0.000000
0.027875 0.367500 0.000000
0.064312 0.367500 0.000000
0.100750 0.367500 0.000000
0.137188 0.367500 0.000000
0.173625 0.367500 0.000000
0.210062 0.367500 0.000000
0.246500 0.367500 0.000000
0.282938 0.367500 0.000000
0.319375 0.367500 0.000000
0.355813 0.367500 0.000000
0.392250 0.367500 0.000000
0.428688 0.367500 0.000000
0.465125 0.367500 0.000000
0.501563 0.367500 0.000000
0.538000 0.367500 0.000000
0.574437 0.367500 0.000000
0.610875 0.367500 0.000000
0.647313 0.367500 0.000000
0.683750 0.367500 0.000000
0.720188 0.367500 0.000000
0.756625 0.367500 0.000000
0.793063 0.367500 0.000000
0.829500 0.367500 0.000000
0.865938 0.367500 0.000000
0.902375 0.367500 0.000000
0.938813 0.367500 0.000000
0.975250 0.367500 0.000000
1.000000 0.367500 0.000000
1.000000 0.367500 0.000000
1.000000 0.367500 0.000000
1.000000 0.367500 0.000000
0.000000 0.401875 0.000000
0.000000 0.401875 0.000000
0.027875 0.401875 0.000000
0.064312 0.401875 0.000000
0.100750 0.401875 0.000000
0.137188 0.401875 0.000000
0.173625 0.401875 0.000000
0.210062 0.401875 0.000000
0.246500 0.401875 0.000000
0.282938 0.401875 0.000000
0.319375 0.401875 0.000000
0.355812 0.401875 0.000000
0.392250 0.401875 0.000000
0.428688 0.401875 0.000000
0.465125 0.401875 0.000000
0.501563 0.401875 0.000000
0.538000 0.401875 0.000000
0.574437 0.401875 0.000000
0.610875 0.401875 0.000000
0.647313 0.401875 0.000000
0.683750 0.401875 0.000000
0.720188 0.401875 0.000000
0.756625 0.401875 0.000000
0.793063 0.401875 0.000000
0.829500 0.401875 0.000000
0.865938 0.401875 0.000000
0.902375 0.401875 0.000000
0.938813 0.401875 0.000000
0.975250 0.401875 0.000000
1.000000 0.401875 0.000000
1.000000 0.401875 0.000000
1.000000 0.401875 0.000000
1.000000 0.401875 0.000000
0.000000 0.436250 0.000000
0.000000 0.436250 0.000000
0.027875 0.436250 0.000000
0.064313 0.436250 0.000000
0.100750 0.436250 0.000000
0.137188 0.436250 0.000000
0.173625 0.436250 0.000000
0.210062 0.436250 0.000000
0.246500 0.436250 0.000000
0.282937 0.436250 0.000000
0.319375 0.436250 0.000000
0.355813 0.436250 0.000000
0.392250 0.436250 0.000000
0.428688 0.436250 0.000000
0.465125 0.436250 0.000000
0.501563 0.436250 0.000000
0.538000 0.436250 0.000000
0.574437 0.436250 0.000000
0.610875 0.436250 0.000000
0.647313 0.436250 0.000000
0.683750 0.436250 0.000000
0.720188 0.436250 0.000000
0.756625 0.436250 0.000000
0.793063 0.436250 0.000000
0.829500 0.436250 0.000000
0.865938 0.436250 0.000000
0.902375 0.436250 0.000000
0.938813 0.436250 0.000000
0.975250 0.436250 0.000000
1.000000 0.436250 0.000000
1.000000 0.436250 0.000000
1.000000 0.436250 0.000000
1.000000 0.436250 0.000000
0.000000 0.470625 0.000000
0.000000 0.470625 0.000000
0.027875 0.470625 0.000000
0.064313 0.470625 0.000000
0.100750 0.470625 0.000000
0.137187 0.470625 0.000000
0.173625 0.470625 0.000000
0.210063 0.470625 0.000000
0.246500 0.470625 0.000000
0.282937 0.470625 0.000000
0.319375 0.470625 0.000000
0.355813 0.470625 0.000000
0.392250 0.470625 0.000000
0.428687 0.470625 0.000000
0.465125 0.470625 0.000000
0.501563 0.470625 0.000000
0.538000 0.470625 0.000000
0.574437 0.470625 0.000000
0.610875 0.470625 0.000000
0.647313 0.470625 0.000000
0.683750 0.470625 0.000000
0.720188 0.470625 0.000000
0.756625 0.470625 0.000000
0.793063 0.470625 0.000000
0.829500 0.470625 0.000000
0.865938 0.470625 0.000000
0.902375 0.470625 0.000000
0.938813 0.470625 0.000000
0.975250 0.470625 0.000000
1.000000 0.470625 0.000000
1.000000 0.470625 0.000000
1.000000 0.470625 0.000000
1.000000 0.470625 0.000000
0.000000 0.505000 0.000000
0.000000 0.505000 0.000000
0.027875 0.505000 0.000000
0.064312 0.505000 0.000000
0.100750 0.505000 0.000000
0.137188 0.505000 0.000000
0.173625 0.505000 0.000000
0.210062 0.505000 0.000000
0.246500 0.505000 0.000000
0.282938 0.505000 0.000000
0.319375 0.505000 0.000000
0.355812 0.505000 0.000000
0.392250 0.505000 0.000000
0.428688 0.505000 0.000000
0.465125 0.505000 0.000000
0.501563 0.505000 0.000000
0.538000 0.505000 0.000000
0.574437 0.505000 0.000000
0.610875 0.505000 0.000000
0.647313 0.505000 0.000000
0.683750 0.505000 0.000000
0.720188 0.505000 0.000000
0.756625 0.505000 0.000000
0.793063 0.505000 0.000000
0.829500 0.505000 0.000000
0.865938 0.505000 0.000000
0.902375 0.505000 0.000000
0.938813 0.505000 0.000000
0.975250 0.505000 0.000000
1.000000 0.505000 0.000000
1.000000 0.505000 0.000000
1.000000 0.505000 0.000000
1.000000 0.505000 0.000000
0.000000 0.539375 0.000000
0.000000 0.539375 0.000000
0.027875 0.539375 0.000000
0.064312 0.539375 0.000000
0.100750 0.539375 0.000000
0.137188 0.539375 0.000000
0.173625 0.539375 0.000000
0.210062 0.539375 0.000000
0.246500 0.539375 0.000000
0.282938 0.539375 0.000000
0.319375 0.539375 0.000000
0.355812 0.539375 0.000000
0.392250 0.539375 0.000000
0.428688 0.539375 0.000000
0.465125 0.539375 0.000000
0.501562 0.539375 0.000000
0.538000 0.539375 0.000000
0.574437 0.539375 0.000000
0.610875 0.539375 0.000000
0.647313 0.539375 0.000000
0.683750 0.539375 0.000000
0.720188 0.539375 0.000000
0.756625 0.539375 0.000000
0.793063 0.539375 0.000000
0.829500 0.539375 0.000000
0.865938 0.539375 0.000000
0.902375 0.539375 0.000000
0.938813 0.539375 0.000000
0.975250 0.539375 0.000000
1.000000 0.539375 0.000000
1.000000 0.539375 0.000000
1.000000 0.539375 0.000000
1.000000 0.539375 0.000000
0.000000 0.573750 0.000000
0.000000 0.573750 0.000000
0.027875 0.573750 0.000000
0.064313 0.573750 0.000000
0.100750 0.573750 0.000000
0.137187 0.573750 0.000000
0.173625 0.573750 0.000000
0.210062 0.573750 0.000000
0.246500 0.573750 0.000000
0.282938 0.573750 0.000000
0.319375 0.573750 0.000000
0.355813 0.573750 0.000000
0.392250 0.573750 0.000000
0.428688 0.573750 0.000000
0.465125 0.573750 0.000000
0.501562 0.573750 0.000000
0.538000 0.573750 0.000000
0.574437 0.573750 0.000000
0.610875 0.573750 0.000000
0.647313 0.573750 0.000000
0.683750 0.573750 0.000000
0.720188 0.573750 0.000000
0.756625 0.573750 0.000000
0.793063 0.573750 0.000000
0.829500 0.573750 0.000000
0.865938 0.573750 0.000000
0.902375 0.573750 0.000000
0.938813 0.573750 0.000000
0.975250 0.573750 0.000000
1.000000 0.573750 0.000000
1.000000 0.573750 0.000000
1.000000 0.573750 0.000000
1.000000 0.573750 0.000000
0.000000 0.608125 0.000000
0.000000 0.608125 0.000000
0.027875 0.608125 0.000000
0.064312 0.608125 0.000000
0.100750 0.608125 0.000000
0.137187 0.608125 0.000000
0.173625 0.608125 0.000000
0.210063 0.608125 0.000000
0.246500 0.608125 0.000000
0.282938 0.608125 0.000000
0.319375 0.608125 0.000000
0.355812 0.608125 0.000000
0.392250 0.608125 0.000000
0.428688 0.608125 0.000000
0.465125 0.608125 0.000000
0.501563 0.608125 0.000000
0.538000 0.608125 0.000000
0.574437 0.608125 0.000000
0.610875 0.608125 0.000000
0.647313 0.608125 0.000000
0.683750 0.608125 0.000000
0.720188 0.608125 0.000000
0.756625 0.608125 0.000000
0.793063 0.608125 0.000000
0.829500 0.608125 0.000000
0.865938 0.608125 0.000000
0.902375 0.608125 0.000000
0.938813 0.608125 0.000000
0.975250 0.608125 0.000000
1.000000 0.608125 0.000000
1.000000 0.608125 0.000000
1.000000 0.608125 0.000000
1.000000 0.608125 0.000000
0.000000 0.642500 0.000000
0.000000 0.642500 0.000000
0.027875 0.642500 0.000000
0.064313 0.642500 0.000000
0.100750 0.642500 0.000000
0.137188 0.642500 0.000000
0.173625 0.642500 0.000000
0.210062 0.642500 0.000000
0.246500 0.642500 0.000000
0.282938 0.642500 0.000000
0.319375 0.642500 0.000000
0.355812 0.642500 0.000000
0.392250 0.642500 0.000000
0.428688 0.642500 0.000000
0.465125 0.642500 0.000000
0.501563 0.642500 0.000000
0.538000 0.642500 0.000000
0.574437 0.642500 0.000000
0.610875 0.642500 0.000000
0.647313 0.642500 0.000000
0.683750 0.642500 0.000000
0.720188 0.642500 0.000000
0.756625 0.642500 0.000000
0.793063 0.642500 0.000000
0.829500 0.642500 0.000000
0.865938 0.642500 0.000000
0.902375 0.642500 0.000000
0.938813 0.642500 0.000000
0.975250 0.642500 0.000000
1.000000 0.642500 0.000000
1.000000 0.642500 0.000000
1.000000 0.642500 0.000000
1.000000 0.642500 0.000000
0.000000 0.676875 0.000000
0.000000 0.676875 0.000000
0.027875 0.676875 0.000000
0.064312 0.676875 0.000000
0.100750 0.676875 0.000000
0.137188 0.676875 0.000000
0.173625 0.676875 0.000000
0.210062 0.676875 0.000000
0.246500 0.676875 0.000000
0.282938 0.676875 0.000000
0.319375 0.676875 0.000000
0.355812 0.676875 0.000000
0.392250 0.676875 0.000000
0.428688 0.676875 0.000000
0.465125 0.676875 0.000000
0.501562 0.676875 0.000000
0.538000 0.676875 0.000000
0.574438 0.676875 0.000000
0.610875 0.676875 0.000000
0.647312 0.676875 0.000000
0.683750 0.676875 0.000000
0.720188 0.676875 0.000000
0.756625 0.676875 0.000000
0.793063 0.676875 0.000000
0.829500 0.676875 0.000000
0.865938 0.676875 0.000000
0.902375 0.676875 0.000000
0.938813 0.676875 0.000000
0.975250 0.676875 0.000000
1.000000 0.676875 0.000000
1.000000 0.676875 0.000000
1.000000 0.676875 0.000000
1.000000 0.676875 0.000000
0.000000 0.711250 0.000000
0.000000 0.711250 0.000000
0.027875 0.711250 0.000000
0.064312 0.711250 0.000000
0.100750 0.711250 0.000000
0.137188 0.711250 0.000000
0.173625 0.711250 0.000000
0.210062 0.711250 0.000000
0.246500 0.711250 0.000000
0.282938 0.711250 0.000000
0.319375 0.711250 0.000000
0.355812 0.711250 0.000000
0.392250 0.711250 0.000000
0.428687 0.711250 0.000000
0.465125 0.711250 0.000000
0.501563 0.711250 0.000000
0.538000 0.711250 0.000000
0.574437 0.711250 0.000000
0.610875 0.711250 0.000000
0.647312 0.711250 0.000000
0.683750 0.711250 0.000000
0.720188 0.711250 0.000000
0.756625 0.711250 0.000000
0.793063 0.711250 0.000000
0.829500 0.711250 0.000000
0.865938 0.711250 0.000000
0.902375 0.711250 0.000000
0.938813 0.711250 0.000000
0.975250 0.711250 0.000000
1.000000 0.711250 0.000000
1.000000 0.711250 0.000000
1.000000 0.711250 0.000000
1.000000 0.711250 0.000000
0.000000 0.745625 0.000000
0.000000 0.745625 0.000000
0.027875 0.745625 0.000000
0.064312 0.745625 0.000000
0.100750 0.745625 0.000000
0.137187 0.745625 0.000000
0.173625 0.745625 0.000000
0.210062 0.745625 0.000000
0.246500 0.745625 0.000000
0.282938 0.745625 0.000000
0.319375 0.745625 0.000000
0.355813 0.745625 0.000000
0.392250 0.745625 0.000000
0.428688 0.745625 0.000000
0.465125 0.745625 0.000000
0.501563 0.745625 0.000000
0.538000 0.745625 0.000000
0.574438 0.745625 0.000000
0.610875 0.745625 0.000000
0.647313 0.745625 0.000000
0.683750 0.745625 0.000000
0.720188 0.745625 0.000000
0.756625 0.745625 0.000000
0.793063 0.745625 0.000000
0.829500 0.745625 0.000000
0.865938 0.745625 0.000000
0.902375 0.745625 0.000000
0.938813 0.745625 0.000000
0.975250 0.745625 0.000000
1.000000 0.745625 0.000000
1.000000 0.745625 0.000000
1.000000 0.745625 0.000000
1.000000 0.745625 0.000000
0.000000 0.780000 0.000000
0.000000 0.780000 0.000000
0.027875 0.780000 0.000000
0.064312 0.780000 0.000000
0.100750 0.780000 0.000000
0.137187 0.780000 0.000000
0.173625 0.780000 0.000000
0.210063 0.780000 0.000000
0.246500 0.780000 0.000000
0.282938 0.780000 0.000000
0.319375 0.780000 0.000000
0.355812 0.780000 0.000000
0.392250 0.780000 0.000000
0.428688 0.780000 0.000000
0.465125 0.780000 0.000000
0.501563 0.780000 0.000000
0.538000 0.780000 0.000000
0.574437 0.780000 0.000000
0.610875 0.780000 0.000000
0.647313 0.780000 0.000000
0.683750 0.780000 0.000000
0.720188 0.780000 0.000000
0.756625 0.780000 0.000000
0.793062 0.780000 0.000000
0.829500 0.780000 0.000000
0.865938 0.780000 0.000000
0.902375 0.780000 0.000000
0.938813 0.780000 0.000000
0.975250 0.780000 0.000000
1.000000 0.780000 0.000000
1.000000 0.780000 0.000000
1.000000 0.780000 0.000000
1.000000 0.780000 0.000000
0.000000 0.814375 0.000000
0.000000 0.814375 0.000000
0.027875 0.814375 0.000000
0.064312 0.814375 0.000000
0.100750 0.814375 0.000000
0.137188 0.814375 0.000000
0.173625 0.814375 0.000000
0.210062 0.814375 0.000000
0.246500 0.814375 0.000000
0.282938 0.814375 0.000000
0.319375 0.814375 0.000000
0.355813 0.814375 0.000000
0.392250 0.814375 0.000000
0.428687 0.814375 0.000000
0.465125 0.814375 0.000000
0.501562 0.814375 0.000000
0.538000 0.814375 0.000000
0.574438 0.814375 0.000000
0.610875 0.814375 0.000000
0.647312 0.814375 0.000000
0.683750 0.814375 0.000000
0.720187 0.814375 0.000000
0.756625 0.814375 0.000000
0.793063 0.814375 0.000000
0.829500 0.814375 0.000000
0.865938 0.814375 0.000000
0.902375 0.814375 0.000000
0.938813 0.814375 0.000000
0.975250 0.814375 0.000000
1.000000 0.814375 0.000000
1.000000 0.814375 0.000000
1.000000 0.814375 0.000000
1.000000 0.814375 0.000000
0.000000 0.848750 0.000000
0.000000 0.848750 0.000000
0.027875 0.848750 0.000000
0.064312 0.848750 0.000000
0.100750 0.848750 0.000000
0.137188 0.848750 0.000000
0.173625 0.848750 0.000000
0.210063 0.848750 0.000000
0.246500 0.848750 0.000000
0.282937 0.848750 0.000000
0.319375 0.848750 0.000000
0.355812 0.848750 0.000000
0.392250 0.848750 0.000000
0.428688 0.848750 0.000000
0.465125 0.848750 0.000000
0.501563 0.848750 0.000000
0.538000 0.848750 0.000000
0.574438 0.848750 0.000000
0.610875 0.848750 0.000000
0.647312 0.848750 0.000000
0.683750 0.848750 0.000000
0.720187 0.848750 0.000000
0.756625 0.848750 0.000000
0.793063 0.848750 0.000000
0.829500 0.848750 0.000000
0.865938 0.848750 0.000000
0.902375 0.848750 0.000000
