backend/luts/kodachrome.cube
TITLE "Kodachrome"
LUT_3D_SIZE 5
DOMAIN_MIN 0.0 0.0 0.0
DOMAIN_MAX 1.0 1.0 1.0
0.000000 0.000000 0.000000
0.246500 0.000000 0.000000
0.538000 0.000000 0.000000
0.829500 0.000000 0.000000
1.000000 0.000000 0.000000
0.000000 0.230000 0.000000
0.246500 0.230000 0.000000
0.538000 0.230000 0.000000
0.829500 0.230000 0.000000
1.000000 0.230000 0.000000
0.000000 0.505000 0.000000
0.246500 0.505000 0.000000
0.538000 0.505000 0.000000
0.829500 0.505000 0.000000
1.000000 0.505000 0.000000
0.000000 0.780000 0.000000
0.246500 0.780000 0.000000
0.538000 0.780000 0.000000
0.829500 0.780000 0.000000
1.000000 0.780000 0.000000
0.000000 1.000000 0.000000
0.246500 1.000000 0.000000
0.538000 1.000000 0.000000
0.829500 1.000000 0.000000
1.000000 1.000000 0.000000
0.000000 0.000000 0.213500
0.246500 0.000000 0.213500
0.538000 0.000000 0.213500
0.829500 0.000000 0.213500
1.000000 0.000000 0.213500
0.000000 0.230000 0.213500
0.246500 0.230000 0.213500
0.538000 0.147500 0.135950
0.829500 0.065000 0.058400
1.000000 0.000000 0.000000
0.000000 0.505000 0.213500
0.159050 0.505000 0.135950
0.538000 0.505000 0.135950
0.829500 0.422500 0.058400
1.000000 0.340000 0.000000
0.000000 0.780000 0.213500
0.071600 0.780000 0.058400
0.450550 0.780000 0.058400
0.829500 0.780000 0.058400
1.000000 0.697500 0.000000
0.000000 1.000000 0.213500
0.000000 1.000000 0.000000
0.363100 1.000000 0.000000
0.742050 1.000000 0.000000
1.000000 1.000000 0.000000
0.000000 0.000000 0.472000
0.246500 0.000000 0.472000
0.538000 0.000000 0.472000
0.829500 0.000000 0.472000
1.000000 0.000000 0.472000
0.000000 0.230000 0.472000
0.159050 0.147500 0.472000
0.538000 0.147500 0.472000
0.829500 0.065000 0.394450
1.000000 0.000000 0.316900
0.000000 0.505000 0.472000
0.159050 0.505000 0.472000
0.538000 0.505000 0.472000
0.829500 0.422500 0.394450
1.000000 0.340000 0.316900
0.000000 0.780000 0.472000
0.071600 0.780000 0.394450
0.450550 0.780000 0.394450
0.829500 0.780000 0.394450
1.000000 0.697500 0.316900
0.000000 1.000000 0.472000
0.000000 1.000000 0.316900
0.363100 1.000000 0.316900
0.742050 1.000000 0.316900
1.000000 1.000000 0.316900
0.000000 0.000000 0.730500
0.246500 0.000000 0.730500
0.538000 0.000000 0.730500
0.829500 0.000000 0.730500
1.000000 0.000000 0.730500
0.000000 0.230000 0.730500
0.071600 0.065000 0.730500
0.450550 0.065000 0.730500
0.829500 0.065000 0.730500
1.000000 0.000000 0.652950
0.000000 0.505000 0.730500
0.071600 0.422500 0.730500
0.450550 0.422500 0.730500
0.829500 0.422500 0.730500
1.000000 0.340000 0.652950
0.000000 0.780000 0.730500
0.071600 0.780000 0.730500
0.450550 0.780000 0.730500
0.829500 0.780000 0.730500
1.000000 0.697500 0.652950
0.000000 1.000000 0.730500
0.000000 1.000000 0.652950
0.363100 1.000000 0.652950
0.742050 1.000000 0.652950
1.000000 1.000000 0.652950
0.000000 0.000000 0.989000
0.246500 0.000000 0.989000
0.538000 0.000000 0.989000
0.829500 0.000000 0.989000
1.000000 0.000000 0.989000
0.000000 0.230000 0.989000
0.000000 0.000000 0.989000
0.363100 0.000000 0.989000
0.742050 0.000000 0.989000
1.000000 0.000000 0.989000
0.000000 0.505000 0.989000
0.000000 0.340000 0.989000
0.363100 0.340000 0.989000
0.742050 0.340000 0.989000
1.000000 0.340000 0.989000
0.000000 0.780000 0.989000
0.000000 0.697500 0.989000
0.363100 0.697500 0.989000
0.742050 0.697500 0.989000
1.000000 0.697500 0.989000
0.000000 1.000000 0.989000
0.000000 1.000000 0.989000
0.363100 1.000000 0.989000
0.742050 1.000000 0.989000
1.000000 1.000000 0.989000
