backend/luts/kodachrome.cube
TITLE "Kodachrome"
LUT_3D_SIZE 9
DOMAIN_MIN 0.0 0.0 0.0
DOMAIN_MAX 1.0 1.0 1.0
0.000000 0.000000 0.000000
0.100750 0.000000 0.000000
0.246500 0.000000 0.000000
0.392250 0.000000 0.000000
0.538000 0.000000 0.000000
0.683750 0.000000 0.000000
0.829500 0.000000 0.000000
0.975250 0.000000 0.000000
1.000000 0.000000 0.000000
0.000000 0.092500 0.000000
0.100750 0.092500 0.000000
0.246500 0.092500 0.000000
0.392250 0.092500 0.000000
0.538000 0.092500 0.000000
0.683750 0.092500 0.000000
0.829500 0.092500 0.000000
0.975250 0.092500 0.000000
1.000000 0.092500 0.000000
0.000000 0.230000 0.000000
0.100750 0.230000 0.000000
0.246500 0.230000 0.000000
0.392250 0.230000 0.000000
0.538000 0.230000 0.000000
0.683750 0.230000 0.000000
0.829500 0.230000 0.000000
0.975250 0.230000 0.000000
1.000000 0.230000 0.000000
0.000000 0.367500 0.000000
0.100750 0.367500 0.000000
0.246500 0.367500 0.000000
0.392250 0.367500 0.000000
0.538000 0.367500 0.000000
0.683750 0.367500 0.000000
0.829500 0.367500 0.000000
0.975250 0.367500 0.000000
1.000000 0.367500 0.000000
0.000000 0.505000 0.000000
0.100750 0.505000 0.000000
0.246500 0.505000 0.000000
0.392250 0.505000 0.000000
0.538000 0.505000 0.000000
0.683750 0.505000 0.000000
0.829500 0.505000 0.000000
0.975250 0.505000 0.000000
1.000000 0.505000 0.000000
0.000000 0.642500 0.000000
0.100750 0.642500 0.000000
0.246500 0.642500 0.000000
0.392250 0.642500 0.000000
0.538000 0.642500 0.000000
0.683750 0.642500 0.000000
0.829500 0.642500 0.000000
0.975250 0.642500 0.000000
1.000000 0.642500 0.000000
0.000000 0.780000 0.000000
0.100750 0.780000 0.000000
0.246500 0.780000 0.000000
0.392250 0.780000 0.000000
0.538000 0.780000 0.000000
0.683750 0.780000 0.000000
0.829500 0.780000 0.000000
0.975250 0.780000 0.000000
1.000000 0.780000 0.000000
0.000000 0.917500 0.000000
0.100750 0.917500 0.000000
0.246500 0.917500 0.000000
0.392250 0.917500 0.000000
0.538000 0.917500 0.000000
0.683750 0.917500 0.000000
0.829500 0.917500 0.000000
0.975250 0.917500 0.000000
1.000000 0.917500 0.000000
0.000000 1.000000 0.000000
0.100750 1.000000 0.000000
0.246500 1.000000 0.000000
0.392250 1.000000 0.000000
0.538000 1.000000 0.000000
0.683750 1.000000 0.000000
0.829500 1.000000 0.000000
0.975250 1.000000 0.000000
1.000000 1.000000 0.000000
0.000000 0.000000 0.084250
0.100750 0.000000 0.084250
0.246500 0.000000 0.084250
0.392250 0.000000 0.084250
0.538000 0.000000 0.084250
0.683750 0.000000 0.084250
0.829500 0.000000 0.084250
0.975250 0.000000 0.084250
1.000000 0.000000 0.084250
0.000000 0.092500 0.084250
0.100750 0.092500 0.084250
0.246500 0.051250 0.045475
0.392250 0.010000 0.006700
0.538000 0.000000 0.000000
0.683750 0.000000 0.000000
0.829500 0.000000 0.000000
0.975250 0.000000 0.000000
1.000000 0.000000 0.000000
0.000000 0.230000 0.084250
0.057025 0.230000 0.045475
0.246500 0.230000 0.045475
0.392250 0.188750 0.006700
0.538000 0.147500 0.000000
0.683750 0.126875 0.000000
0.829500 0.120000 0.000000
0.975250 0.115417 0.000000
1.000000 0.112143 0.000000
0.000000 0.367500 0.084250
0.013300 0.367500 0.006700
0.202775 0.367500 0.006700
0.392250 0.367500 0.006700
0.538000 0.326250 0.000000
0.683750 0.298750 0.000000
0.829500 0.285000 0.000000
0.975250 0.275833 0.000000
1.000000 0.269286 0.000000
0.000000 0.505000 0.084250
0.000000 0.505000 0.000000
0.159050 0.505000 0.000000
0.348525 0.505000 0.000000
0.538000 0.505000 0.000000
0.683750 0.470625 0.000000
0.829500 0.450000 0.000000
0.975250 0.436250 0.000000
1.000000 0.426429 0.000000
0.000000 0.642500 0.084250
0.000000 0.642500 0.000000
0.137188 0.642500 0.000000
0.319375 0.642500 0.000000
0.501563 0.642500 0.000000
0.683750 0.642500 0.000000
0.829500 0.615000 0.000000
0.975250 0.596667 0.000000
1.000000 0.583571 0.000000
0.000000 0.780000 0.084250
0.000000 0.780000 0.000000
0.129900 0.780000 0.000000
0.304800 0.780000 0.000000
0.479700 0.780000 0.000000
0.654600 0.780000 0.000000
0.829500 0.780000 0.000000
0.975250 0.757083 0.000000
1.000000 0.740714 0.000000
0.000000 0.917500 0.084250
0.000000 0.917500 0.000000
0.125042 0.917500 0.000000
0.295083 0.917500 0.000000
0.465125 0.917500 0.000000
0.635167 0.917500 0.000000
0.805208 0.917500 0.000000
0.975250 0.917500 0.000000
1.000000 0.897857 0.000000
0.000000 1.000000 0.084250
0.000000 1.000000 0.000000
0.121571 1.000000 0.000000
0.288143 1.000000 0.000000
0.454714 1.000000 0.000000
0.621286 1.000000 0.000000
0.787857 1.000000 0.000000
0.954429 1.000000 0.000000
1.000000 1.000000 0.000000
0.000000 0.000000 0.213500
0.100750 0.000000 0.213500
0.246500 0.000000 0.213500
0.392250 0.000000 0.213500
0.538000 0.000000 0.213500
0.683750 0.000000 0.213500
0.829500 0.000000 0.213500
0.975250 0.000000 0.213500
1.000000 0.000000 0.213500
0.000000 0.092500 0.213500
0.057025 0.051250 0.213500
0.246500 0.051250 0.213500
0.392250 0.010000 0.174725
0.538000 0.000000 0.135950
0.683750 0.000000 0.116562
0.829500 0.000000 0.110100
0.975250 0.000000 0.105792
1.000000 0.000000 0.102715
0.000000 0.230000 0.213500
0.057025 0.230000 0.213500
0.246500 0.230000 0.213500
0.392250 0.188750 0.174725
0.538000 0.147500 0.135950
0.683750 0.106250 0.097175
0.829500 0.065000 0.058400
0.975250 0.023750 0.019625
1.000000 0.000000 0.000000
0.000000 0.367500 0.213500
0.013300 0.367500 0.174725
0.202775 0.367500 0.174725
0.392250 0.367500 0.174725
0.538000 0.326250 0.135950
0.683750 0.285000 0.097175
0.829500 0.243750 0.058400
0.975250 0.202500 0.019625
1.000000 0.161250 0.000000
0.000000 0.505000 0.213500
0.000000 0.505000 0.135950
0.159050 0.505000 0.135950
0.348525 0.505000 0.135950
0.538000 0.505000 0.135950
0.683750 0.463750 0.097175
0.829500 0.422500 0.058400
0.975250 0.381250 0.019625
1.000000 0.340000 0.000000
0.000000 0.642500 0.213500
0.000000 0.642500 0.116562
0.115325 0.642500 0.097175
0.304800 0.642500 0.097175
0.494275 0.642500 0.097175
0.683750 0.642500 0.097175
0.829500 0.601250 0.058400
0.975250 0.560000 0.019625
1.000000 0.518750 0.000000
0.000000 0.780000 0.213500
0.000000 0.780000 0.110100
0.071600 0.780000 0.058400
0.261075 0.780000 0.058400
0.450550 0.780000 0.058400
0.640025 0.780000 0.058400
0.829500 0.780000 0.058400
0.975250 0.738750 0.019625
1.000000 0.697500 0.000000
0.000000 0.917500 0.213500
0.000000 0.917500 0.105792
0.027875 0.917500 0.019625
0.217350 0.917500 0.019625
0.406825 0.917500 0.019625
0.596300 0.917500 0.019625
0.785775 0.917500 0.019625
0.975250 0.917500 0.019625
1.000000 0.876250 0.000000
0.000000 1.000000 0.213500
0.000000 1.000000 0.102714
0.000000 1.000000 0.000000
0.173625 1.000000 0.000000
0.363100 1.000000 0.000000
0.552575 1.000000 0.000000
0.742050 1.000000 0.000000
0.931525 1.000000 0.000000
1.000000 1.000000 0.000000
0.000000 0.000000 0.342750
0.100750 0.000000 0.342750
0.246500 0.000000 0.342750
0.392250 0.000000 0.342750
0.538000 0.000000 0.342750
0.683750 0.000000 0.342750
0.829500 0.000000 0.342750
0.975250 0.000000 0.342750
1.000000 0.000000 0.342750
0.000000 0.092500 0.342750
0.013300 0.010000 0.342750
0.202775 0.010000 0.342750
0.392250 0.010000 0.342750
0.538000 0.000000 0.303975
0.683750 0.000000 0.278125
0.829500 0.000000 0.265200
0.975250 0.000000 0.256583
1.000000 0.000000 0.250428
0.000000 0.230000 0.342750
0.013300 0.188750 0.342750
0.202775 0.188750 0.342750
0.392250 0.188750 0.342750
0.538000 0.147500 0.303975
0.683750 0.106250 0.265200
0.829500 0.065000 0.226425
0.975250 0.023750 0.187650
1.000000 0.000000 0.148875
0.000000 0.367500 0.342750
0.013300 0.367500 0.342750
0.202775 0.367500 0.342750
0.392250 0.367500 0.342750
0.538000 0.326250 0.303975
0.683750 0.285000 0.265200
0.829500 0.243750 0.226425
0.975250 0.202500 0.187650
1.000000 0.161250 0.148875
0.000000 0.505000 0.342750
0.000000 0.505000 0.303975
0.159050 0.505000 0.303975
0.348525 0.505000 0.303975
0.538000 0.505000 0.303975
0.683750 0.463750 0.265200
0.829500 0.422500 0.226425
0.975250 0.381250 0.187650
1.000000 0.340000 0.148875
0.000000 0.642500 0.342750
0.000000 0.642500 0.278125
0.115325 0.642500 0.265200
0.304800 0.642500 0.265200
0.494275 0.642500 0.265200
0.683750 0.642500 0.265200
0.829500 0.601250 0.226425
0.975250 0.560000 0.187650
1.000000 0.518750 0.148875
0.000000 0.780000 0.342750
0.000000 0.780000 0.265200
0.071600 0.780000 0.226425
0.261075 0.780000 0.226425
0.450550 0.780000 0.226425
0.640025 0.780000 0.226425
0.829500 0.780000 0.226425
0.975250 0.738750 0.187650
1.000000 0.697500 0.148875
0.000000 0.917500 0.342750
0.000000 0.917500 0.256583
0.027875 0.917500 0.187650
0.217350 0.917500 0.187650
0.406825 0.917500 0.187650
0.596300 0.917500 0.187650
0.785775 0.917500 0.187650
0.975250 0.917500 0.187650
1.000000 0.876250 0.148875
0.000000 1.000000 0.342750
0.000000 1.000000 0.250428
0.000000 1.000000 0.148875
0.173625 1.000000 0.148875
0.363100 1.000000 0.148875
0.552575 1.000000 0.148875
0.742050 1.000000 0.148875
0.931525 1.000000 0.148875
1.000000 1.000000 0.148875
0.000000 0.000000 0.472000
0.100750 0.000000 0.472000
0.246500 0.000000 0.472000
0.392250 0.000000 0.472000
0.538000 0.000000 0.472000
0.683750 0.000000 0.472000
0.829500 0.000000 0.472000
0.975250 0.000000 0.472000
1.000000 0.000000 0.472000
0.000000 0.092500 0.472000
0.000000 0.000000 0.472000
0.159050 0.000000 0.472000
0.348525 0.000000 0.472000
0.538000 0.000000 0.472000
0.683750 0.000000 0.439688
0.829500 0.000000 0.420300
0.975250 0.000000 0.407375
1.000000 0.000000 0.398143
0.000000 0.230000 0.472000
0.000000 0.147500 0.472000
0.159050 0.147500 0.472000
0.348525 0.147500 0.472000
0.538000 0.147500 0.472000
0.683750 0.106250 0.433225
0.829500 0.065000 0.394450
0.975250 0.023750 0.355675
1.000000 0.000000 0.316900
0.000000 0.367500 0.472000
0.000000 0.326250 0.472000
0.159050 0.326250 0.472000
0.348525 0.326250 0.472000
0.538000 0.326250 0.472000
0.683750 0.285000 0.433225
0.829500 0.243750 0.394450
0.975250 0.202500 0.355675
1.000000 0.161250 0.316900
0.000000 0.505000 0.472000
0.000000 0.505000 0.472000
0.159050 0.505000 0.472000
0.348525 0.505000 0.472000
0.538000 0.505000 0.472000
0.683750 0.463750 0.433225
0.829500 0.422500 0.394450
0.975250 0.381250 0.355675
1.000000 0.340000 0.316900
0.000000 0.642500 0.472000
0.000000 0.642500 0.439688
0.115325 0.642500 0.433225
0.304800 0.642500 0.433225
0.494275 0.642500 0.433225
0.683750 0.642500 0.433225
0.829500 0.601250 0.394450
0.975250 0.560000 0.355675
1.000000 0.518750 0.316900
0.000000 0.780000 0.472000
0.000000 0.780000 0.420300
0.071600 0.780000 0.394450
0.261075 0.780000 0.394450
0.450550 0.780000 0.394450
0.640025 0.780000 0.394450
0.829500 0.780000 0.394450
0.975250 0.738750 0.355675
1.000000 0.697500 0.316900
0.000000 0.917500 0.472000
0.000000 0.917500 0.407375
0.027875 0.917500 0.355675
0.217350 0.917500 0.355675
0.406825 0.917500 0.355675
0.596300 0.917500 0.355675
0.785775 0.917500 0.355675
0.975250 0.917500 0.355675
1.000000 0.876250 0.316900
0.000000 1.000000 0.472000
0.000000 1.000000 0.398143
0.000000 1.000000 0.316900
0.173625 1.000000 0.316900
0.363100 1.000000 0.316900
0.552575 1.000000 0.316900
0.742050 1.000000 0.316900
0.931525 1.000000 0.316900
1.000000 1.000000 0.316900
0.000000 0.000000 0.601250
0.100750 0.000000 0.601250
0.246500 0.000000 0.601250
0.392250 0.000000 0.601250
0.538000 0.000000 0.601250
0.683750 0.000000 0.601250
0.829500 0.000000 0.601250
0.975250 0.000000 0.601250
1.000000 0.000000 0.601250
0.000000 0.092500 0.601250
0.000000 0.000000 0.601250
0.137188 0.000000 0.601250
0.319375 0.000000 0.601250
0.501563 0.000000 0.601250
0.683750 0.000000 0.601250
0.829500 0.000000 0.575400
0.975250 0.000000 0.558167
1.000000 0.000000 0.545857
0.000000 0.230000 0.601250
0.000000 0.126875 0.601250
0.115325 0.106250 0.601250
0.304800 0.106250 0.601250
0.494275 0.106250 0.601250
0.683750 0.106250 0.601250
0.829500 0.065000 0.562475
0.975250 0.023750 0.523700
1.000000 0.000000 0.484925
0.000000 0.367500 0.601250
0.000000 0.298750 0.601250
0.115325 0.285000 0.601250
0.304800 0.285000 0.601250
0.494275 0.285000 0.601250
0.683750 0.285000 0.601250
0.829500 0.243750 0.562475
0.975250 0.202500 0.523700
1.000000 0.161250 0.484925
0.000000 0.505000 0.601250
0.000000 0.470625 0.601250
0.115325 0.463750 0.601250
0.304800 0.463750 0.601250
0.494275 0.463750 0.601250
0.683750 0.463750 0.601250
0.829500 0.422500 0.562475
0.975250 0.381250 0.523700
1.000000 0.340000 0.484925
0.000000 0.642500 0.601250
0.000000 0.642500 0.601250
0.115325 0.642500 0.601250
0.304800 0.642500 0.601250
0.494275 0.642500 0.601250
0.683750 0.642500 0.601250
0.829500 0.601250 0.562475
0.975250 0.560000 0.523700
1.000000 0.518750 0.484925
0.000000 0.780000 0.601250
0.000000 0.780000 0.575400
0.071600 0.780000 0.562475
0.261075 0.780000 0.562475
0.450550 0.780000 0.562475
0.640025 0.780000 0.562475
0.829500 0.780000 0.562475
0.975250 0.738750 0.523700
1.000000 0.697500 0.484925
0.000000 0.917500 0.601250
0.000000 0.917500 0.558167
0.027875 0.917500 0.523700
0.217350 0.917500 0.523700
0.406825 0.917500 0.523700
0.596300 0.917500 0.523700
0.785775 0.917500 0.523700
0.975250 0.917500 0.523700
1.000000 0.876250 0.484925
0.000000 1.000000 0.601250
0.000000 1.000000 0.545857
0.000000 1.000000 0.484925
0.173625 1.000000 0.484925
0.363100 1.000000 0.484925
0.552575 1.000000 0.484925
0.742050 1.000000 0.484925
0.931525 1.000000 0.484925
1.000000 1.000000 0.484925
0.000000 0.000000 0.730500
0.100750 0.000000 0.730500
0.246500 0.000000 0.730500
0.392250 0.000000 0.730500
0.538000 0.000000 0.730500
0.683750 0.000000 0.730500
0.829500 0.000000 0.730500
0.975250 0.000000 0.730500
1.000000 0.000000 0.730500
0.000000 0.092500 0.730500
0.000000 0.000000 0.730500
0.129900 0.000000 0.730500
0.304800 0.000000 0.730500
0.479700 0.000000 0.730500
0.654600 0.000000 0.730500
0.829500 0.000000 0.730500
0.975250 0.000000 0.708958
1.000000 0.000000 0.693572
0.000000 0.230000 0.730500
0.000000 0.120000 0.730500
0.071600 0.065000 0.730500
0.261075 0.065000 0.730500
0.450550 0.065000 0.730500
0.640025 0.065000 0.730500
0.829500 0.065000 0.730500
0.975250 0.023750 0.691725
1.000000 0.000000 0.652950
0.000000 0.367500 0.730500
0.000000 0.285000 0.730500
0.071600 0.243750 0.730500
0.261075 0.243750 0.730500
0.450550 0.243750 0.730500
0.640025 0.243750 0.730500
0.829500 0.243750 0.730500
0.975250 0.202500 0.691725
1.000000 0.161250 0.652950
0.000000 0.505000 0.730500
0.000000 0.450000 0.730500
0.071600 0.422500 0.730500
0.261075 0.422500 0.730500
0.450550 0.422500 0.730500
0.640025 0.422500 0.730500
0.829500 0.422500 0.730500
0.975250 0.381250 0.691725
1.000000 0.340000 0.652950
0.000000 0.642500 0.730500
0.000000 0.615000 0.730500
0.071600 0.601250 0.730500
0.261075 0.601250 0.730500
0.450550 0.601250 0.730500
0.640025 0.601250 0.730500
0.829500 0.601250 0.730500
0.975250 0.560000 0.691725
1.000000 0.518750 0.652950
0.000000 0.780000 0.730500
0.000000 0.780000 0.730500
0.071600 0.780000 0.730500
0.261075 0.780000 0.730500
0.450550 0.780000 0.730500
0.640025 0.780000 0.730500
0.829500 0.780000 0.730500
0.975250 0.738750 0.691725
1.000000 0.697500 0.652950
0.000000 0.917500 0.730500
0.000000 0.917500 0.708958
0.027875 0.917500 0.691725
0.217350 0.917500 0.691725
0.406825 0.917500 0.691725
0.596300 0.917500 0.691725
0.785775 0.917500 0.691725
0.975250 0.917500 0.691725
1.000000 0.876250 0.652950
0.000000 1.000000 0.730500
0.000000 1.000000 0.693571
0.000000 1.000000 0.652950
0.173625 1.000000 0.652950
0.363100 1.000000 0.652950
0.552575 1.000000 0.652950
0.742050 1.000000 0.652950
0.931525 1.000000 0.652950
1.000000 1.000000 0.652950
0.000000 0.000000 0.859750
0.100750 0.000000 0.859750
0.246500 0.000000 0.859750
0.392250 0.000000 0.859750
0.538000 0.000000 0.859750
0.683750 0.000000 0.859750
0.829500 0.000000 0.859750
0.975250 0.000000 0.859750
1.000000 0.000000 0.859750
0.000000 0.092500 0.859750
0.000000 0.000000 0.859750
0.125042 0.000000 0.859750
0.295083 0.000000 0.859750
0.465125 0.000000 0.859750
0.635167 0.000000 0.859750
0.805208 0.000000 0.859750
0.975250 0.000000 0.859750
1.000000 0.000000 0.841286
0.000000 0.230000 0.859750
0.000000 0.115417 0.859750
0.027875 0.023750 0.859750
0.217350 0.023750 0.859750
0.406825 0.023750 0.859750
0.596300 0.023750 0.859750
0.785775 0.023750 0.859750
0.975250 0.023750 0.859750
1.000000 0.000000 0.820975
0.000000 0.367500 0.859750
0.000000 0.275833 0.859750
0.027875 0.202500 0.859750
0.217350 0.202500 0.859750
0.406825 0.202500 0.859750
0.596300 0.202500 0.859750
0.785775 0.202500 0.859750
0.975250 0.202500 0.859750
1.000000 0.161250 0.820975
0.000000 0.505000 0.859750
0.000000 0.436250 0.859750
0.027875 0.381250 0.859750
0.217350 0.381250 0.859750
0.406825 0.381250 0.859750
0.596300 0.381250 0.859750
0.785775 0.381250 0.859750
0.975250 0.381250 0.859750
1.000000 0.340000 0.820975
0.000000 0.642500 0.859750
0.000000 0.596667 0.859750
0.027875 0.560000 0.859750
0.217350 0.560000 0.859750
0.406825 0.560000 0.859750
0.596300 0.560000 0.859750
0.785775 0.560000 0.859750
0.975250 0.560000 0.859750
1.000000 0.518750 0.820975
0.000000 0.780000 0.859750
0.000000 0.757083 0.859750
0.027875 0.738750 0.859750
0.217350 0.738750 0.859750
0.406825 0.738750 0.859750
0.596300 0.738750 0.859750
0.785775 0.738750 0.859750
0.975250 0.738750 0.859750
1.000000 0.697500 0.820975
0.000000 0.917500 0.859750
0.000000 0.917500 0.859750
0.027875 0.917500 0.859750
0.217350 0.917500 0.859750
0.406825 0.917500 0.859750
0.596300 0.917500 0.859750
0.785775 0.917500 0.859750
0.975250 0.917500 0.859750
1.000000 0.876250 0.820975
0.000000 1.000000 0.859750
0.000000 1.000000 0.841286
0.000000 1.000000 0.820975
0.173625 1.000000 0.820975
0.363100 1.000000 0.820975
0.552575 1.000000 0.820975
0.742050 1.000000 0.820975
0.931525 1.000000 0.820975
1.000000 1.000000 0.820975
0.000000 0.000000 0.989000
0.100750 0.000000 0.989000
0.246500 0.000000 0.989000
0.392250 0.000000 0.989000
0.538000 0.000000 0.989000
0.683750 0.000000 0.989000
0.829500 0.000000 0.989000
0.975250 0.000000 0.989000
1.000000 0.000000 0.989000
0.000000 0.092500 0.989000
0.000000 0.000000 0.989000
0.121571 0.000000 0.989000
0.288143 0.000000 0.989000
0.454714 0.000000 0.989000
0.621286 0.000000 0.989000
0.787857 0.000000 0.989000
0.954429 0.000000 0.989000
1.000000 0.000000 0.989000
0.000000 0.230000 0.989000
0.000000 0.112143 0.989000
0.000000 0.000000 0.989000
0.173625 0.000000 0.989000
0.363100 0.000000 0.989000
0.552575 0.000000 0.989000
0.742050 0.000000 0.989000
0.931525 0.000000 0.989000
1.000000 0.000000 0.989000
0.000000 0.367500 0.989000
0.000000 0.269286 0.989000
0.000000 0.161250 0.989000
0.173625 0.161250 0.989000
0.363100 0.161250 0.989000
0.552575 0.161250 0.989000
0.742050 0.161250 0.989000
0.931525 0.161250 0.989000
1.000000 0.161250 0.989000
0.000000 0.505000 0.989000
0.000000 0.426428 0.989000
0.000000 0.340000 0.989000
0.173625 0.340000 0.989000
0.363100 0.340000 0.989000
0.552575 0.340000 0.989000
0.742050 0.340000 0.989000
0.931525 0.340000 0.989000
1.000000 0.340000 0.989000
0.000000 0.642500 0.989000
0.000000 0.583572 0.989000
0.000000 0.518750 0.989000
0.173625 0.518750 0.989000
0.363100 0.518750 0.989000
0.552575 0.518750 0.989000
0.742050 0.518750 0.989000
0.931525 0.518750 0.989000
1.000000 0.518750 0.989000
0.000000 0.780000 0.989000
0.000000 0.740714 0.989000
0.000000 0.697500 0.989000
0.173625 0.697500 0.989000
0.363100 0.697500 0.989000
0.552575 0.697500 0.989000
0.742050 0.697500 0.989000
0.931525 0.697500 0.989000
1.000000 0.697500 0.989000
0.000000 0.917500 0.989000
0.000000 0.897857 0.989000
0.000000 0.876250 0.989000
0.173625 0.876250 0.989000
0.363100 0.876250 0.989000
0.552575 0.876250 0.989000
0.742050 0.876250 0.989000
0.931525 0.876250 0.989000
1.000000 0.876250 0.989000
0.000000 1.000000 0.989000
0.000000 1.000000 0.989000
0.000000 1.000000 0.989000
0.173625 1.000000 0.989000
0.363100 1.000000 0.989000
0.552575 1.000000 0.989000
0.742050 1.000000 0.989000
0.931525 1.000000 0.989000
1.000000 1.000000 0.989000
