backend/luts/noir.cube
TITLE "Film Noir"
LUT_3D_SIZE 33
DOMAIN_MIN 0.0 0.0 0.0
DOMAIN_MAX 1.0 1.0 1.0
0.000000 0.000000 0.000000
0.000000 0.000000 0.000000
0.000000 0.000000 0.000000
0.000000 0.000000 0.000000
0.000000 0.000000 0.000000
0.000000 0.000000 0.000000
0.000000 0.000000 0.000000
0.000000 0.000000 0.000000
0.000000 0.000000 0.000000
0.000000 0.000000 0.000000
0.000000 0.000000 0.000000
0.000000 0.000000 0.000000
0.000000 0.000000 0.000000
0.006483 0.006483 0.006483
0.019097 0.019097 0.019097
0.031711 0.031711 0.031711
0.044325 0.044325 0.044325
0.056939 0.056939 0.056939
0.069553 0.069553 0.069553
0.082167 0.082167 0.082167
0.094781 0.094781 0.094781
0.107395 0.107395 0.107395
0.120009 0.120009 0.120009
0.132623 0.132623 0.132623
0.145237 0.145237 0.145237
0.157852 0.157852 0.157852
0.170466 0.170466 0.170466
0.183080 0.183080 0.183080
0.195694 0.195694 0.195694
0.208308 0.208308 0.208308
0.220922 0.220922 0.220922
0.233536 0.233536 0.233536
0.246150 0.246150 0.246150
0.000000 0.000000 0.000000
0.000000 0.000000 0.000000
0.000000 0.000000 0.000000
0.000000 0.000000 0.000000
0.000000 0.000000 0.000000
0.000000 0.000000 0.000000
0.000000 0.000000 0.000000
0.000000 0.000000 0.000000
0.000000 0.000000 0.000000
0.000000 0.000000 0.000000
0.000000 0.000000 0.000000
0.006019 0.006019 0.006019
0.018633 0.018633 0.018633
0.031247 0.031247 0.031247
0.043861 0.043861 0.043861
0.056475 0.056475 0.056475
0.069089 0.069089 0.069089
0.081703 0.081703 0.081703
0.094317 0.094317 0.094317
0.106931 0.106931 0.106931
0.119545 0.119545 0.119545
0.132159 0.132159 0.132159
0.144773 0.144773 0.144773
0.157387 0.157387 0.157387
0.170002 0.170002 0.170002
0.182616 0.182616 0.182616
0.195230 0.195230 0.195230
0.207844 0.207844 0.207844
0.220458 0.220458 0.220458
0.233072 0.233072 0.233072
0.245686 0.245686 0.245686
0.258300 0.258300 0.258300
0.270914 0.270914 0.270914
0.000000 0.000000 0.000000
0.000000 0.000000 0.000000
0.000000 0.000000 0.000000
0.000000 0.000000 0.000000
0.000000 0.000000 0.000000
0.000000 0.000000 0.000000
0.000000 0.000000 0.000000
0.000000 0.000000 0.000000
0.000000 0.000000 0.000000
0.005555 0.005555 0.005555
0.018169 0.018169 0.018169
0.030783 0.030783 0.030783
0.043397 0.043397 0.043397
0.056011 0.056011 0.056011
0.068625 0.068625 0.068625
0.081239 0.081239 0.081239
0.093853 0.093853 0.093853
0.106467 0.106467 0.106467
0.119081 0.119081 0.119081
0.131695 0.131695 0.131695
0.144309 0.144309 0.144309
0.156923 0.156923 0.156923
0.169537 0.169537 0.169537
0.182152 0.182152 0.182152
0.194766 0.194766 0.194766
0.207380 0.207380 0.207380
0.219994 0.219994 0.219994
0.232608 0.232608 0.232608
0.245222 0.245222 0.245222
0.257836 0.257836 0.257836
0.270450 0.270450 0.270450
0.283064 0.283064 0.283064
0.295678 0.295678 0.295678
0.000000 0.000000 0.000000
0.000000 0.000000 0.000000
0.000000 0.000000 0.000000
0.000000 0.000000 0.000000
0.000000 0.000000 0.000000
0.000000 0.000000 0.000000
0.000000 0.000000 0.000000
0.005091 0.005091 0.005091
0.017705 0.017705 0.017705
0.030319 0.030319 0.030319
0.042933 0.042933 0.042933
0.055547 0.055547 0.055547
0.068161 0.068161 0.068161
0.080775 0.080775 0.080775
0.093389 0.093389 0.093389
0.106003 0.106003 0.106003
0.118617 0.118617 0.118617
0.131231 0.131231 0.131231
0.143845 0.143845 0.143845
0.156459 0.156459 0.156459
0.169073 0.169073 0.169073
0.181688 0.181688 0.181688
0.194302 0.194302 0.194302
0.206916 0.206916 0.206916
0.219530 0.219530 0.219530
0.232144 0.232144 0.232144
0.244758 0.244758 0.244758
0.257372 0.257372 0.257372
0.269986 0.269986 0.269986
0.282600 0.282600 0.282600
0.295214 0.295214 0.295214
0.307828 0.307828 0.307828
0.320442 0.320442 0.320442
0.000000 0.000000 0.000000
0.000000 0.000000 0.000000
0.000000 0.000000 0.000000
0.000000 0.000000 0.000000
0.000000 0.000000 0.000000
0.004627 0.004627 0.004627
0.017241 0.017241 0.017241
0.029855 0.029855 0.029855
0.042469 0.042469 0.042469
0.055083 0.055083 0.055083
0.067697 0.067697 0.067697
0.080311 0.080311 0.080311
0.092925 0.092925 0.092925
0.105539 0.105539 0.105539
0.118153 0.118153 0.118153
0.130767 0.130767 0.130767
0.143381 0.143381 0.143381
0.155995 0.155995 0.155995
0.168609 0.168609 0.168609
0.181223 0.181223 0.181223
0.193837 0.193837 0.193837
0.206452 0.206452 0.206452
0.219066 0.219066 0.219066
0.231680 0.231680 0.231680
0.244294 0.244294 0.244294
0.256908 0.256908 0.256908
0.269522 0.269522 0.269522
0.282136 0.282136 0.282136
0.294750 0.294750 0.294750
0.307364 0.307364 0.307364
0.319978 0.319978 0.319978
0.332592 0.332592 0.332592
0.345206 0.345206 0.345206
0.000000 0.000000 0.000000
0.000000 0.000000 0.000000
0.000000 0.000000 0.000000
0.004162 0.004162 0.004162
0.016777 0.016777 0.016777
0.029391 0.029391 0.029391
0.042005 0.042005 0.042005
0.054619 0.054619 0.054619
0.067233 0.067233 0.067233
0.079847 0.079847 0.079847
0.092461 0.092461 0.092461
0.105075 0.105075 0.105075
0.117689 0.117689 0.117689
0.130303 0.130303 0.130303
0.142917 0.142917 0.142917
0.155531 0.155531 0.155531
0.168145 0.168145 0.168145
0.180759 0.180759 0.180759
0.193373 0.193373 0.193373
0.205987 0.205987 0.205987
0.218602 0.218602 0.218602
0.231216 0.231216 0.231216
0.243830 0.243830 0.243830
0.256444 0.256444 0.256444
0.269058 0.269058 0.269058
0.281672 0.281672 0.281672
0.294286 0.294286 0.294286
0.306900 0.306900 0.306900
0.319514 0.319514 0.319514
0.332128 0.332128 0.332128
0.344742 0.344742 0.344742
0.357356 0.357356 0.357356
0.369970 0.369970 0.369970
0.000000 0.000000 0.000000
0.003698 0.003698 0.003698
0.016312 0.016312 0.016312
0.028927 0.028927 0.028927
0.041541 0.041541 0.041541
0.054155 0.054155 0.054155
0.066769 0.066769 0.066769
0.079383 0.079383 0.079383
0.091997 0.091997 0.091997
0.104611 0.104611 0.104611
0.117225 0.117225 0.117225
0.129839 0.129839 0.129839
0.142453 0.142453 0.142453
0.155067 0.155067 0.155067
0.167681 0.167681 0.167681
0.180295 0.180295 0.180295
0.192909 0.192909 0.192909
0.205523 0.205523 0.205523
0.218138 0.218138 0.218138
0.230752 0.230752 0.230752
0.243366 0.243366 0.243366
0.255980 0.255980 0.255980
0.268594 0.268594 0.268594
0.281208 0.281208 0.281208
0.293822 0.293822 0.293822
0.306436 0.306436 0.306436
0.319050 0.319050 0.319050
0.331664 0.331664 0.331664
0.344278 0.344278 0.344278
0.356892 0.356892 0.356892
0.369506 0.369506 0.369506
0.382120 0.382120 0.382120
0.394734 0.394734 0.394734
0.015848 0.015848 0.015848
0.028462 0.028462 0.028462
0.041077 0.041077 0.041077
0.053691 0.053691 0.053691
0.066305 0.066305 0.066305
0.078919 0.078919 0.078919
0.091533 0.091533 0.091533
0.104147 0.104147 0.104147
0.116761 0.116761 0.116761
0.129375 0.129375 0.129375
0.141989 0.141989 0.141989
0.154603 0.154603 0.154603
0.167217 0.167217 0.167217
0.179831 0.179831 0.179831
0.192445 0.192445 0.192445
0.205059 0.205059 0.205059
0.217673 0.217673 0.217673
0.230287 0.230287 0.230287
0.242902 0.242902 0.242902
0.255516 0.255516 0.255516
0.268130 0.268130 0.268130
0.280744 0.280744 0.280744
0.293358 0.293358 0.293358
0.305972 0.305972 0.305972
0.318586 0.318586 0.318586
0.331200 0.331200 0.331200
0.343814 0.343814 0.343814
0.356428 0.356428 0.356428
0.369042 0.369042 0.369042
0.381656 0.381656 0.381656
0.394270 0.394270 0.394270
0.406884 0.406884 0.406884
0.419498 0.419498 0.419498
0.040612 0.040612 0.040612
0.053227 0.053227 0.053227
0.065841 0.065841 0.065841
0.078455 0.078455 0.078455
0.091069 0.091069 0.091069
0.103683 0.103683 0.103683
0.116297 0.116297 0.116297
0.128911 0.128911 0.128911
0.141525 0.141525 0.141525
0.154139 0.154139 0.154139
0.166753 0.166753 0.166753
0.179367 0.179367 0.179367
0.191981 0.191981 0.191981
0.204595 0.204595 0.204595
0.217209 0.217209 0.217209
0.229823 0.229823 0.229823
0.242437 0.242437 0.242437
0.255052 0.255052 0.255052
0.267666 0.267666 0.267666
0.280280 0.280280 0.280280
0.292894 0.292894 0.292894
0.305508 0.305508 0.305508
0.318122 0.318122 0.318122
0.330736 0.330736 0.330736
0.343350 0.343350 0.343350
0.355964 0.355964 0.355964
0.368578 0.368578 0.368578
0.381192 0.381192 0.381192
0.393806 0.393806 0.393806
0.406420 0.406420 0.406420
0.419034 0.419034 0.419034
0.431648 0.431648 0.431648
0.444263 0.444263 0.444263
0.065377 0.065377 0.065377
0.077991 0.077991 0.077991
0.090605 0.090605 0.090605
0.103219 0.103219 0.103219
0.115833 0.115833 0.115833
0.128447 0.128447 0.128447
0.141061 0.141061 0.141061
0.153675 0.153675 0.153675
0.166289 0.166289 0.166289
0.178903 0.178903 0.178903
0.191517 0.191517 0.191517
0.204131 0.204131 0.204131
0.216745 0.216745 0.216745
0.229359 0.229359 0.229359
0.241973 0.241973 0.241973
0.254587 0.254587 0.254587
0.267202 0.267202 0.267202
0.279816 0.279816 0.279816
0.292430 0.292430 0.292430
0.305044 0.305044 0.305044
0.317658 0.317658 0.317658
0.330272 0.330272 0.330272
0.342886 0.342886 0.342886
0.355500 0.355500 0.355500
0.368114 0.368114 0.368114
0.380728 0.380728 0.380728
0.393342 0.393342 0.393342
0.405956 0.405956 0.405956
0.418570 0.418570 0.418570
0.431184 0.431184 0.431184
0.443798 0.443798 0.443798
0.456412 0.456412 0.456412
0.469027 0.469027 0.469027
0.090141 0.090141 0.090141
0.102755 0.102755 0.102755
0.115369 0.115369 0.115369
0.127983 0.127983 0.127983
0.140597 0.140597 0.140597
0.153211 0.153211 0.153211
0.165825 0.165825 0.165825
0.178439 0.178439 0.178439
0.191053 0.191053 0.191053
0.203667 0.203667 0.203667
0.216281 0.216281 0.216281
0.228895 0.228895 0.228895
0.241509 0.241509 0.241509
0.254123 0.254123 0.254123
0.266737 0.266737 0.266737
0.279352 0.279352 0.279352
0.291966 0.291966 0.291966
0.304580 0.304580 0.304580
0.317194 0.317194 0.317194
0.329808 0.329808 0.329808
0.342422 0.342422 0.342422
0.355036 0.355036 0.355036
0.367650 0.367650 0.367650
0.380264 0.380264 0.380264
0.392878 0.392878 0.392878
0.405492 0.405492 0.405492
0.418106 0.418106 0.418106
0.430720 0.430720 0.430720
0.443334 0.443334 0.443334
0.455948 0.455948 0.455948
0.468563 0.468563 0.468563
0.481177 0.481177 0.481177
0.493791 0.493791 0.493791
0.114905 0.114905 0.114905
0.127519 0.127519 0.127519
0.140133 0.140133 0.140133
0.152747 0.152747 0.152747
0.165361 0.165361 0.165361
0.177975 0.177975 0.177975
0.190589 0.190589 0.190589
0.203203 0.203203 0.203203
0.215817 0.215817 0.215817
0.228431 0.228431 0.228431
0.241045 0.241045 0.241045
0.253659 0.253659 0.253659
0.266273 0.266273 0.266273
0.278888 0.278888 0.278888
0.291502 0.291502 0.291502
0.304116 0.304116 0.304116
0.316730 0.316730 0.316730
0.329344 0.329344 0.329344
0.341958 0.341958 0.341958
0.354572 0.354572 0.354572
0.367186 0.367186 0.367186
0.379800 0.379800 0.379800
0.392414 0.392414 0.392414
0.405028 0.405028 0.405028
0.417642 0.417642 0.417642
0.430256 0.430256 0.430256
0.442870 0.442870 0.442870
0.455484 0.455484 0.455484
0.468098 0.468098 0.468098
0.480713 0.480713 0.480713
0.493327 0.493327 0.493327
0.505941 0.505941 0.505941
0.518555 0.518555 0.518555
0.139669 0.139669 0.139669
0.152283 0.152283 0.152283
0.164897 0.164897 0.164897
0.177511 0.177511 0.177511
0.190125 0.190125 0.190125
0.202739 0.202739 0.202739
0.215353 0.215353 0.215353
0.227967 0.227967 0.227967
0.240581 0.240581 0.240581
0.253195 0.253195 0.253195
0.265809 0.265809 0.265809
0.278423 0.278423 0.278423
0.291037 0.291037 0.291037
0.303652 0.303652 0.303652
0.316266 0.316266 0.316266
0.328880 0.328880 0.328880
0.341494 0.341494 0.341494
0.354108 0.354108 0.354108
0.366722 0.366722 0.366722
0.379336 0.379336 0.379336
0.391950 0.391950 0.391950
0.404564 0.404564 0.404564
0.417178 0.417178 0.417178
0.429792 0.429792 0.429792
0.442406 0.442406 0.442406
0.455020 0.455020 0.455020
0.467634 0.467634 0.467634
0.480248 0.480248 0.480248
0.492863 0.492863 0.492863
0.505477 0.505477 0.505477
0.518091 0.518091 0.518091
0.530705 0.530705 0.530705
0.543319 0.543319 0.543319
0.164433 0.164433 0.164433
0.177047 0.177047 0.177047
0.189661 0.189661 0.189661
0.202275 0.202275 0.202275
0.214889 0.214889 0.214889
0.227503 0.227503 0.227503
0.240117 0.240117 0.240117
0.252731 0.252731 0.252731
0.265345 0.265345 0.265345
0.277959 0.277959 0.277959
0.290573 0.290573 0.290573
0.303187 0.303187 0.303187
0.315802 0.315802 0.315802
0.328416 0.328416 0.328416
0.341030 0.341030 0.341030
0.353644 0.353644 0.353644
0.366258 0.366258 0.366258
0.378872 0.378872 0.378872
0.391486 0.391486 0.391486
0.404100 0.404100 0.404100
0.416714 0.416714 0.416714
0.429328 0.429328 0.429328
0.441942 0.441942 0.441942
0.454556 0.454556 0.454556
0.467170 0.467170 0.467170
0.479784 0.479784 0.479784
0.492398 0.492398 0.492398
0.505013 0.505013 0.505013
0.517627 0.517627 0.517627
0.530241 0.530241 0.530241
0.542855 0.542855 0.542855
0.555469 0.555469 0.555469
0.568083 0.568083 0.568083
0.189197 0.189197 0.189197
0.201811 0.201811 0.201811
0.214425 0.214425 0.214425
0.227039 0.227039 0.227039
0.239653 0.239653 0.239653
0.252267 0.252267 0.252267
0.264881 0.264881 0.264881
0.277495 0.277495 0.277495
0.290109 0.290109 0.290109
0.302723 0.302723 0.302723
0.315338 0.315338 0.315338
0.327952 0.327952 0.327952
0.340566 0.340566 0.340566
0.353180 0.353180 0.353180
0.365794 0.365794 0.365794
0.378408 0.378408 0.378408
0.391022 0.391022 0.391022
0.403636 0.403636 0.403636
0.416250 0.416250 0.416250
0.428864 0.428864 0.428864
0.441478 0.441478 0.441478
0.454092 0.454092 0.454092
0.466706 0.466706 0.466706
0.479320 0.479320 0.479320
0.491934 0.491934 0.491934
0.504548 0.504548 0.504548
0.517163 0.517163 0.517163
0.529777 0.529777 0.529777
0.542391 0.542391 0.542391
0.555005 0.555005 0.555005
0.567619 0.567619 0.567619
0.580233 0.580233 0.580233
0.592847 0.592847 0.592847
0.213961 0.213961 0.213961
0.226575 0.226575 0.226575
0.239189 0.239189 0.239189
0.251803 0.251803 0.251803
0.264417 0.264417 0.264417
0.277031 0.277031 0.277031
0.289645 0.289645 0.289645
0.302259 0.302259 0.302259
0.314873 0.314873 0.314873
0.327488 0.327488 0.327488
0.340102 0.340102 0.340102
0.352716 0.352716 0.352716
0.365330 0.365330 0.365330
0.377944 0.377944 0.377944
0.390558 0.390558 0.390558
0.403172 0.403172 0.403172
0.415786 0.415786 0.415786
0.428400 0.428400 0.428400
0.441014 0.441014 0.441014
0.453628 0.453628 0.453628
0.466242 0.466242 0.466242
0.478856 0.478856 0.478856
0.491470 0.491470 0.491470
0.504084 0.504084 0.504084
0.516698 0.516698 0.516698
0.529313 0.529313 0.529313
0.541927 0.541927 0.541927
0.554541 0.554541 0.554541
0.567155 0.567155 0.567155
0.579769 0.579769 0.579769
0.592383 0.592383 0.592383
0.604997 0.604997 0.604997
0.617611 0.617611 0.617611
0.238725 0.238725 0.238725
0.251339 0.251339 0.251339
0.263953 0.263953 0.263953
0.276567 0.276567 0.276567
0.289181 0.289181 0.289181
0.301795 0.301795 0.301795
0.314409 0.314409 0.314409
0.327023 0.327023 0.327023
0.339638 0.339638 0.339638
0.352252 0.352252 0.352252
0.364866 0.364866 0.364866
0.377480 0.377480 0.377480
0.390094 0.390094 0.390094
0.402708 0.402708 0.402708
0.415322 0.415322 0.415322
0.427936 0.427936 0.427936
0.440550 0.440550 0.440550
0.453164 0.453164 0.453164
0.465778 0.465778 0.465778
0.478392 0.478392 0.478392
0.491006 0.491006 0.491006
0.503620 0.503620 0.503620
0.516234 0.516234 0.516234
0.528848 0.528848 0.528848
0.541463 0.541463 0.541463
0.554077 0.554077 0.554077
0.566691 0.566691 0.566691
0.579305 0.579305 0.579305
0.591919 0.591919 0.591919
0.604533 0.604533 0.604533
0.617147 0.617147 0.617147
0.629761 0.629761 0.629761
0.642375 0.642375 0.642375
0.263489 0.263489 0.263489
0.276103 0.276103 0.276103
0.288717 0.288717 0.288717
0.301331 0.301331 0.301331
0.313945 0.313945 0.313945
0.326559 0.326559 0.326559
0.339173 0.339173 0.339173
0.351788 0.351788 0.351788
0.364402 0.364402 0.364402
0.377016 0.377016 0.377016
0.389630 0.389630 0.389630
0.402244 0.402244 0.402244
0.414858 0.414858 0.414858
0.427472 0.427472 0.427472
0.440086 0.440086 0.440086
0.452700 0.452700 0.452700
0.465314 0.465314 0.465314
0.477928 0.477928 0.477928
0.490542 0.490542 0.490542
0.503156 0.503156 0.503156
0.515770 0.515770 0.515770
0.528384 0.528384 0.528384
0.540998 0.540998 0.540998
0.553612 0.553612 0.553612
0.566227 0.566227 0.566227
0.578841 0.578841 0.578841
0.591455 0.591455 0.591455
0.604069 0.604069 0.604069
0.616683 0.616683 0.616683
0.629297 0.629297 0.629297
0.641911 0.641911 0.641911
0.654525 0.654525 0.654525
0.667139 0.667139 0.667139
0.288253 0.288253 0.288253
0.300867 0.300867 0.300867
0.313481 0.313481 0.313481
0.326095 0.326095 0.326095
0.338709 0.338709 0.338709
0.351323 0.351323 0.351323
0.363937 0.363937 0.363937
0.376552 0.376552 0.376552
0.389166 0.389166 0.389166
0.401780 0.401780 0.401780
0.414394 0.414394 0.414394
0.427008 0.427008 0.427008
0.439622 0.439622 0.439622
0.452236 0.452236 0.452236
0.464850 0.464850 0.464850
0.477464 0.477464 0.477464
0.490078 0.490078 0.490078
0.502692 0.502692 0.502692
0.515306 0.515306 0.515306
0.527920 0.527920 0.527920
0.540534 0.540534 0.540534
0.553148 0.553148 0.553148
0.565763 0.565763 0.565763
0.578377 0.578377 0.578377
0.590991 0.590991 0.590991
0.603605 0.603605 0.603605
0.616219 0.616219 0.616219
0.628833 0.628833 0.628833
0.641447 0.641447 0.641447
0.654061 0.654061 0.654061
0.666675 0.666675 0.666675
0.679289 0.679289 0.679289
0.691903 0.691903 0.691903
0.313017 0.313017 0.313017
0.325631 0.325631 0.325631
0.338245 0.338245 0.338245
0.350859 0.350859 0.350859
0.363473 0.363473 0.363473
0.376087 0.376087 0.376087
0.388702 0.388702 0.388702
0.401316 0.401316 0.401316
0.413930 0.413930 0.413930
0.426544 0.426544 0.426544
0.439158 0.439158 0.439158
0.451772 0.451772 0.451772
0.464386 0.464386 0.464386
0.477000 0.477000 0.477000
0.489614 0.489614 0.489614
0.502228 0.502228 0.502228
0.514842 0.514842 0.514842
0.527456 0.527456 0.527456
0.540070 0.540070 0.540070
0.552684 0.552684 0.552684
0.565298 0.565298 0.565298
0.577912 0.577912 0.577912
0.590527 0.590527 0.590527
0.603141 0.603141 0.603141
0.615755 0.615755 0.615755
0.628369 0.628369 0.628369
0.640983 0.640983 0.640983
0.653597 0.653597 0.653597
0.666211 0.666211 0.666211
0.678825 0.678825 0.678825
0.691439 0.691439 0.691439
0.704053 0.704053 0.704053
0.716667 0.716667 0.716667
0.337781 0.337781 0.337781
0.350395 0.350395 0.350395
0.363009 0.363009 0.363009
0.375623 0.375623 0.375623
0.388238 0.388238 0.388238
0.400852 0.400852 0.400852
0.413466 0.413466 0.413466
0.426080 0.426080 0.426080
0.438694 0.438694 0.438694
0.451308 0.451308 0.451308
0.463922 0.463922 0.463922
0.476536 0.476536 0.476536
0.489150 0.489150 0.489150
0.501764 0.501764 0.501764
0.514378 0.514378 0.514378
0.526992 0.526992 0.526992
0.539606 0.539606 0.539606
0.552220 0.552220 0.552220
0.564834 0.564834 0.564834
0.577448 0.577448 0.577448
0.590062 0.590062 0.590062
0.602677 0.602677 0.602677
0.615291 0.615291 0.615291
0.627905 0.627905 0.627905
0.640519 0.640519 0.640519
0.653133 0.653133 0.653133
0.665747 0.665747 0.665747
0.678361 0.678361 0.678361
0.690975 0.690975 0.690975
0.703589 0.703589 0.703589
0.716203 0.716203 0.716203
0.728817 0.728817 0.728817
0.741431 0.741431 0.741431
0.362545 0.362545 0.362545
0.375159 0.375159 0.375159
0.387773 0.387773 0.387773
0.400388 0.400388 0.400388
0.413002 0.413002 0.413002
0.425616 0.425616 0.425616
0.438230 0.438230 0.438230
0.450844 0.450844 0.450844
0.463458 0.463458 0.463458
0.476072 0.476072 0.476072
0.488686 0.488686 0.488686
0.501300 0.501300 0.501300
0.513914 0.513914 0.513914
0.526528 0.526528 0.526528
0.539142 0.539142 0.539142
0.551756 0.551756 0.551756
0.564370 0.564370 0.564370
0.576984 0.576984 0.576984
0.589598 0.589598 0.589598
0.602212 0.602212 0.602212
0.614827 0.614827 0.614827
0.627441 0.627441 0.627441
0.640055 0.640055 0.640055
0.652669 0.652669 0.652669
0.665283 0.665283 0.665283
0.677897 0.677897 0.677897
0.690511 0.690511 0.690511
0.703125 0.703125 0.703125
0.715739 0.715739 0.715739
0.728353 0.728353 0.728353
0.740967 0.740967 0.740967
0.753581 0.753581 0.753581
0.766195 0.766195 0.766195
0.387309 0.387309 0.387309
0.399923 0.399923 0.399923
0.412538 0.412538 0.412538
0.425152 0.425152 0.425152
0.437766 0.437766 0.437766
0.450380 0.450380 0.450380
0.462994 0.462994 0.462994
0.475608 0.475608 0.475608
0.488222 0.488222 0.488222
0.500836 0.500836 0.500836
0.513450 0.513450 0.513450
0.526064 0.526064 0.526064
0.538678 0.538678 0.538678
0.551292 0.551292 0.551292
0.563906 0.563906 0.563906
0.576520 0.576520 0.576520
0.589134 0.589134 0.589134
0.601748 0.601748 0.601748
0.614363 0.614363 0.614363
0.626977 0.626977 0.626977
0.639591 0.639591 0.639591
0.652205 0.652205 0.652205
0.664819 0.664819 0.664819
0.677433 0.677433 0.677433
0.690047 0.690047 0.690047
0.702661 0.702661 0.702661
0.715275 0.715275 0.715275
0.727889 0.727889 0.727889
0.740503 0.740503 0.740503
0.753117 0.753117 0.753117
0.765731 0.765731 0.765731
0.778345 0.778345 0.778345
0.790959 0.790959 0.790959
0.412073 0.412073 0.412073
0.424688 0.424688 0.424688
0.437302 0.437302 0.437302
0.449916 0.449916 0.449916
0.462530 0.462530 0.462530
0.475144 0.475144 0.475144
0.487758 0.487758 0.487758
0.500372 0.500372 0.500372
0.512986 0.512986 0.512986
0.525600 0.525600 0.525600
0.538214 0.538214 0.538214
0.550828 0.550828 0.550828
0.563442 0.563442 0.563442
0.576056 0.576056 0.576056
0.588670 0.588670 0.588670
0.601284 0.601284 0.601284
0.613898 0.613898 0.613898
0.626513 0.626513 0.626513
0.639127 0.639127 0.639127
0.651741 0.651741 0.651741
0.664355 0.664355 0.664355
0.676969 0.676969 0.676969
0.689583 0.689583 0.689583
0.702197 0.702197 0.702197
0.714811 0.714811 0.714811
0.727425 0.727425 0.727425
0.740039 0.740039 0.740039
0.752653 0.752653 0.752653
0.765267 0.765267 0.765267
0.777881 0.777881 0.777881
0.790495 0.790495 0.790495
0.803109 0.803109 0.803109
0.815723 0.815723 0.815723
0.436838 0.436838 0.436838
0.449452 0.449452 0.449452
0.462066 0.462066 0.462066
0.474680 0.474680 0.474680
0.487294 0.487294 0.487294
0.499908 0.499908 0.499908
0.512522 0.512522 0.512522
0.525136 0.525136 0.525136
0.537750 0.537750 0.537750
0.550364 0.550364 0.550364
0.562978 0.562978 0.562978
0.575592 0.575592 0.575592
0.588206 0.588206 0.588206
0.600820 0.600820 0.600820
0.613434 0.613434 0.613434
0.626048 0.626048 0.626048
0.638663 0.638663 0.638663
0.651277 0.651277 0.651277
0.663891 0.663891 0.663891
0.676505 0.676505 0.676505
0.689119 0.689119 0.689119
0.701733 0.701733 0.701733
0.714347 0.714347 0.714347
0.726961 0.726961 0.726961
0.739575 0.739575 0.739575
0.752189 0.752189 0.752189
0.764803 0.764803 0.764803
0.777417 0.777417 0.777417
0.790031 0.790031 0.790031
0.802645 0.802645 0.802645
0.815259 0.815259 0.815259
0.827873 0.827873 0.827873
0.840487 0.840487 0.840487
0.461602 0.461602 0.461602
0.474216 0.474216 0.474216
0.486830 0.486830 0.486830
0.499444 0.499444 0.499444
0.512058 0.512058 0.512058
0.524672 0.524672 0.524672
0.537286 0.537286 0.537286
0.549900 0.549900 0.549900
0.562514 0.562514 0.562514
0.575128 0.575128 0.575128
0.587742 0.587742 0.587742
0.600356 0.600356 0.600356
0.612970 0.612970 0.612970
0.625584 0.625584 0.625584
0.638198 0.638198 0.638198
0.650813 0.650813 0.650813
0.663427 0.663427 0.663427
0.676041 0.676041 0.676041
0.688655 0.688655 0.688655
0.701269 0.701269 0.701269
0.713883 0.713883 0.713883
0.726497 0.726497 0.726497
0.739111 0.739111 0.739111
0.751725 0.751725 0.751725
0.764339 0.764339 0.764339
0.776953 0.776953 0.776953
0.789567 0.789567 0.789567
0.802181 0.802181 0.802181
0.814795 0.814795 0.814795
0.827409 0.827409 0.827409
0.840023 0.840023 0.840023
0.852638 0.852638 0.852638
0.865252 0.865252 0.865252
0.486366 0.486366 0.486366
0.498980 0.498980 0.498980
0.511594 0.511594 0.511594
0.524208 0.524208 0.524208
0.536822 0.536822 0.536822
0.549436 0.549436 0.549436
0.562050 0.562050 0.562050
0.574664 0.574664 0.574664
0.587278 0.587278 0.587278
0.599892 0.599892 0.599892
0.612506 0.612506 0.612506
0.625120 0.625120 0.625120
0.637734 0.637734 0.637734
0.650348 0.650348 0.650348
0.662962 0.662962 0.662962
0.675577 0.675577 0.675577
0.688191 0.688191 0.688191
0.700805 0.700805 0.700805
0.713419 0.713419 0.713419
0.726033 0.726033 0.726033
0.738647 0.738647 0.738647
0.751261 0.751261 0.751261
0.763875 0.763875 0.763875
0.776489 0.776489 0.776489
0.789103 0.789103 0.789103
0.801717 0.801717 0.801717
0.814331 0.814331 0.814331
