backend/luts/noir.cube
TITLE "Film Noir"
LUT_3D_SIZE 5
DOMAIN_MIN 0.0 0.0 0.0
DOMAIN_MAX 1.0 1.0 1.0
0.000000 0.000000 0.000000
0.000000 0.000000 0.000000
0.044325 0.044325 0.044325
0.145237 0.145237 0.145237
0.246150 0.246150 0.246150
0.040612 0.040612 0.040612
0.141525 0.141525 0.141525
0.242437 0.242437 0.242437
0.343350 0.343350 0.343350
0.444263 0.444263 0.444263
0.238725 0.238725 0.238725
0.339638 0.339638 0.339638
0.440550 0.440550 0.440550
0.541463 0.541463 0.541463
0.642375 0.642375 0.642375
0.436838 0.436838 0.436838
0.537750 0.537750 0.537750
0.638663 0.638663 0.638663
0.739575 0.739575 0.739575
0.840487 0.840487 0.840487
0.634950 0.634950 0.634950
0.735862 0.735862 0.735862
0.836775 0.836775 0.836775
0.937688 0.937688 0.937688
1.000000 1.000000 1.000000
0.000000 0.000000 0.000000
0.000000 0.000000 0.000000
0.082800 0.082800 0.082800
0.183712 0.183712 0.183712
0.284625 0.284625 0.284625
0.079087 0.079087 0.079087
0.180000 0.180000 0.180000
0.280912 0.280912 0.280912
0.381825 0.381825 0.381825
0.482737 0.482737 0.482737
0.277200 0.277200 0.277200
0.378112 0.378112 0.378112
0.479025 0.479025 0.479025
0.579938 0.579938 0.579938
0.680850 0.680850 0.680850
0.475313 0.475313 0.475313
0.576225 0.576225 0.576225
0.677137 0.677137 0.677137
0.778050 0.778050 0.778050
0.878963 0.878963 0.878963
0.673425 0.673425 0.673425
0.774338 0.774338 0.774338
0.875250 0.875250 0.875250
0.976162 0.976162 0.976162
1.000000 1.000000 1.000000
0.000000 0.000000 0.000000
0.020362 0.020362 0.020362
0.121275 0.121275 0.121275
0.222188 0.222188 0.222188
0.323100 0.323100 0.323100
0.117563 0.117563 0.117563
0.218475 0.218475 0.218475
0.319387 0.319387 0.319387
0.420300 0.420300 0.420300
0.521212 0.521212 0.521212
0.315675 0.315675 0.315675
0.416588 0.416588 0.416588
0.517500 0.517500 0.517500
0.618412 0.618412 0.618412
0.719325 0.719325 0.719325
0.513788 0.513788 0.513788
0.614700 0.614700 0.614700
0.715612 0.715612 0.715612
0.816525 0.816525 0.816525
0.917437 0.917437 0.917437
0.711900 0.711900 0.711900
0.812813 0.812813 0.812813
0.913725 0.913725 0.913725
1.000000 1.000000 1.000000
1.000000 1.000000 1.000000
0.000000 0.000000 0.000000
0.058838 0.058838 0.058838
0.159750 0.159750 0.159750
0.260662 0.260662 0.260662
0.361575 0.361575 0.361575
0.156038 0.156038 0.156038
0.256950 0.256950 0.256950
0.357862 0.357862 0.357862
0.458775 0.458775 0.458775
0.559687 0.559687 0.559687
0.354150 0.354150 0.354150
0.455063 0.455063 0.455063
0.555975 0.555975 0.555975
0.656888 0.656888 0.656888
0.757800 0.757800 0.757800
0.552263 0.552263 0.552263
0.653175 0.653175 0.653175
0.754088 0.754088 0.754088
0.855000 0.855000 0.855000
0.955913 0.955913 0.955913
0.750375 0.750375 0.750375
0.851288 0.851288 0.851288
0.952200 0.952200 0.952200
1.000000 1.000000 1.000000
1.000000 1.000000 1.000000
0.000000 0.000000 0.000000
0.097313 0.097313 0.097313
0.198225 0.198225 0.198225
0.299137 0.299137 0.299137
0.400050 0.400050 0.400050
0.194512 0.194512 0.194512
0.295425 0.295425 0.295425
0.396337 0.396337 0.396337
0.497250 0.497250 0.497250
0.598163 0.598163 0.598163
0.392625 0.392625 0.392625
0.493538 0.493538 0.493538
0.594450 0.594450 0.594450
0.695363 0.695363 0.695363
0.796275 0.796275 0.796275
0.590738 0.590738 0.590738
0.691650 0.691650 0.691650
0.792563 0.792563 0.792563
0.893475 0.893475 0.893475
0.994388 0.994388 0.994388
0.788850 0.788850 0.788850
0.889763 0.889763 0.889763
0.990675 0.990675 0.990675
1.000000 1.000000 1.000000
1.000000 1.000000 1.000000
