backend/luts/noir.cube
TITLE "Film Noir"
LUT_3D_SIZE 9
DOMAIN_MIN 0.0 0.0 0.0
DOMAIN_MAX 1.0 1.0 1.0
0.000000 0.000000 0.000000
0.000000 0.000000 0.000000
0.000000 0.000000 0.000000
0.000000 0.000000 0.000000
0.044325 0.044325 0.044325
0.094781 0.094781 0.094781
0.145237 0.145237 0.145237
0.195694 0.195694 0.195694
0.246150 0.246150 0.246150
0.000000 0.000000 0.000000
0.000000 0.000000 0.000000
0.042469 0.042469 0.042469
0.092925 0.092925 0.092925
0.143381 0.143381 0.143381
0.193837 0.193837 0.193837
0.244294 0.244294 0.244294
0.294750 0.294750 0.294750
0.345206 0.345206 0.345206
0.040612 0.040612 0.040612
0.091069 0.091069 0.091069
0.141525 0.141525 0.141525
0.191981 0.191981 0.191981
0.242437 0.242437 0.242437
0.292894 0.292894 0.292894
0.343350 0.343350 0.343350
0.393806 0.393806 0.393806
0.444263 0.444263 0.444263
0.139669 0.139669 0.139669
0.190125 0.190125 0.190125
0.240581 0.240581 0.240581
0.291037 0.291037 0.291037
0.341494 0.341494 0.341494
0.391950 0.391950 0.391950
0.442406 0.442406 0.442406
0.492863 0.492863 0.492863
0.543319 0.543319 0.543319
0.238725 0.238725 0.238725
0.289181 0.289181 0.289181
0.339638 0.339638 0.339638
0.390094 0.390094 0.390094
0.440550 0.440550 0.440550
0.491006 0.491006 0.491006
0.541463 0.541463 0.541463
0.591919 0.591919 0.591919
0.642375 0.642375 0.642375
0.337781 0.337781 0.337781
0.388238 0.388238 0.388238
0.438694 0.438694 0.438694
0.489150 0.489150 0.489150
0.539606 0.539606 0.539606
0.590062 0.590062 0.590062
0.640519 0.640519 0.640519
0.690975 0.690975 0.690975
0.741431 0.741431 0.741431
0.436838 0.436838 0.436838
0.487294 0.487294 0.487294
0.537750 0.537750 0.537750
0.588206 0.588206 0.588206
0.638663 0.638663 0.638663
0.689119 0.689119 0.689119
0.739575 0.739575 0.739575
0.790031 0.790031 0.790031
0.840487 0.840487 0.840487
0.535894 0.535894 0.535894
0.586350 0.586350 0.586350
0.636806 0.636806 0.636806
0.687263 0.687263 0.687263
0.737719 0.737719 0.737719
0.788175 0.788175 0.788175
0.838631 0.838631 0.838631
0.889088 0.889088 0.889088
0.939544 0.939544 0.939544
0.634950 0.634950 0.634950
0.685406 0.685406 0.685406
0.735862 0.735862 0.735862
0.786319 0.786319 0.786319
0.836775 0.836775 0.836775
0.887231 0.887231 0.887231
0.937688 0.937688 0.937688
0.988144 0.988144 0.988144
1.000000 1.000000 1.000000
0.000000 0.000000 0.000000
0.000000 0.000000 0.000000
0.000000 0.000000 0.000000
0.013106 0.013106 0.013106
0.063562 0.063562 0.063562
0.114019 0.114019 0.114019
0.164475 0.164475 0.164475
0.214931 0.214931 0.214931
0.265388 0.265388 0.265388
0.000000 0.000000 0.000000
0.011250 0.011250 0.011250
0.061706 0.061706 0.061706
0.112163 0.112163 0.112163
0.162619 0.162619 0.162619
0.213075 0.213075 0.213075
0.263531 0.263531 0.263531
0.313987 0.313987 0.313987
0.364444 0.364444 0.364444
0.059850 0.059850 0.059850
0.110306 0.110306 0.110306
0.160763 0.160763 0.160763
0.211219 0.211219 0.211219
0.261675 0.261675 0.261675
0.312131 0.312131 0.312131
0.362588 0.362588 0.362588
0.413044 0.413044 0.413044
0.463500 0.463500 0.463500
0.158906 0.158906 0.158906
0.209363 0.209363 0.209363
0.259819 0.259819 0.259819
0.310275 0.310275 0.310275
0.360731 0.360731 0.360731
0.411188 0.411188 0.411188
0.461644 0.461644 0.461644
0.512100 0.512100 0.512100
0.562556 0.562556 0.562556
0.257963 0.257963 0.257963
0.308419 0.308419 0.308419
0.358875 0.358875 0.358875
0.409331 0.409331 0.409331
0.459788 0.459788 0.459788
0.510244 0.510244 0.510244
0.560700 0.560700 0.560700
0.611156 0.611156 0.611156
0.661612 0.661612 0.661612
0.357019 0.357019 0.357019
0.407475 0.407475 0.407475
0.457931 0.457931 0.457931
0.508388 0.508388 0.508388
0.558844 0.558844 0.558844
0.609300 0.609300 0.609300
0.659756 0.659756 0.659756
0.710212 0.710212 0.710212
0.760669 0.760669 0.760669
0.456075 0.456075 0.456075
0.506531 0.506531 0.506531
0.556987 0.556987 0.556987
0.607444 0.607444 0.607444
0.657900 0.657900 0.657900
0.708356 0.708356 0.708356
0.758812 0.758812 0.758812
0.809269 0.809269 0.809269
0.859725 0.859725 0.859725
0.555131 0.555131 0.555131
0.605587 0.605587 0.605587
0.656044 0.656044 0.656044
0.706500 0.706500 0.706500
0.756956 0.756956 0.756956
0.807413 0.807413 0.807413
0.857869 0.857869 0.857869
0.908325 0.908325 0.908325
0.958781 0.958781 0.958781
0.654188 0.654188 0.654188
0.704644 0.704644 0.704644
0.755100 0.755100 0.755100
0.805556 0.805556 0.805556
0.856013 0.856013 0.856013
0.906469 0.906469 0.906469
0.956925 0.956925 0.956925
1.000000 1.000000 1.000000
1.000000 1.000000 1.000000
0.000000 0.000000 0.000000
0.000000 0.000000 0.000000
0.000000 0.000000 0.000000
0.032344 0.032344 0.032344
0.082800 0.082800 0.082800
0.133256 0.133256 0.133256
0.183712 0.183712 0.183712
0.234169 0.234169 0.234169
0.284625 0.284625 0.284625
0.000000 0.000000 0.000000
0.030488 0.030488 0.030488
0.080944 0.080944 0.080944
0.131400 0.131400 0.131400
0.181856 0.181856 0.181856
0.232312 0.232312 0.232312
0.282769 0.282769 0.282769
0.333225 0.333225 0.333225
0.383681 0.383681 0.383681
0.079087 0.079087 0.079087
0.129544 0.129544 0.129544
0.180000 0.180000 0.180000
0.230456 0.230456 0.230456
0.280912 0.280912 0.280912
0.331369 0.331369 0.331369
0.381825 0.381825 0.381825
0.432281 0.432281 0.432281
0.482737 0.482737 0.482737
0.178144 0.178144 0.178144
0.228600 0.228600 0.228600
0.279056 0.279056 0.279056
0.329512 0.329512 0.329512
0.379969 0.379969 0.379969
0.430425 0.430425 0.430425
0.480881 0.480881 0.480881
0.531338 0.531338 0.531338
0.581794 0.581794 0.581794
0.277200 0.277200 0.277200
0.327656 0.327656 0.327656
0.378112 0.378112 0.378112
0.428569 0.428569 0.428569
0.479025 0.479025 0.479025
0.529481 0.529481 0.529481
0.579938 0.579938 0.579938
0.630394 0.630394 0.630394
0.680850 0.680850 0.680850
0.376256 0.376256 0.376256
0.426712 0.426712 0.426712
0.477169 0.477169 0.477169
0.527625 0.527625 0.527625
0.578081 0.578081 0.578081
0.628538 0.628538 0.628538
0.678994 0.678994 0.678994
0.729450 0.729450 0.729450
0.779906 0.779906 0.779906
0.475313 0.475313 0.475313
0.525769 0.525769 0.525769
0.576225 0.576225 0.576225
0.626681 0.626681 0.626681
0.677137 0.677137 0.677137
0.727594 0.727594 0.727594
0.778050 0.778050 0.778050
0.828506 0.828506 0.828506
0.878963 0.878963 0.878963
0.574369 0.574369 0.574369
0.624825 0.624825 0.624825
0.675281 0.675281 0.675281
0.725738 0.725738 0.725738
0.776194 0.776194 0.776194
0.826650 0.826650 0.826650
0.877106 0.877106 0.877106
0.927563 0.927563 0.927563
0.978019 0.978019 0.978019
0.673425 0.673425 0.673425
0.723881 0.723881 0.723881
0.774338 0.774338 0.774338
0.824794 0.824794 0.824794
0.875250 0.875250 0.875250
0.925706 0.925706 0.925706
0.976162 0.976162 0.976162
1.000000 1.000000 1.000000
1.000000 1.000000 1.000000
0.000000 0.000000 0.000000
0.000000 0.000000 0.000000
0.001125 0.001125 0.001125
0.051581 0.051581 0.051581
0.102038 0.102038 0.102038
0.152494 0.152494 0.152494
0.202950 0.202950 0.202950
0.253406 0.253406 0.253406
0.303863 0.303863 0.303863
0.000000 0.000000 0.000000
0.049725 0.049725 0.049725
0.100181 0.100181 0.100181
0.150638 0.150638 0.150638
0.201094 0.201094 0.201094
0.251550 0.251550 0.251550
0.302006 0.302006 0.302006
0.352462 0.352462 0.352462
0.402919 0.402919 0.402919
0.098325 0.098325 0.098325
0.148781 0.148781 0.148781
0.199238 0.199238 0.199238
0.249694 0.249694 0.249694
0.300150 0.300150 0.300150
0.350606 0.350606 0.350606
0.401062 0.401062 0.401062
0.451519 0.451519 0.451519
0.501975 0.501975 0.501975
0.197381 0.197381 0.197381
0.247837 0.247837 0.247837
0.298294 0.298294 0.298294
0.348750 0.348750 0.348750
0.399206 0.399206 0.399206
0.449663 0.449663 0.449663
0.500119 0.500119 0.500119
0.550575 0.550575 0.550575
0.601031 0.601031 0.601031
0.296438 0.296438 0.296438
0.346894 0.346894 0.346894
0.397350 0.397350 0.397350
0.447806 0.447806 0.447806
0.498263 0.498263 0.498263
0.548719 0.548719 0.548719
0.599175 0.599175 0.599175
0.649631 0.649631 0.649631
0.700087 0.700087 0.700087
0.395494 0.395494 0.395494
0.445950 0.445950 0.445950
0.496406 0.496406 0.496406
0.546862 0.546862 0.546862
0.597319 0.597319 0.597319
0.647775 0.647775 0.647775
0.698231 0.698231 0.698231
0.748688 0.748688 0.748688
0.799144 0.799144 0.799144
0.494550 0.494550 0.494550
0.545006 0.545006 0.545006
0.595463 0.595463 0.595463
0.645919 0.645919 0.645919
0.696375 0.696375 0.696375
0.746831 0.746831 0.746831
0.797288 0.797288 0.797288
0.847744 0.847744 0.847744
0.898200 0.898200 0.898200
0.593606 0.593606 0.593606
0.644063 0.644063 0.644063
0.694519 0.694519 0.694519
0.744975 0.744975 0.744975
0.795431 0.795431 0.795431
0.845888 0.845888 0.845888
0.896344 0.896344 0.896344
0.946800 0.946800 0.946800
0.997256 0.997256 0.997256
0.692663 0.692663 0.692663
0.743119 0.743119 0.743119
0.793575 0.793575 0.793575
0.844031 0.844031 0.844031
0.894488 0.894488 0.894488
0.944944 0.944944 0.944944
0.995400 0.995400 0.995400
1.000000 1.000000 1.000000
1.000000 1.000000 1.000000
0.000000 0.000000 0.000000
0.000000 0.000000 0.000000
0.020362 0.020362 0.020362
0.070819 0.070819 0.070819
0.121275 0.121275 0.121275
0.171731 0.171731 0.171731
0.222188 0.222188 0.222188
0.272644 0.272644 0.272644
0.323100 0.323100 0.323100
0.018506 0.018506 0.018506
0.068962 0.068962 0.068962
0.119419 0.119419 0.119419
0.169875 0.169875 0.169875
0.220331 0.220331 0.220331
0.270788 0.270788 0.270788
0.321244 0.321244 0.321244
0.371700 0.371700 0.371700
0.422156 0.422156 0.422156
0.117563 0.117563 0.117563
0.168019 0.168019 0.168019
0.218475 0.218475 0.218475
0.268931 0.268931 0.268931
0.319387 0.319387 0.319387
0.369844 0.369844 0.369844
0.420300 0.420300 0.420300
0.470756 0.470756 0.470756
0.521212 0.521212 0.521212
0.216619 0.216619 0.216619
0.267075 0.267075 0.267075
0.317531 0.317531 0.317531
0.367988 0.367988 0.367988
0.418444 0.418444 0.418444
0.468900 0.468900 0.468900
0.519356 0.519356 0.519356
0.569812 0.569812 0.569812
0.620269 0.620269 0.620269
0.315675 0.315675 0.315675
0.366131 0.366131 0.366131
0.416588 0.416588 0.416588
0.467044 0.467044 0.467044
0.517500 0.517500 0.517500
0.567956 0.567956 0.567956
0.618412 0.618412 0.618412
0.668869 0.668869 0.668869
0.719325 0.719325 0.719325
0.414731 0.414731 0.414731
0.465188 0.465188 0.465188
0.515644 0.515644 0.515644
0.566100 0.566100 0.566100
0.616556 0.616556 0.616556
0.667012 0.667012 0.667012
0.717469 0.717469 0.717469
0.767925 0.767925 0.767925
0.818381 0.818381 0.818381
0.513788 0.513788 0.513788
0.564244 0.564244 0.564244
0.614700 0.614700 0.614700
0.665156 0.665156 0.665156
0.715612 0.715612 0.715612
0.766069 0.766069 0.766069
0.816525 0.816525 0.816525
0.866981 0.866981 0.866981
0.917437 0.917437 0.917437
0.612844 0.612844 0.612844
0.663300 0.663300 0.663300
0.713756 0.713756 0.713756
0.764212 0.764212 0.764212
0.814669 0.814669 0.814669
0.865125 0.865125 0.865125
0.915581 0.915581 0.915581
0.966038 0.966038 0.966038
1.000000 1.000000 1.000000
0.711900 0.711900 0.711900
0.762356 0.762356 0.762356
0.812813 0.812813 0.812813
0.863269 0.863269 0.863269
0.913725 0.913725 0.913725
0.964181 0.964181 0.964181
1.000000 1.000000 1.000000
1.000000 1.000000 1.000000
1.000000 1.000000 1.000000
0.000000 0.000000 0.000000
0.000000 0.000000 0.000000
0.039600 0.039600 0.039600
0.090056 0.090056 0.090056
0.140512 0.140512 0.140512
0.190969 0.190969 0.190969
0.241425 0.241425 0.241425
0.291881 0.291881 0.291881
0.342337 0.342337 0.342337
0.037744 0.037744 0.037744
0.088200 0.088200 0.088200
0.138656 0.138656 0.138656
0.189112 0.189112 0.189112
0.239569 0.239569 0.239569
0.290025 0.290025 0.290025
0.340481 0.340481 0.340481
0.390937 0.390937 0.390937
0.441394 0.441394 0.441394
0.136800 0.136800 0.136800
0.187256 0.187256 0.187256
0.237713 0.237713 0.237713
0.288169 0.288169 0.288169
0.338625 0.338625 0.338625
0.389081 0.389081 0.389081
0.439537 0.439537 0.439537
0.489994 0.489994 0.489994
0.540450 0.540450 0.540450
0.235856 0.235856 0.235856
0.286312 0.286312 0.286312
0.336769 0.336769 0.336769
0.387225 0.387225 0.387225
0.437681 0.437681 0.437681
0.488138 0.488138 0.488138
0.538594 0.538594 0.538594
0.589050 0.589050 0.589050
0.639506 0.639506 0.639506
0.334913 0.334913 0.334913
0.385369 0.385369 0.385369
0.435825 0.435825 0.435825
0.486281 0.486281 0.486281
0.536738 0.536738 0.536738
0.587194 0.587194 0.587194
0.637650 0.637650 0.637650
0.688106 0.688106 0.688106
0.738562 0.738562 0.738562
0.433969 0.433969 0.433969
0.484425 0.484425 0.484425
0.534881 0.534881 0.534881
0.585338 0.585338 0.585338
0.635794 0.635794 0.635794
0.686250 0.686250 0.686250
0.736706 0.736706 0.736706
0.787163 0.787163 0.787163
0.837619 0.837619 0.837619
0.533025 0.533025 0.533025
0.583481 0.583481 0.583481
0.633938 0.633938 0.633938
0.684394 0.684394 0.684394
0.734850 0.734850 0.734850
0.785306 0.785306 0.785306
0.835763 0.835763 0.835763
0.886219 0.886219 0.886219
0.936675 0.936675 0.936675
0.632081 0.632081 0.632081
0.682538 0.682538 0.682538
0.732994 0.732994 0.732994
0.783450 0.783450 0.783450
0.833906 0.833906 0.833906
0.884363 0.884363 0.884363
0.934819 0.934819 0.934819
0.985275 0.985275 0.985275
1.000000 1.000000 1.000000
0.731138 0.731138 0.731138
0.781594 0.781594 0.781594
0.832050 0.832050 0.832050
0.882506 0.882506 0.882506
0.932963 0.932963 0.932963
0.983419 0.983419 0.983419
1.000000 1.000000 1.000000
1.000000 1.000000 1.000000
1.000000 1.000000 1.000000
0.000000 0.000000 0.000000
0.008381 0.008381 0.008381
0.058838 0.058838 0.058838
0.109294 0.109294 0.109294
0.159750 0.159750 0.159750
0.210206 0.210206 0.210206
0.260662 0.260662 0.260662
0.311119 0.311119 0.311119
0.361575 0.361575 0.361575
0.056981 0.056981 0.056981
0.107438 0.107438 0.107438
0.157894 0.157894 0.157894
0.208350 0.208350 0.208350
0.258806 0.258806 0.258806
0.309263 0.309263 0.309263
0.359719 0.359719 0.359719
0.410175 0.410175 0.410175
0.460631 0.460631 0.460631
0.156038 0.156038 0.156038
0.206494 0.206494 0.206494
0.256950 0.256950 0.256950
0.307406 0.307406 0.307406
0.357862 0.357862 0.357862
0.408319 0.408319 0.408319
0.458775 0.458775 0.458775
0.509231 0.509231 0.509231
0.559687 0.559687 0.559687
0.255094 0.255094 0.255094
0.305550 0.305550 0.305550
0.356006 0.356006 0.356006
0.406462 0.406462 0.406462
0.456919 0.456919 0.456919
0.507375 0.507375 0.507375
0.557831 0.557831 0.557831
0.608288 0.608288 0.608288
0.658744 0.658744 0.658744
0.354150 0.354150 0.354150
0.404606 0.404606 0.404606
0.455063 0.455063 0.455063
0.505519 0.505519 0.505519
0.555975 0.555975 0.555975
0.606431 0.606431 0.606431
0.656888 0.656888 0.656888
0.707344 0.707344 0.707344
0.757800 0.757800 0.757800
0.453206 0.453206 0.453206
0.503663 0.503663 0.503663
0.554119 0.554119 0.554119
0.604575 0.604575 0.604575
0.655031 0.655031 0.655031
0.705487 0.705487 0.705487
0.755944 0.755944 0.755944
0.806400 0.806400 0.806400
0.856856 0.856856 0.856856
0.552263 0.552263 0.552263
0.602719 0.602719 0.602719
0.653175 0.653175 0.653175
0.703631 0.703631 0.703631
0.754088 0.754088 0.754088
0.804544 0.804544 0.804544
0.855000 0.855000 0.855000
0.905456 0.905456 0.905456
0.955913 0.955913 0.955913
0.651319 0.651319 0.651319
0.701775 0.701775 0.701775
0.752231 0.752231 0.752231
0.802688 0.802688 0.802688
0.853144 0.853144 0.853144
0.903600 0.903600 0.903600
0.954056 0.954056 0.954056
1.000000 1.000000 1.000000
1.000000 1.000000 1.000000
0.750375 0.750375 0.750375
0.800831 0.800831 0.800831
0.851288 0.851288 0.851288
0.901744 0.901744 0.901744
0.952200 0.952200 0.952200
1.000000 1.000000 1.000000
1.000000 1.000000 1.000000
1.000000 1.000000 1.000000
1.000000 1.000000 1.000000
0.000000 0.000000 0.000000
0.027619 0.027619 0.027619
0.078075 0.078075 0.078075
0.128531 0.128531 0.128531
0.178988 0.178988 0.178988
0.229444 0.229444 0.229444
0.279900 0.279900 0.279900
0.330356 0.330356 0.330356
0.380813 0.380813 0.380813
0.076219 0.076219 0.076219
0.126675 0.126675 0.126675
0.177131 0.177131 0.177131
0.227588 0.227588 0.227588
0.278044 0.278044 0.278044
0.328500 0.328500 0.328500
0.378956 0.378956 0.378956
0.429412 0.429412 0.429412
0.479869 0.479869 0.479869
0.175275 0.175275 0.175275
0.225731 0.225731 0.225731
0.276188 0.276188 0.276188
0.326644 0.326644 0.326644
0.377100 0.377100 0.377100
0.427556 0.427556 0.427556
0.478012 0.478012 0.478012
0.528469 0.528469 0.528469
0.578925 0.578925 0.578925
0.274331 0.274331 0.274331
0.324787 0.324787 0.324787
0.375244 0.375244 0.375244
0.425700 0.425700 0.425700
0.476156 0.476156 0.476156
0.526613 0.526613 0.526613
0.577069 0.577069 0.577069
0.627525 0.627525 0.627525
0.677981 0.677981 0.677981
0.373387 0.373387 0.373387
0.423844 0.423844 0.423844
0.474300 0.474300 0.474300
0.524756 0.524756 0.524756
0.575212 0.575212 0.575212
0.625669 0.625669 0.625669
0.676125 0.676125 0.676125
0.726581 0.726581 0.726581
0.777037 0.777037 0.777037
0.472444 0.472444 0.472444
0.522900 0.522900 0.522900
0.573356 0.573356 0.573356
0.623812 0.623812 0.623812
0.674269 0.674269 0.674269
0.724725 0.724725 0.724725
0.775181 0.775181 0.775181
0.825637 0.825637 0.825637
0.876094 0.876094 0.876094
0.571500 0.571500 0.571500
0.621956 0.621956 0.621956
0.672412 0.672412 0.672412
0.722869 0.722869 0.722869
0.773325 0.773325 0.773325
0.823781 0.823781 0.823781
0.874237 0.874237 0.874237
0.924694 0.924694 0.924694
0.975150 0.975150 0.975150
0.670556 0.670556 0.670556
0.721012 0.721012 0.721012
0.771469 0.771469 0.771469
0.821925 0.821925 0.821925
0.872381 0.872381 0.872381
0.922837 0.922837 0.922837
0.973294 0.973294 0.973294
1.000000 1.000000 1.000000
1.000000 1.000000 1.000000
0.769612 0.769612 0.769612
0.820069 0.820069 0.820069
0.870525 0.870525 0.870525
0.920981 0.920981 0.920981
0.971438 0.971438 0.971438
1.000000 1.000000 1.000000
1.000000 1.000000 1.000000
1.000000 1.000000 1.000000
1.000000 1.000000 1.000000
0.000000 0.000000 0.000000
0.046856 0.046856 0.046856
0.097313 0.097313 0.097313
0.147769 0.147769 0.147769
0.198225 0.198225 0.198225
0.248681 0.248681 0.248681
0.299137 0.299137 0.299137
0.349594 0.349594 0.349594
0.400050 0.400050 0.400050
0.095456 0.095456 0.095456
0.145913 0.145913 0.145913
0.196369 0.196369 0.196369
0.246825 0.246825 0.246825
0.297281 0.297281 0.297281
0.347737 0.347737 0.347737
0.398194 0.398194 0.398194
0.448650 0.448650 0.448650
0.499106 0.499106 0.499106
0.194512 0.194512 0.194512
0.244969 0.244969 0.244969
0.295425 0.295425 0.295425
0.345881 0.345881 0.345881
0.396337 0.396337 0.396337
0.446794 0.446794 0.446794
0.497250 0.497250 0.497250
0.547706 0.547706 0.547706
0.598163 0.598163 0.598163
0.293569 0.293569 0.293569
0.344025 0.344025 0.344025
0.394481 0.394481 0.394481
0.444937 0.444937 0.444937
0.495394 0.495394 0.495394
0.545850 0.545850 0.545850
0.596306 0.596306 0.596306
0.646763 0.646763 0.646763
0.697219 0.697219 0.697219
0.392625 0.392625 0.392625
0.443081 0.443081 0.443081
0.493538 0.493538 0.493538
0.543994 0.543994 0.543994
0.594450 0.594450 0.594450
0.644906 0.644906 0.644906
0.695363 0.695363 0.695363
0.745819 0.745819 0.745819
0.796275 0.796275 0.796275
0.491681 0.491681 0.491681
0.542138 0.542138 0.542138
0.592594 0.592594 0.592594
0.643050 0.643050 0.643050
0.693506 0.693506 0.693506
0.743963 0.743963 0.743963
0.794419 0.794419 0.794419
0.844875 0.844875 0.844875
0.895331 0.895331 0.895331
0.590738 0.590738 0.590738
0.641194 0.641194 0.641194
0.691650 0.691650 0.691650
0.742106 0.742106 0.742106
0.792563 0.792563 0.792563
0.843019 0.843019 0.843019
0.893475 0.893475 0.893475
0.943931 0.943931 0.943931
0.994388 0.994388 0.994388
0.689794 0.689794 0.689794
0.740250 0.740250 0.740250
0.790706 0.790706 0.790706
0.841163 0.841163 0.841163
0.891619 0.891619 0.891619
0.942075 0.942075 0.942075
0.992531 0.992531 0.992531
1.000000 1.000000 1.000000
1.000000 1.000000 1.000000
0.788850 0.788850 0.788850
0.839306 0.839306 0.839306
0.889763 0.889763 0.889763
0.940219 0.940219 0.940219
0.990675 0.990675 0.990675
1.000000 1.000000 1.000000
1.000000 1.000000 1.000000
1.000000 1.000000 1.000000
1.000000 1.000000 1.000000
