backend/luts/sepia.cube
TITLE "Sepia"
LUT_3D_SIZE 33
DOMAIN_MIN 0.0 0.0 0.0
DOMAIN_MAX 1.0 1.0 1.0
0.000000 0.000000 0.000000
0.012281 0.010906 0.008500
0.024563 0.021813 0.017000
0.036844 0.032719 0.025500
0.049125 0.043625 0.034000
0.061406 0.054531 0.042500
0.073688 0.065438 0.051000
0.085969 0.076344 0.059500
0.098250 0.087250 0.068000
0.110531 0.098156 0.076500
0.122813 0.109063 0.085000
0.135094 0.119969 0.093500
0.147375 0.130875 0.102000
0.159656 0.141781 0.110500
0.171937 0.152688 0.119000
0.184219 0.163594 0.127500
0.196500 0.174500 0.136000
0.208781 0.185406 0.144500
0.221063 0.196313 0.153000
0.233344 0.207219 0.161500
0.245625 0.218125 0.170000
0.257906 0.229031 0.178500
0.270187 0.239937 0.187000
0.282469 0.250844 0.195500
0.294750 0.261750 0.204000
0.307031 0.272656 0.212500
0.319313 0.283563 0.221000
0.331594 0.294469 0.229500
0.343875 0.305375 0.238000
0.356156 0.316281 0.246500
0.368437 0.327188 0.255000
0.380719 0.338094 0.263500
0.393000 0.349000 0.272000
0.024031 0.021437 0.016687
0.036312 0.032344 0.025187
0.048594 0.043250 0.033688
0.060875 0.054156 0.042188
0.073156 0.065063 0.050687
0.085437 0.075969 0.059188
0.097719 0.086875 0.067688
0.110000 0.097781 0.076187
0.122281 0.108688 0.084688
0.134563 0.119594 0.093188
0.146844 0.130500 0.101688
0.159125 0.141406 0.110188
0.171406 0.152313 0.118688
0.183688 0.163219 0.127188
0.195969 0.174125 0.135688
0.208250 0.185031 0.144188
0.220531 0.195937 0.152688
0.232813 0.206844 0.161187
0.245094 0.217750 0.169688
0.257375 0.228656 0.178188
0.269656 0.239562 0.186688
0.281938 0.250469 0.195188
0.294219 0.261375 0.203688
0.306500 0.272281 0.212188
0.318781 0.283188 0.220688
0.331062 0.294094 0.229188
0.343344 0.305000 0.237688
0.355625 0.315906 0.246188
0.367906 0.326813 0.254688
0.380188 0.337719 0.263188
0.392469 0.348625 0.271688
0.404750 0.359531 0.280188
0.417031 0.370438 0.288688
0.048062 0.042875 0.033375
0.060344 0.053781 0.041875
0.072625 0.064687 0.050375
0.084906 0.075594 0.058875
0.097188 0.086500 0.067375
0.109469 0.097406 0.075875
0.121750 0.108313 0.084375
0.134031 0.119219 0.092875
0.146313 0.130125 0.101375
0.158594 0.141031 0.109875
0.170875 0.151937 0.118375
0.183156 0.162844 0.126875
0.195438 0.173750 0.135375
0.207719 0.184656 0.143875
0.220000 0.195563 0.152375
0.232281 0.206469 0.160875
0.244563 0.217375 0.169375
0.256844 0.228281 0.177875
0.269125 0.239188 0.186375
0.281406 0.250094 0.194875
0.293687 0.261000 0.203375
0.305969 0.271906 0.211875
0.318250 0.282813 0.220375
0.330531 0.293719 0.228875
0.342813 0.304625 0.237375
0.355094 0.315531 0.245875
0.367375 0.326438 0.254375
0.379656 0.337344 0.262875
0.391937 0.348250 0.271375
0.404219 0.359156 0.279875
0.416500 0.370063 0.288375
0.428781 0.380969 0.296875
0.441063 0.391875 0.305375
0.072094 0.064313 0.050062
0.084375 0.075219 0.058563
0.096656 0.086125 0.067062
0.108938 0.097031 0.075562
0.121219 0.107937 0.084063
0.133500 0.118844 0.092563
0.145781 0.129750 0.101063
0.158062 0.140656 0.109563
0.170344 0.151563 0.118063
0.182625 0.162469 0.126563
0.194906 0.173375 0.135063
0.207188 0.184281 0.143562
0.219469 0.195188 0.152063
0.231750 0.206094 0.160563
0.244031 0.217000 0.169062
0.256312 0.227906 0.177563
0.268594 0.238813 0.186063
0.280875 0.249719 0.194562
0.293156 0.260625 0.203063
0.305438 0.271531 0.211563
0.317719 0.282438 0.220063
0.330000 0.293344 0.228563
0.342281 0.304250 0.237063
0.354563 0.315156 0.245563
0.366844 0.326063 0.254063
0.379125 0.336969 0.262563
0.391406 0.347875 0.271063
0.403688 0.358781 0.279563
0.415969 0.369687 0.288063
0.428250 0.380594 0.296563
0.440531 0.391500 0.305063
0.452813 0.402406 0.313563
0.465094 0.413312 0.322063
0.096125 0.085750 0.066750
0.108406 0.096656 0.075250
0.120687 0.107562 0.083750
0.132969 0.118469 0.092250
0.145250 0.129375 0.100750
0.157531 0.140281 0.109250
0.169813 0.151188 0.117750
0.182094 0.162094 0.126250
0.194375 0.173000 0.134750
0.206656 0.183906 0.143250
0.218938 0.194813 0.151750
0.231219 0.205719 0.160250
0.243500 0.216625 0.168750
0.255781 0.227531 0.177250
0.268063 0.238438 0.185750
0.280344 0.249344 0.194250
0.292625 0.260250 0.202750
0.304906 0.271156 0.211250
0.317188 0.282063 0.219750
0.329469 0.292969 0.228250
0.341750 0.303875 0.236750
0.354031 0.314781 0.245250
0.366313 0.325687 0.253750
0.378594 0.336594 0.262250
0.390875 0.347500 0.270750
0.403156 0.358406 0.279250
0.415438 0.369313 0.287750
0.427719 0.380219 0.296250
0.440000 0.391125 0.304750
0.452281 0.402031 0.313250
0.464563 0.412938 0.321750
0.476844 0.423844 0.330250
0.489125 0.434750 0.338750
0.120156 0.107187 0.083437
0.132437 0.118094 0.091937
0.144719 0.129000 0.100437
0.157000 0.139906 0.108937
0.169281 0.150812 0.117437
0.181562 0.161719 0.125937
0.193844 0.172625 0.134438
0.206125 0.183531 0.142937
0.218406 0.194438 0.151437
0.230687 0.205344 0.159938
0.242969 0.216250 0.168438
0.255250 0.227156 0.176937
0.267531 0.238063 0.185438
0.279813 0.248969 0.193938
0.292094 0.259875 0.202437
0.304375 0.270781 0.210938
0.316656 0.281687 0.219438
0.328938 0.292594 0.227937
0.341219 0.303500 0.236437
0.353500 0.314406 0.244938
0.365781 0.325312 0.253438
0.378063 0.336219 0.261937
0.390344 0.347125 0.270438
0.402625 0.358031 0.278938
0.414906 0.368937 0.287437
0.427188 0.379844 0.295938
0.439469 0.390750 0.304438
0.451750 0.401656 0.312937
0.464031 0.412562 0.321438
0.476313 0.423469 0.329938
0.488594 0.434375 0.338438
0.500875 0.445281 0.346938
0.513156 0.456187 0.355438
0.144187 0.128625 0.100125
0.156469 0.139531 0.108625
0.168750 0.150438 0.117125
0.181031 0.161344 0.125625
0.193312 0.172250 0.134125
0.205594 0.183156 0.142625
0.217875 0.194063 0.151125
0.230156 0.204969 0.159625
0.242437 0.215875 0.168125
0.254719 0.226781 0.176625
0.267000 0.237687 0.185125
0.279281 0.248594 0.193625
0.291562 0.259500 0.202125
0.303844 0.270406 0.210625
0.316125 0.281313 0.219125
0.328406 0.292219 0.227625
0.340688 0.303125 0.236125
0.352969 0.314031 0.244625
0.365250 0.324938 0.253125
0.377531 0.335844 0.261625
0.389812 0.346750 0.270125
0.402094 0.357656 0.278625
0.414375 0.368563 0.287125
0.426656 0.379469 0.295625
0.438937 0.390375 0.304125
0.451219 0.401281 0.312625
0.463500 0.412188 0.321125
0.475781 0.423094 0.329625
0.488063 0.434000 0.338125
0.500344 0.444906 0.346625
0.512625 0.455813 0.355125
0.524906 0.466719 0.363625
0.537188 0.477625 0.372125
0.168219 0.150063 0.116812
0.180500 0.160969 0.125312
0.192781 0.171875 0.133813
0.205062 0.182781 0.142312
0.217344 0.193687 0.150813
0.229625 0.204594 0.159313
0.241906 0.215500 0.167812
0.254187 0.226406 0.176313
0.266469 0.237312 0.184813
0.278750 0.248219 0.193312
0.291031 0.259125 0.201813
0.303312 0.270031 0.210313
0.315594 0.280937 0.218812
0.327875 0.291844 0.227313
0.340156 0.302750 0.235813
0.352437 0.313656 0.244313
0.364719 0.324562 0.252813
0.377000 0.335469 0.261312
0.389281 0.346375 0.269813
0.401563 0.357281 0.278313
0.413844 0.368187 0.286813
0.426125 0.379094 0.295313
0.438406 0.390000 0.303813
0.450688 0.400906 0.312313
0.462969 0.411813 0.320813
0.475250 0.422719 0.329313
0.487531 0.433625 0.337813
0.499812 0.444531 0.346313
0.512094 0.455438 0.354813
0.524375 0.466344 0.363313
0.536656 0.477250 0.371813
0.548937 0.488156 0.380313
0.561219 0.499063 0.388813
0.192250 0.171500 0.133500
0.204531 0.182406 0.142000
0.216812 0.193312 0.150500
0.229094 0.204219 0.159000
0.241375 0.215125 0.167500
0.253656 0.226031 0.176000
0.265938 0.236937 0.184500
0.278219 0.247844 0.193000
0.290500 0.258750 0.201500
0.302781 0.269656 0.210000
0.315062 0.280562 0.218500
0.327344 0.291469 0.227000
0.339625 0.302375 0.235500
0.351906 0.313281 0.244000
0.364187 0.324188 0.252500
0.376469 0.335094 0.261000
0.388750 0.346000 0.269500
0.401031 0.356906 0.278000
0.413312 0.367813 0.286500
0.425594 0.378719 0.295000
0.437875 0.389625 0.303500
0.450156 0.400531 0.312000
0.462438 0.411438 0.320500
0.474719 0.422344 0.329000
0.487000 0.433250 0.337500
0.499281 0.444156 0.346000
0.511563 0.455063 0.354500
0.523844 0.465969 0.363000
0.536125 0.476875 0.371500
0.548406 0.487781 0.380000
0.560687 0.498688 0.388500
0.572969 0.509594 0.397000
0.585250 0.520500 0.405500
0.216281 0.192937 0.150187
0.228563 0.203844 0.158687
0.240844 0.214750 0.167187
0.253125 0.225656 0.175687
0.265406 0.236562 0.184188
0.277687 0.247469 0.192687
0.289969 0.258375 0.201187
0.302250 0.269281 0.209688
0.314531 0.280187 0.218187
0.326813 0.291094 0.226687
0.339094 0.302000 0.235188
0.351375 0.312906 0.243687
0.363656 0.323812 0.252187
0.375938 0.334719 0.260688
0.388219 0.345625 0.269188
0.400500 0.356531 0.277687
0.412781 0.367437 0.286187
0.425063 0.378344 0.294688
0.437344 0.389250 0.303187
0.449625 0.400156 0.311687
0.461906 0.411062 0.320188
0.474187 0.421969 0.328687
0.486469 0.432875 0.337187
0.498750 0.443781 0.345688
0.511031 0.454688 0.354187
0.523313 0.465594 0.362687
0.535594 0.476500 0.371188
0.547875 0.487406 0.379687
0.560156 0.498313 0.388187
0.572438 0.509219 0.396688
0.584719 0.520125 0.405188
0.597000 0.531031 0.413687
0.609281 0.541937 0.422188
0.240313 0.214375 0.166875
0.252594 0.225281 0.175375
0.264875 0.236187 0.183875
0.277156 0.247094 0.192375
0.289438 0.258000 0.200875
0.301719 0.268906 0.209375
0.314000 0.279812 0.217875
0.326281 0.290719 0.226375
0.338562 0.301625 0.234875
0.350844 0.312531 0.243375
0.363125 0.323437 0.251875
0.375406 0.334344 0.260375
0.387688 0.345250 0.268875
0.399969 0.356156 0.277375
0.412250 0.367063 0.285875
0.424531 0.377969 0.294375
0.436813 0.388875 0.302875
0.449094 0.399781 0.311375
0.461375 0.410688 0.319875
0.473656 0.421594 0.328375
0.485938 0.432500 0.336875
0.498219 0.443406 0.345375
0.510500 0.454313 0.353875
0.522781 0.465219 0.362375
0.535062 0.476125 0.370875
0.547344 0.487031 0.379375
0.559625 0.497938 0.387875
0.571906 0.508844 0.396375
0.584188 0.519750 0.404875
0.596469 0.530656 0.413375
0.608750 0.541562 0.421875
0.621031 0.552469 0.430375
0.633313 0.563375 0.438875
0.264344 0.235813 0.183562
0.276625 0.246719 0.192062
0.288906 0.257625 0.200562
0.301187 0.268531 0.209062
0.313469 0.279438 0.217562
0.325750 0.290344 0.226062
0.338031 0.301250 0.234562
0.350312 0.312156 0.243062
0.362594 0.323063 0.251562
0.374875 0.333969 0.260062
0.387156 0.344875 0.268562
0.399437 0.355781 0.277062
0.411719 0.366688 0.285562
0.424000 0.377594 0.294062
0.436281 0.388500 0.302562
0.448563 0.399406 0.311063
0.460844 0.410313 0.319562
0.473125 0.421219 0.328062
0.485406 0.432125 0.336563
0.497687 0.443031 0.345062
0.509969 0.453938 0.353563
0.522250 0.464844 0.362063
0.534531 0.475750 0.370562
0.546813 0.486656 0.379063
0.559094 0.497563 0.387563
0.571375 0.508469 0.396062
0.583656 0.519375 0.404563
0.595937 0.530281 0.413063
0.608219 0.541188 0.421562
0.620500 0.552094 0.430063
0.632781 0.563000 0.438563
0.645063 0.573906 0.447062
0.657344 0.584813 0.455563
0.288375 0.257250 0.200250
0.300656 0.268156 0.208750
0.312937 0.279063 0.217250
0.325219 0.289969 0.225750
0.337500 0.300875 0.234250
0.349781 0.311781 0.242750
0.362062 0.322688 0.251250
0.374344 0.333594 0.259750
0.386625 0.344500 0.268250
0.398906 0.355406 0.276750
0.411187 0.366313 0.285250
0.423469 0.377219 0.293750
0.435750 0.388125 0.302250
0.448031 0.399031 0.310750
0.460312 0.409938 0.319250
0.472594 0.420844 0.327750
0.484875 0.431750 0.336250
0.497156 0.442656 0.344750
0.509438 0.453562 0.353250
0.521719 0.464469 0.361750
0.534000 0.475375 0.370250
0.546281 0.486281 0.378750
0.558563 0.497187 0.387250
0.570844 0.508094 0.395750
0.583125 0.519000 0.404250
0.595406 0.529906 0.412750
0.607687 0.540812 0.421250
0.619969 0.551719 0.429750
0.632250 0.562625 0.438250
0.644531 0.573531 0.446750
0.656812 0.584437 0.455250
0.669094 0.595344 0.463750
0.681375 0.606250 0.472250
0.312406 0.278688 0.216937
0.324687 0.289594 0.225437
0.336969 0.300500 0.233938
0.349250 0.311406 0.242437
0.361531 0.322313 0.250937
0.373812 0.333219 0.259438
0.386094 0.344125 0.267938
0.398375 0.355031 0.276437
0.410656 0.365938 0.284938
0.422938 0.376844 0.293438
0.435219 0.387750 0.301938
0.447500 0.398656 0.310438
0.459781 0.409563 0.318938
0.472062 0.420469 0.327438
0.484344 0.431375 0.335938
0.496625 0.442281 0.344438
0.508906 0.453188 0.352938
0.521187 0.464094 0.361437
0.533469 0.475000 0.369938
0.545750 0.485906 0.378438
0.558031 0.496813 0.386937
0.570312 0.507719 0.395438
0.582594 0.518625 0.403938
0.594875 0.529531 0.412437
0.607156 0.540438 0.420938
0.619437 0.551344 0.429438
0.631719 0.562250 0.437937
0.644000 0.573156 0.446438
0.656281 0.584063 0.454938
0.668563 0.594969 0.463437
0.680844 0.605875 0.471938
0.693125 0.616781 0.480438
0.705406 0.627688 0.488937
0.336437 0.300125 0.233625
0.348719 0.311031 0.242125
0.361000 0.321938 0.250625
0.373281 0.332844 0.259125
0.385562 0.343750 0.267625
0.397844 0.354656 0.276125
0.410125 0.365562 0.284625
0.422406 0.376469 0.293125
0.434687 0.387375 0.301625
0.446969 0.398281 0.310125
0.459250 0.409187 0.318625
0.471531 0.420094 0.327125
0.483813 0.431000 0.335625
0.496094 0.441906 0.344125
0.508375 0.452812 0.352625
0.520656 0.463719 0.361125
0.532938 0.474625 0.369625
0.545219 0.485531 0.378125
0.557500 0.496437 0.386625
0.569781 0.507344 0.395125
0.582062 0.518250 0.403625
0.594344 0.529156 0.412125
0.606625 0.540062 0.420625
0.618906 0.550969 0.429125
0.631187 0.561875 0.437625
0.643469 0.572781 0.446125
0.655750 0.583688 0.454625
0.668031 0.594594 0.463125
0.680313 0.605500 0.471625
0.692594 0.616406 0.480125
0.704875 0.627313 0.488625
0.717156 0.638219 0.497125
0.729437 0.649125 0.505625
0.360469 0.321562 0.250312
0.372750 0.332469 0.258812
0.385031 0.343375 0.267312
0.397312 0.354281 0.275812
0.409594 0.365187 0.284312
0.421875 0.376094 0.292812
0.434156 0.387000 0.301312
0.446437 0.397906 0.309812
0.458719 0.408812 0.318312
0.471000 0.419719 0.326812
0.483281 0.430625 0.335312
0.495562 0.441531 0.343812
0.507844 0.452438 0.352312
0.520125 0.463344 0.360812
0.532406 0.474250 0.369312
0.544688 0.485156 0.377813
0.556969 0.496063 0.386312
0.569250 0.506969 0.394812
0.581531 0.517875 0.403313
0.593812 0.528781 0.411812
0.606094 0.539688 0.420312
0.618375 0.550594 0.428813
0.630656 0.561500 0.437312
0.642938 0.572406 0.445812
0.655219 0.583313 0.454313
0.667500 0.594219 0.462812
0.679781 0.605125 0.471312
0.692062 0.616031 0.479813
0.704344 0.626938 0.488312
0.716625 0.637844 0.496812
0.728906 0.648750 0.505313
0.741188 0.659656 0.513812
0.753469 0.670563 0.522313
0.384500 0.343000 0.267000
0.396781 0.353906 0.275500
0.409063 0.364812 0.284000
0.421344 0.375719 0.292500
0.433625 0.386625 0.301000
0.445906 0.397531 0.309500
0.458187 0.408437 0.318000
0.470469 0.419344 0.326500
0.482750 0.430250 0.335000
0.495031 0.441156 0.343500
0.507312 0.452062 0.352000
0.519594 0.462969 0.360500
0.531875 0.473875 0.369000
0.544156 0.484781 0.377500
0.556437 0.495687 0.386000
0.568719 0.506594 0.394500
0.581000 0.517500 0.403000
0.593281 0.528406 0.411500
0.605563 0.539312 0.420000
0.617844 0.550219 0.428500
0.630125 0.561125 0.437000
0.642406 0.572031 0.445500
0.654688 0.582937 0.454000
0.666969 0.593844 0.462500
0.679250 0.604750 0.471000
0.691531 0.615656 0.479500
0.703812 0.626562 0.488000
0.716094 0.637469 0.496500
0.728375 0.648375 0.505000
0.740656 0.659281 0.513500
0.752937 0.670187 0.522000
0.765219 0.681094 0.530500
0.777500 0.692000 0.539000
0.408531 0.364437 0.283688
0.420812 0.375344 0.292188
0.433094 0.386250 0.300687
0.445375 0.397156 0.309188
0.457656 0.408062 0.317688
0.469938 0.418969 0.326187
0.482219 0.429875 0.334688
0.494500 0.440781 0.343188
0.506781 0.451687 0.351687
0.519063 0.462594 0.360188
0.531344 0.473500 0.368688
0.543625 0.484406 0.377187
0.555906 0.495313 0.385688
0.568187 0.506219 0.394188
0.580469 0.517125 0.402687
0.592750 0.528031 0.411188
0.605031 0.538938 0.419688
0.617312 0.549844 0.428187
0.629594 0.560750 0.436688
0.641875 0.571656 0.445188
0.654156 0.582563 0.453688
0.666438 0.593469 0.462188
0.678719 0.604375 0.470688
0.691000 0.615281 0.479188
0.703281 0.626188 0.487688
0.715562 0.637094 0.496188
0.727844 0.648000 0.504688
0.740125 0.658906 0.513188
0.752406 0.669813 0.521688
0.764688 0.680719 0.530187
0.776969 0.691625 0.538688
0.789250 0.702531 0.547188
0.801531 0.713437 0.555688
0.432563 0.385875 0.300375
0.444844 0.396781 0.308875
0.457125 0.407687 0.317375
0.469406 0.418594 0.325875
0.481687 0.429500 0.334375
0.493969 0.440406 0.342875
0.506250 0.451312 0.351375
0.518531 0.462219 0.359875
0.530813 0.473125 0.368375
0.543094 0.484031 0.376875
0.555375 0.494937 0.385375
0.567656 0.505844 0.393875
0.579938 0.516750 0.402375
0.592219 0.527656 0.410875
0.604500 0.538562 0.419375
0.616781 0.549469 0.427875
0.629063 0.560375 0.436375
0.641344 0.571281 0.444875
0.653625 0.582187 0.453375
0.665906 0.593094 0.461875
0.678187 0.604000 0.470375
0.690469 0.614906 0.478875
0.702750 0.625812 0.487375
0.715031 0.636719 0.495875
0.727313 0.647625 0.504375
0.739594 0.658531 0.512875
0.751875 0.669438 0.521375
0.764156 0.680344 0.529875
0.776438 0.691250 0.538375
0.788719 0.702156 0.546875
0.801000 0.713063 0.555375
0.813281 0.723969 0.563875
0.825562 0.734875 0.572375
0.456594 0.407312 0.317062
0.468875 0.418219 0.325563
0.481156 0.429125 0.334062
0.493437 0.440031 0.342562
0.505719 0.450937 0.351063
0.518000 0.461844 0.359563
0.530281 0.472750 0.368062
0.542562 0.483656 0.376563
0.554844 0.494562 0.385063
0.567125 0.505469 0.393562
0.579406 0.516375 0.402063
0.591688 0.527281 0.410563
0.603969 0.538188 0.419062
0.616250 0.549094 0.427563
0.628531 0.560000 0.436063
0.640813 0.570906 0.444562
0.653094 0.581813 0.453063
0.665375 0.592719 0.461563
0.677656 0.603625 0.470062
0.689937 0.614531 0.478563
0.702219 0.625437 0.487063
0.714500 0.636344 0.495562
0.726781 0.647250 0.504063
0.739063 0.658156 0.512563
0.751344 0.669062 0.521062
0.763625 0.679969 0.529562
0.775906 0.690875 0.538063
0.788188 0.701781 0.546562
0.800469 0.712687 0.555063
0.812750 0.723594 0.563563
0.825031 0.734500 0.572062
0.837313 0.745406 0.580562
0.849594 0.756312 0.589063
0.480625 0.428750 0.333750
0.492906 0.439656 0.342250
0.505188 0.450562 0.350750
0.517469 0.461469 0.359250
0.529750 0.472375 0.367750
0.542031 0.483281 0.376250
0.554313 0.494187 0.384750
0.566594 0.505094 0.393250
0.578875 0.516000 0.401750
0.591156 0.526906 0.410250
0.603437 0.537812 0.418750
0.615719 0.548719 0.427250
0.628000 0.559625 0.435750
0.640281 0.570531 0.444250
0.652562 0.581437 0.452750
0.664844 0.592344 0.461250
0.677125 0.603250 0.469750
0.689406 0.614156 0.478250
0.701688 0.625062 0.486750
0.713969 0.635969 0.495250
0.726250 0.646875 0.503750
0.738531 0.657781 0.512250
0.750813 0.668687 0.520750
0.763094 0.679594 0.529250
0.775375 0.690500 0.537750
0.787656 0.701406 0.546250
0.799937 0.712312 0.554750
0.812219 0.723219 0.563250
0.824500 0.734125 0.571750
0.836781 0.745031 0.580250
0.849063 0.755937 0.588750
0.861344 0.766844 0.597250
0.873625 0.777750 0.605750
0.504656 0.450188 0.350437
0.516937 0.461094 0.358938
0.529219 0.472000 0.367437
0.541500 0.482906 0.375937
0.553781 0.493813 0.384438
0.566063 0.504719 0.392937
0.578344 0.515625 0.401437
0.590625 0.526531 0.409938
0.602906 0.537437 0.418437
0.615188 0.548344 0.426937
0.627469 0.559250 0.435438
0.639750 0.570156 0.443937
0.652031 0.581062 0.452437
0.664312 0.591969 0.460938
0.676594 0.602875 0.469437
0.688875 0.613781 0.477938
0.701156 0.624687 0.486437
0.713437 0.635594 0.494937
0.725719 0.646500 0.503438
0.738000 0.657406 0.511937
0.750281 0.668312 0.520437
0.762563 0.679219 0.528938
0.774844 0.690125 0.537437
0.787125 0.701031 0.545938
0.799406 0.711938 0.554438
0.811687 0.722844 0.562937
0.823969 0.733750 0.571437
0.836250 0.744656 0.579938
0.848531 0.755563 0.588437
0.860813 0.766469 0.596938
0.873094 0.777375 0.605438
0.885375 0.788281 0.613937
0.897656 0.799188 0.622437
0.528687 0.471625 0.367125
0.540969 0.482531 0.375625
0.553250 0.493437 0.384125
0.565531 0.504344 0.392625
0.577812 0.515250 0.401125
0.590094 0.526156 0.409625
0.602375 0.537063 0.418125
0.614656 0.547969 0.426625
0.626938 0.558875 0.435125
0.639219 0.569781 0.443625
0.651500 0.580688 0.452125
0.663781 0.591594 0.460625
0.676062 0.602500 0.469125
0.688344 0.613406 0.477625
0.700625 0.624313 0.486125
0.712906 0.635219 0.494625
0.725187 0.646125 0.503125
0.737469 0.657031 0.511625
0.749750 0.667938 0.520125
0.762031 0.678844 0.528625
0.774312 0.689750 0.537125
0.786594 0.700656 0.545625
0.798875 0.711563 0.554125
0.811156 0.722469 0.562625
0.823437 0.733375 0.571125
0.835719 0.744281 0.579625
0.848000 0.755188 0.588125
0.860281 0.766094 0.596625
0.872562 0.777000 0.605125
0.884844 0.787906 0.613625
0.897125 0.798813 0.622125
0.909406 0.809719 0.630625
0.921687 0.820625 0.639125
0.552719 0.493062 0.383812
0.565000 0.503969 0.392312
0.577281 0.514875 0.400812
0.589563 0.525781 0.409312
0.601844 0.536687 0.417812
0.614125 0.547594 0.426313
0.626406 0.558500 0.434812
0.638687 0.569406 0.443312
0.650969 0.580312 0.451813
0.663250 0.591219 0.460312
0.675531 0.602125 0.468812
0.687813 0.613031 0.477313
0.700094 0.623937 0.485812
0.712375 0.634844 0.494312
0.724656 0.645750 0.502813
0.736938 0.656656 0.511312
0.749219 0.667562 0.519812
0.761500 0.678469 0.528313
0.773781 0.689375 0.536812
0.786062 0.700281 0.545313
0.798344 0.711187 0.553813
0.810625 0.722094 0.562312
0.822906 0.733000 0.570812
0.835188 0.743906 0.579313
0.847469 0.754812 0.587812
0.859750 0.765719 0.596313
0.872031 0.776625 0.604813
0.884313 0.787531 0.613312
0.896594 0.798437 0.621812
0.908875 0.809344 0.630313
0.921156 0.820250 0.638813
0.933438 0.831156 0.647313
0.945719 0.842062 0.655813
0.576750 0.514500 0.400500
0.589031 0.525406 0.409000
0.601312 0.536313 0.417500
0.613594 0.547219 0.426000
0.625875 0.558125 0.434500
0.638156 0.569031 0.443000
0.650437 0.579938 0.451500
0.662719 0.590844 0.460000
0.675000 0.601750 0.468500
0.687281 0.612656 0.477000
0.699562 0.623563 0.485500
0.711844 0.634469 0.494000
0.724125 0.645375 0.502500
0.736406 0.656281 0.511000
0.748688 0.667188 0.519500
0.760969 0.678094 0.528000
0.773250 0.689000 0.536500
0.785531 0.699906 0.545000
0.797812 0.710813 0.553500
0.810094 0.721719 0.562000
0.822375 0.732625 0.570500
0.834656 0.743531 0.579000
0.846937 0.754438 0.587500
0.859219 0.765344 0.596000
0.871500 0.776250 0.604500
0.883781 0.787156 0.613000
0.896062 0.798063 0.621500
0.908344 0.808969 0.630000
0.920625 0.819875 0.638500
0.932906 0.830781 0.647000
0.945187 0.841688 0.655500
0.957469 0.852594 0.664000
0.969750 0.863500 0.672500
0.600781 0.535937 0.417187
0.613063 0.546844 0.425687
0.625344 0.557750 0.434187
0.637625 0.568656 0.442687
0.649906 0.579562 0.451187
0.662188 0.590469 0.459687
0.674469 0.601375 0.468187
0.686750 0.612281 0.476687
0.699031 0.623187 0.485187
0.711313 0.634094 0.493687
0.723594 0.645000 0.502187
0.735875 0.655906 0.510687
0.748156 0.666812 0.519188
0.760437 0.677719 0.527687
0.772719 0.688625 0.536187
0.785000 0.699531 0.544688
0.797281 0.710437 0.553187
0.809563 0.721344 0.561687
0.821844 0.732250 0.570188
0.834125 0.743156 0.578687
0.846406 0.754062 0.587188
0.858688 0.764969 0.595688
0.870969 0.775875 0.604187
0.883250 0.786781 0.612687
0.895531 0.797688 0.621188
0.907812 0.808594 0.629687
0.920094 0.819500 0.638188
0.932375 0.830406 0.646688
0.944656 0.841313 0.655187
0.956938 0.852219 0.663687
0.969219 0.863125 0.672188
0.981500 0.874031 0.680687
0.993781 0.884938 0.689188
0.624812 0.557375 0.433875
0.637094 0.568281 0.442375
0.649375 0.579188 0.450875
0.661656 0.590094 0.459375
0.673937 0.601000 0.467875
0.686219 0.611906 0.476375
0.698500 0.622813 0.484875
0.710781 0.633719 0.493375
0.723063 0.644625 0.501875
0.735344 0.655531 0.510375
0.747625 0.666438 0.518875
0.759906 0.677344 0.527375
0.772187 0.688250 0.535875
0.784469 0.699156 0.544375
0.796750 0.710063 0.552875
0.809031 0.720969 0.561375
0.821312 0.731875 0.569875
0.833594 0.742781 0.578375
0.845875 0.753688 0.586875
0.858156 0.764594 0.595375
0.870438 0.775500 0.603875
0.882719 0.786406 0.612375
0.895000 0.797312 0.620875
0.907281 0.808219 0.629375
0.919562 0.819125 0.637875
0.931844 0.830031 0.646375
0.944125 0.840937 0.654875
0.956406 0.851844 0.663375
