backend/luts/sun_bleached.cube
TITLE "Sun Bleached"
LUT_3D_SIZE 33
DOMAIN_MIN 0.0 0.0 0.0
DOMAIN_MAX 1.0 1.0 1.0
0.111622 0.109476 0.107329
0.136227 0.120335 0.117975
0.161057 0.131293 0.128719
0.186081 0.142338 0.139547
0.211274 0.153457 0.150448
0.236619 0.164643 0.161414
0.262101 0.175889 0.172440
0.287708 0.187190 0.183520
0.313429 0.198542 0.194649
0.339256 0.209941 0.205824
0.365182 0.221383 0.217042
0.391200 0.232866 0.228300
0.417305 0.244388 0.239596
0.443492 0.255945 0.250927
0.469757 0.267537 0.262291
0.496095 0.279161 0.273688
0.522504 0.290817 0.285114
0.548979 0.302501 0.296570
0.575519 0.314215 0.308053
0.602120 0.325955 0.319563
0.628779 0.337721 0.331099
0.655496 0.349512 0.342659
0.682267 0.361327 0.354243
0.709090 0.373166 0.365849
0.735965 0.385027 0.377477
0.762888 0.396909 0.389127
0.789860 0.408813 0.400797
0.816877 0.420737 0.412487
0.843939 0.432681 0.424197
0.871045 0.444644 0.435925
0.898192 0.456625 0.447672
0.925381 0.468625 0.459436
0.952610 0.480642 0.471218
0.122694 0.133607 0.117975
0.136227 0.133607 0.117975
0.161057 0.144566 0.128719
0.186081 0.155610 0.139547
0.211274 0.166729 0.150448
0.236619 0.177915 0.161414
0.262101 0.189161 0.172440
0.287708 0.200463 0.183520
0.313429 0.211814 0.194649
0.339256 0.223213 0.205824
0.365182 0.234655 0.217042
0.391200 0.246138 0.228300
0.417305 0.257660 0.239596
0.443492 0.269217 0.250927
0.469757 0.280809 0.262291
0.496095 0.292434 0.273688
0.522504 0.304089 0.285114
0.548979 0.315774 0.296570
0.575519 0.327487 0.308053
0.602120 0.339227 0.319563
0.628779 0.350993 0.331099
0.655496 0.362784 0.342659
0.682267 0.374600 0.354243
0.709090 0.386438 0.365849
0.735965 0.398299 0.377477
0.762888 0.410182 0.389127
0.789860 0.422085 0.400797
0.816877 0.434009 0.412487
0.843939 0.445953 0.424197
0.871045 0.457916 0.435925
0.898192 0.469898 0.447672
0.925381 0.481897 0.459436
0.952610 0.493915 0.471218
0.133868 0.157960 0.128719
0.147400 0.157960 0.128719
0.161057 0.157960 0.128719
0.186081 0.169004 0.139547
0.211274 0.180123 0.150448
0.236619 0.191309 0.161414
0.262101 0.202555 0.172440
0.287708 0.213856 0.183520
0.313429 0.225208 0.194649
0.339256 0.236607 0.205824
0.365182 0.248049 0.217042
0.391200 0.259532 0.228300
0.417305 0.271054 0.239596
0.443492 0.282611 0.250927
0.469757 0.294203 0.262291
0.496095 0.305828 0.273688
0.522504 0.317483 0.285114
0.548979 0.329168 0.296570
0.575519 0.340881 0.308053
0.602120 0.352621 0.319563
0.628779 0.364387 0.331099
0.655496 0.376178 0.342659
0.682267 0.387994 0.354243
0.709090 0.399832 0.365849
0.735965 0.411693 0.377477
0.762888 0.423576 0.389127
0.789860 0.435479 0.400797
0.816877 0.447403 0.412487
0.843939 0.459347 0.424197
0.871045 0.471310 0.435925
0.898192 0.483292 0.447672
0.925381 0.495291 0.459436
0.952610 0.507309 0.471218
0.145128 0.182502 0.139547
0.158661 0.182502 0.139547
0.172318 0.182502 0.139547
0.186081 0.182502 0.139547
0.211274 0.193621 0.150448
0.236619 0.204807 0.161414
0.262101 0.216054 0.172440
0.287708 0.227355 0.183520
0.313429 0.238707 0.194649
0.339256 0.250105 0.205824
0.365182 0.261548 0.217042
0.391200 0.273031 0.228300
0.417305 0.284552 0.239596
0.443492 0.296110 0.250927
0.469757 0.307702 0.262291
0.496095 0.319326 0.273688
0.522504 0.330981 0.285114
0.548979 0.342666 0.296570
0.575519 0.354379 0.308053
0.602120 0.366119 0.319563
0.628779 0.377886 0.331099
0.655496 0.389677 0.342659
0.682267 0.401492 0.354243
0.709090 0.413330 0.365849
0.735965 0.425191 0.377477
0.762888 0.437074 0.389127
0.789860 0.448978 0.400797
0.816877 0.460902 0.412487
0.843939 0.472845 0.424197
0.871045 0.484808 0.435925
0.898192 0.496790 0.447672
0.925381 0.508790 0.459436
0.952610 0.520807 0.471218
0.156466 0.207211 0.150448
0.169998 0.207211 0.150448
0.183655 0.207211 0.150448
0.197418 0.207211 0.150448
0.211274 0.207211 0.150448
0.236619 0.218397 0.161414
0.262101 0.229644 0.172440
0.287708 0.240945 0.183520
0.313429 0.252297 0.194649
0.339256 0.263695 0.205824
0.365182 0.275138 0.217042
0.391200 0.286621 0.228300
0.417305 0.298142 0.239596
0.443492 0.309700 0.250927
0.469757 0.321292 0.262291
0.496095 0.332916 0.273688
0.522504 0.344571 0.285114
0.548979 0.356256 0.296570
0.575519 0.367969 0.308053
0.602120 0.379709 0.319563
0.628779 0.391476 0.331099
0.655496 0.403267 0.342659
0.682267 0.415082 0.354243
0.709090 0.426921 0.365849
0.735965 0.438781 0.377477
0.762888 0.450664 0.389127
0.789860 0.462568 0.400797
0.816877 0.474492 0.412487
0.843939 0.486435 0.424197
0.871045 0.498398 0.435925
0.898192 0.510380 0.447672
0.925381 0.522380 0.459436
0.952610 0.534397 0.471218
0.167871 0.232069 0.161414
0.181403 0.232069 0.161414
0.195060 0.232069 0.161414
0.208823 0.232069 0.161414
0.222680 0.232069 0.161414
0.236619 0.232069 0.161414
0.262101 0.243315 0.172440
0.287708 0.254617 0.183520
0.313429 0.265968 0.194649
0.339256 0.277367 0.205824
0.365182 0.288809 0.217042
0.391200 0.300292 0.228300
0.417305 0.311814 0.239596
0.443492 0.323372 0.250927
0.469757 0.334963 0.262291
0.496095 0.346588 0.273688
0.522504 0.358243 0.285114
0.548979 0.369928 0.296570
0.575519 0.381641 0.308053
0.602120 0.393381 0.319563
0.628779 0.405147 0.331099
0.655496 0.416938 0.342659
0.682267 0.428754 0.354243
0.709090 0.440592 0.365849
0.735965 0.452453 0.377477
0.762888 0.464336 0.389127
0.789860 0.476239 0.400797
0.816877 0.488163 0.412487
0.843939 0.500107 0.424197
0.871045 0.512070 0.435925
0.898192 0.524052 0.447672
0.925381 0.536051 0.459436
0.952610 0.548069 0.471218
0.179338 0.257061 0.172440
0.192870 0.257061 0.172440
0.206527 0.257061 0.172440
0.220290 0.257061 0.172440
0.234146 0.257061 0.172440
0.248086 0.257061 0.172440
0.262101 0.257061 0.172440
0.287708 0.268362 0.183520
0.313429 0.279714 0.194649
0.339256 0.291113 0.205824
0.365182 0.302555 0.217042
0.391200 0.314038 0.228300
0.417305 0.325559 0.239596
0.443492 0.337117 0.250927
0.469757 0.348709 0.262291
0.496095 0.360333 0.273688
0.522504 0.371988 0.285114
0.548979 0.383673 0.296570
0.575519 0.395386 0.308053
0.602120 0.407127 0.319563
0.628779 0.418893 0.331099
0.655496 0.430684 0.342659
0.682267 0.442499 0.354243
0.709090 0.454338 0.365849
0.735965 0.466199 0.377477
0.762888 0.478081 0.389127
0.789860 0.489985 0.400797
0.816877 0.501909 0.412487
0.843939 0.513853 0.424197
0.871045 0.525816 0.435925
0.898192 0.537797 0.447672
0.925381 0.549797 0.459436
0.952610 0.561814 0.471218
0.190861 0.282175 0.183520
0.204393 0.282175 0.183520
0.218050 0.282175 0.183520
0.231813 0.282175 0.183520
0.245669 0.282175 0.183520
0.259609 0.282175 0.183520
0.273624 0.282175 0.183520
0.287708 0.282175 0.183520
0.313429 0.293527 0.194649
0.339256 0.304925 0.205824
0.365182 0.316368 0.217042
0.391200 0.327851 0.228300
0.417305 0.339372 0.239596
0.443492 0.350930 0.250927
0.469757 0.362521 0.262291
0.496095 0.374146 0.273688
0.522504 0.385801 0.285114
0.548979 0.397486 0.296570
0.575519 0.409199 0.308053
0.602120 0.420939 0.319563
0.628779 0.432705 0.331099
0.655496 0.444497 0.342659
0.682267 0.456312 0.354243
0.709090 0.468150 0.365849
0.735965 0.480011 0.377477
0.762888 0.491894 0.389127
0.789860 0.503798 0.400797
0.816877 0.515722 0.412487
0.843939 0.527665 0.424197
0.871045 0.539628 0.435925
0.898192 0.551610 0.447672
0.925381 0.563610 0.459436
0.952610 0.575627 0.471218
0.202435 0.307401 0.194649
0.215968 0.307401 0.194649
0.229624 0.307401 0.194649
0.243387 0.307401 0.194649
0.257244 0.307401 0.194649
0.271183 0.307401 0.194649
0.285198 0.307401 0.194649
0.299282 0.307401 0.194649
0.313429 0.307401 0.194649
0.339256 0.318800 0.205824
0.365182 0.330242 0.217042
0.391200 0.341725 0.228300
0.417305 0.353247 0.239596
0.443492 0.364804 0.250927
0.469757 0.376396 0.262291
0.496095 0.388020 0.273688
0.522504 0.399676 0.285114
0.548979 0.411360 0.296570
0.575519 0.423074 0.308053
0.602120 0.434814 0.319563
0.628779 0.446580 0.331099
0.655496 0.458371 0.342659
0.682267 0.470186 0.354243
0.709090 0.482025 0.365849
0.735965 0.493886 0.377477
0.762888 0.505768 0.389127
0.789860 0.517672 0.400797
0.816877 0.529596 0.412487
0.843939 0.541540 0.424197
0.871045 0.553503 0.435925
0.898192 0.565484 0.447672
0.925381 0.577484 0.459436
0.952610 0.589501 0.471218
0.214057 0.332732 0.205824
0.227590 0.332732 0.205824
0.241246 0.332732 0.205824
0.255009 0.332732 0.205824
0.268866 0.332732 0.205824
0.282806 0.332732 0.205824
0.296821 0.332732 0.205824
0.310904 0.332732 0.205824
0.325051 0.332732 0.205824
0.339256 0.332732 0.205824
0.365182 0.344174 0.217042
0.391200 0.355657 0.228300
0.417305 0.367178 0.239596
0.443492 0.378736 0.250927
0.469757 0.390328 0.262291
0.496095 0.401952 0.273688
0.522504 0.413607 0.285114
0.548979 0.425292 0.296570
0.575519 0.437005 0.308053
0.602120 0.448745 0.319563
0.628779 0.460512 0.331099
0.655496 0.472303 0.342659
0.682267 0.484118 0.354243
0.709090 0.495957 0.365849
0.735965 0.507818 0.377477
0.762888 0.519700 0.389127
0.789860 0.531604 0.400797
0.816877 0.543528 0.412487
0.843939 0.555472 0.424197
0.871045 0.567435 0.435925
0.898192 0.579416 0.447672
0.925381 0.591416 0.459436
0.952610 0.603433 0.471218
0.225724 0.358159 0.217042
0.239256 0.358159 0.217042
0.252913 0.358159 0.217042
0.266676 0.358159 0.217042
0.280533 0.358159 0.217042
0.294472 0.358159 0.217042
0.308487 0.358159 0.217042
0.322571 0.358159 0.217042
0.336717 0.358159 0.217042
0.350922 0.358159 0.217042
0.365182 0.358159 0.217042
0.391200 0.369642 0.228300
0.417305 0.381163 0.239596
0.443492 0.392721 0.250927
0.469757 0.404313 0.262291
0.496095 0.415937 0.273688
0.522504 0.427592 0.285114
0.548979 0.439277 0.296570
0.575519 0.450990 0.308053
0.602120 0.462730 0.319563
0.628779 0.474497 0.331099
0.655496 0.486288 0.342659
0.682267 0.498103 0.354243
0.709090 0.509942 0.365849
0.735965 0.521803 0.377477
0.762888 0.533685 0.389127
0.789860 0.545589 0.400797
0.816877 0.557513 0.412487
0.843939 0.569457 0.424197
0.871045 0.581420 0.435925
0.898192 0.593401 0.447672
0.925381 0.605401 0.459436
0.952610 0.617418 0.471218
0.237432 0.383677 0.228300
0.250965 0.383677 0.228300
0.264621 0.383677 0.228300
0.278384 0.383677 0.228300
0.292241 0.383677 0.228300
0.306181 0.383677 0.228300
0.320196 0.383677 0.228300
0.334279 0.383677 0.228300
0.348426 0.383677 0.228300
0.362631 0.383677 0.228300
0.376890 0.383677 0.228300
0.391200 0.383677 0.228300
0.417305 0.395198 0.239596
0.443492 0.406756 0.250927
0.469757 0.418348 0.262291
0.496095 0.429972 0.273688
0.522504 0.441627 0.285114
0.548979 0.453312 0.296570
0.575519 0.465025 0.308053
0.602120 0.476765 0.319563
0.628779 0.488532 0.331099
0.655496 0.500323 0.342659
0.682267 0.512138 0.354243
0.709090 0.523977 0.365849
0.735965 0.535837 0.377477
0.762888 0.547720 0.389127
0.789860 0.559624 0.400797
0.816877 0.571548 0.412487
0.843939 0.583491 0.424197
0.871045 0.595454 0.435925
0.898192 0.607436 0.447672
0.925381 0.619436 0.459436
0.952610 0.631453 0.471218
0.249179 0.409280 0.239596
0.262712 0.409280 0.239596
0.276369 0.409280 0.239596
0.290132 0.409280 0.239596
0.303988 0.409280 0.239596
0.317928 0.409280 0.239596
0.331943 0.409280 0.239596
0.346026 0.409280 0.239596
0.360173 0.409280 0.239596
0.374378 0.409280 0.239596
0.388637 0.409280 0.239596
0.402947 0.409280 0.239596
0.417305 0.409280 0.239596
0.443492 0.420838 0.250927
0.469757 0.432429 0.262291
0.496095 0.444054 0.273688
0.522504 0.455709 0.285114
0.548979 0.467394 0.296570
0.575519 0.479107 0.308053
0.602120 0.490847 0.319563
0.628779 0.502613 0.331099
0.655496 0.514405 0.342659
0.682267 0.526220 0.354243
0.709090 0.538058 0.365849
0.735965 0.549919 0.377477
0.762888 0.561802 0.389127
0.789860 0.573705 0.400797
0.816877 0.585629 0.412487
0.843939 0.597573 0.424197
0.871045 0.609536 0.435925
0.898192 0.621518 0.447672
0.925381 0.633517 0.459436
0.952610 0.645535 0.471218
0.260964 0.434964 0.250927
0.274496 0.434964 0.250927
0.288153 0.434964 0.250927
0.301916 0.434964 0.250927
0.315772 0.434964 0.250927
0.329712 0.434964 0.250927
0.343727 0.434964 0.250927
0.357811 0.434964 0.250927
0.371957 0.434964 0.250927
0.386162 0.434964 0.250927
0.400421 0.434964 0.250927
0.414731 0.434964 0.250927
0.429089 0.434964 0.250927
0.443492 0.434964 0.250927
0.469757 0.446555 0.262291
0.496095 0.458180 0.273688
0.522504 0.469835 0.285114
0.548979 0.481520 0.296570
0.575519 0.493233 0.308053
0.602120 0.504973 0.319563
0.628779 0.516739 0.331099
0.655496 0.528530 0.342659
0.682267 0.540346 0.354243
0.709090 0.552184 0.365849
0.735965 0.564045 0.377477
0.762888 0.575928 0.389127
0.789860 0.587831 0.400797
0.816877 0.599755 0.412487
0.843939 0.611699 0.424197
0.871045 0.623662 0.435925
0.898192 0.635644 0.447672
0.925381 0.647643 0.459436
0.952610 0.659661 0.471218
0.272783 0.460723 0.262291
0.286315 0.460723 0.262291
0.299972 0.460723 0.262291
0.313735 0.460723 0.262291
0.327591 0.460723 0.262291
0.341531 0.460723 0.262291
0.355546 0.460723 0.262291
0.369630 0.460723 0.262291
0.383776 0.460723 0.262291
0.397981 0.460723 0.262291
0.412240 0.460723 0.262291
0.426551 0.460723 0.262291
0.440908 0.460723 0.262291
0.455311 0.460723 0.262291
0.469757 0.460723 0.262291
0.496095 0.472347 0.273688
0.522504 0.484003 0.285114
0.548979 0.495688 0.296570
0.575519 0.507401 0.308053
0.602120 0.519141 0.319563
0.628779 0.530907 0.331099
0.655496 0.542698 0.342659
0.682267 0.554514 0.354243
0.709090 0.566352 0.365849
0.735965 0.578213 0.377477
0.762888 0.590096 0.389127
0.789860 0.601999 0.400797
0.816877 0.613923 0.412487
0.843939 0.625867 0.424197
0.871045 0.637830 0.435925
0.898192 0.649812 0.447672
0.925381 0.661811 0.459436
0.952610 0.673829 0.471218
0.284635 0.486555 0.273688
0.298168 0.486555 0.273688
0.311824 0.486555 0.273688
0.325587 0.486555 0.273688
0.339444 0.486555 0.273688
0.353384 0.486555 0.273688
0.367399 0.486555 0.273688
0.381482 0.486555 0.273688
0.395629 0.486555 0.273688
0.409834 0.486555 0.273688
0.424093 0.486555 0.273688
0.438403 0.486555 0.273688
0.452761 0.486555 0.273688
0.467164 0.486555 0.273688
0.481609 0.486555 0.273688
0.496095 0.486555 0.273688
0.522504 0.498210 0.285114
0.548979 0.509895 0.296570
0.575519 0.521608 0.308053
0.602120 0.533348 0.319563
0.628779 0.545115 0.331099
0.655496 0.556906 0.342659
0.682267 0.568721 0.354243
0.709090 0.580560 0.365849
0.735965 0.592420 0.377477
0.762888 0.604303 0.389127
0.789860 0.616207 0.400797
0.816877 0.628131 0.412487
0.843939 0.640074 0.424197
0.871045 0.652037 0.435925
0.898192 0.664019 0.447672
0.925381 0.676019 0.459436
0.952610 0.688036 0.471218
0.296519 0.512456 0.285114
0.310051 0.512456 0.285114
0.323708 0.512456 0.285114
0.337471 0.512456 0.285114
0.351328 0.512456 0.285114
0.365267 0.512456 0.285114
0.379282 0.512456 0.285114
0.393366 0.512456 0.285114
0.407512 0.512456 0.285114
0.421717 0.512456 0.285114
0.435977 0.512456 0.285114
0.450287 0.512456 0.285114
0.464644 0.512456 0.285114
0.479047 0.512456 0.285114
0.493493 0.512456 0.285114
0.507979 0.512456 0.285114
0.522504 0.512456 0.285114
0.548979 0.524140 0.296570
0.575519 0.535854 0.308053
0.602120 0.547594 0.319563
0.628779 0.559360 0.331099
0.655496 0.571151 0.342659
0.682267 0.582966 0.354243
0.709090 0.594805 0.365849
0.735965 0.606666 0.377477
0.762888 0.618548 0.389127
0.789860 0.630452 0.400797
0.816877 0.642376 0.412487
0.843939 0.654320 0.424197
0.871045 0.666283 0.435925
0.898192 0.678264 0.447672
0.925381 0.690264 0.459436
0.952610 0.702281 0.471218
0.308433 0.538422 0.296570
0.321965 0.538422 0.296570
0.335622 0.538422 0.296570
0.349385 0.538422 0.296570
0.363242 0.538422 0.296570
0.377181 0.538422 0.296570
0.391196 0.538422 0.296570
0.405280 0.538422 0.296570
0.419426 0.538422 0.296570
0.433631 0.538422 0.296570
0.447891 0.538422 0.296570
0.462201 0.538422 0.296570
0.476558 0.538422 0.296570
0.490961 0.538422 0.296570
0.505407 0.538422 0.296570
0.519893 0.538422 0.296570
0.534418 0.538422 0.296570
0.548979 0.538422 0.296570
0.575519 0.550135 0.308053
0.602120 0.561875 0.319563
0.628779 0.573641 0.331099
0.655496 0.585433 0.342659
0.682267 0.597248 0.354243
0.709090 0.609086 0.365849
0.735965 0.620947 0.377477
0.762888 0.632830 0.389127
0.789860 0.644734 0.400797
0.816877 0.656658 0.412487
0.843939 0.668601 0.424197
0.871045 0.680564 0.435925
0.898192 0.692546 0.447672
0.925381 0.704546 0.459436
0.952610 0.716563 0.471218
0.320376 0.564451 0.308053
0.333908 0.564451 0.308053
0.347565 0.564451 0.308053
0.361328 0.564451 0.308053
0.375184 0.564451 0.308053
0.389124 0.564451 0.308053
0.403139 0.564451 0.308053
0.417223 0.564451 0.308053
0.431369 0.564451 0.308053
0.445574 0.564451 0.308053
0.459833 0.564451 0.308053
0.474143 0.564451 0.308053
0.488501 0.564451 0.308053
0.502904 0.564451 0.308053
0.517350 0.564451 0.308053
0.531836 0.564451 0.308053
0.546361 0.564451 0.308053
0.560922 0.564451 0.308053
0.575519 0.564451 0.308053
0.602120 0.576191 0.319563
0.628779 0.587957 0.331099
0.655496 0.599749 0.342659
0.682267 0.611564 0.354243
0.709090 0.623402 0.365849
0.735965 0.635263 0.377477
0.762888 0.647146 0.389127
0.789860 0.659050 0.400797
0.816877 0.670974 0.412487
0.843939 0.682917 0.424197
0.871045 0.694880 0.435925
0.898192 0.706862 0.447672
0.925381 0.718862 0.459436
0.952610 0.730879 0.471218
0.332346 0.590540 0.319563
0.345879 0.590540 0.319563
0.359535 0.590540 0.319563
0.373298 0.590540 0.319563
0.387155 0.590540 0.319563
0.401094 0.590540 0.319563
0.415109 0.590540 0.319563
0.429193 0.590540 0.319563
0.443340 0.590540 0.319563
0.457544 0.590540 0.319563
0.471804 0.590540 0.319563
0.486114 0.590540 0.319563
0.500472 0.590540 0.319563
0.514874 0.590540 0.319563
0.529320 0.590540 0.319563
0.543806 0.590540 0.319563
0.558331 0.590540 0.319563
0.572892 0.590540 0.319563
0.587489 0.590540 0.319563
0.602120 0.590540 0.319563
0.628779 0.602306 0.331099
0.655496 0.614098 0.342659
0.682267 0.625913 0.354243
0.709090 0.637751 0.365849
0.735965 0.649612 0.377477
0.762888 0.661495 0.389127
0.789860 0.673399 0.400797
0.816877 0.685323 0.412487
0.843939 0.697266 0.424197
0.871045 0.709229 0.435925
0.898192 0.721211 0.447672
0.925381 0.733211 0.459436
0.952610 0.745228 0.471218
0.344343 0.616687 0.331099
0.357875 0.616687 0.331099
0.371532 0.616687 0.331099
0.385295 0.616687 0.331099
0.399152 0.616687 0.331099
0.413091 0.616687 0.331099
0.427106 0.616687 0.331099
0.441190 0.616687 0.331099
0.455336 0.616687 0.331099
0.469541 0.616687 0.331099
0.483801 0.616687 0.331099
0.498111 0.616687 0.331099
0.512468 0.616687 0.331099
0.526871 0.616687 0.331099
0.541317 0.616687 0.331099
0.555803 0.616687 0.331099
0.570328 0.616687 0.331099
0.584889 0.616687 0.331099
0.599486 0.616687 0.331099
0.614116 0.616687 0.331099
0.628779 0.616687 0.331099
0.655496 0.628479 0.342659
0.682267 0.640294 0.354243
0.709090 0.652132 0.365849
0.735965 0.663993 0.377477
0.762888 0.675876 0.389127
0.789860 0.687780 0.400797
0.816877 0.699704 0.412487
0.843939 0.711647 0.424197
0.871045 0.723610 0.435925
0.898192 0.735592 0.447672
0.925381 0.747592 0.459436
0.952610 0.759609 0.471218
0.356365 0.642890 0.342659
0.369898 0.642890 0.342659
0.383554 0.642890 0.342659
0.397317 0.642890 0.342659
0.411174 0.642890 0.342659
0.425114 0.642890 0.342659
0.439129 0.642890 0.342659
0.453212 0.642890 0.342659
0.467359 0.642890 0.342659
0.481564 0.642890 0.342659
0.495823 0.642890 0.342659
0.510133 0.642890 0.342659
0.524491 0.642890 0.342659
0.538894 0.642890 0.342659
0.553339 0.642890 0.342659
0.567825 0.642890 0.342659
0.582350 0.642890 0.342659
0.596912 0.642890 0.342659
0.611508 0.642890 0.342659
0.626139 0.642890 0.342659
0.640802 0.642890 0.342659
0.655496 0.642890 0.342659
0.682267 0.654705 0.354243
0.709090 0.666544 0.365849
0.735965 0.678405 0.377477
0.762888 0.690287 0.389127
0.789860 0.702191 0.400797
0.816877 0.714115 0.412487
0.843939 0.726059 0.424197
0.871045 0.738022 0.435925
0.898192 0.750003 0.447672
0.925381 0.762003 0.459436
0.952610 0.774020 0.471218
0.368412 0.669146 0.354243
0.381945 0.669146 0.354243
0.395601 0.669146 0.354243
0.409364 0.669146 0.354243
0.423221 0.669146 0.354243
0.437161 0.669146 0.354243
0.451176 0.669146 0.354243
0.465259 0.669146 0.354243
0.479406 0.669146 0.354243
0.493611 0.669146 0.354243
0.507870 0.669146 0.354243
0.522180 0.669146 0.354243
0.536538 0.669146 0.354243
0.550941 0.669146 0.354243
0.565386 0.669146 0.354243
0.579872 0.669146 0.354243
0.594397 0.669146 0.354243
0.608959 0.669146 0.354243
0.623555 0.669146 0.354243
0.638186 0.669146 0.354243
0.652849 0.669146 0.354243
0.667543 0.669146 0.354243
0.682267 0.669146 0.354243
0.709090 0.680985 0.365849
0.735965 0.692846 0.377477
0.762888 0.704728 0.389127
0.789860 0.716632 0.400797
0.816877 0.728556 0.412487
0.843939 0.740500 0.424197
0.871045 0.752463 0.435925
0.898192 0.764444 0.447672
0.925381 0.776444 0.459436
0.952610 0.788461 0.471218
0.380483 0.695454 0.365849
0.394015 0.695454 0.365849
0.407672 0.695454 0.365849
0.421435 0.695454 0.365849
0.435292 0.695454 0.365849
0.449231 0.695454 0.365849
0.463246 0.695454 0.365849
0.477330 0.695454 0.365849
0.491476 0.695454 0.365849
0.505681 0.695454 0.365849
0.519940 0.695454 0.365849
0.534251 0.695454 0.365849
0.548608 0.695454 0.365849
0.563011 0.695454 0.365849
0.577457 0.695454 0.365849
0.591943 0.695454 0.365849
0.606468 0.695454 0.365849
0.621029 0.695454 0.365849
0.635626 0.695454 0.365849
0.650256 0.695454 0.365849
0.664919 0.695454 0.365849
0.679613 0.695454 0.365849
0.694337 0.695454 0.365849
0.709090 0.695454 0.365849
0.735965 0.707315 0.377477
0.762888 0.719197 0.389127
0.789860 0.731101 0.400797
0.816877 0.743025 0.412487
0.843939 0.754969 0.424197
0.871045 0.766932 0.435925
0.898192 0.778913 0.447672
0.925381 0.790913 0.459436
0.952610 0.802931 0.471218
0.392576 0.721812 0.377477
0.406109 0.721812 0.377477
0.419765 0.721812 0.377477
0.433529 0.721812 0.377477
0.447385 0.721812 0.377477
0.461325 0.721812 0.377477
0.475340 0.721812 0.377477
0.489423 0.721812 0.377477
0.503570 0.721812 0.377477
0.517775 0.721812 0.377477
0.532034 0.721812 0.377477
0.546344 0.721812 0.377477
0.560702 0.721812 0.377477
0.575105 0.721812 0.377477
0.589550 0.721812 0.377477
0.604037 0.721812 0.377477
0.618561 0.721812 0.377477
0.633123 0.721812 0.377477
0.647719 0.721812 0.377477
0.662350 0.721812 0.377477
0.677013 0.721812 0.377477
0.691707 0.721812 0.377477
0.706431 0.721812 0.377477
0.721184 0.721812 0.377477
0.735965 0.721812 0.377477
0.762888 0.733694 0.389127
0.789860 0.745598 0.400797
0.816877 0.757522 0.412487
0.843939 0.769466 0.424197
0.871045 0.781429 0.435925
0.898192 0.793410 0.447672
0.925381 0.805410 0.459436
0.952610 0.817427 0.471218
0.404692 0.748217 0.389127
0.418225 0.748217 0.389127
0.431881 0.748217 0.389127
0.445644 0.748217 0.389127
0.459501 0.748217 0.389127
0.473440 0.748217 0.389127
0.487455 0.748217 0.389127
0.501539 0.748217 0.389127
0.515685 0.748217 0.389127
0.529890 0.748217 0.389127
0.544150 0.748217 0.389127
0.558460 0.748217 0.389127
0.572818 0.748217 0.389127
0.587220 0.748217 0.389127
0.601666 0.748217 0.389127
0.616152 0.748217 0.389127
0.630677 0.748217 0.389127
0.645238 0.748217 0.389127
0.659835 0.748217 0.389127
0.674466 0.748217 0.389127
0.689128 0.748217 0.389127
0.703822 0.748217 0.389127
0.718546 0.748217 0.389127
0.733299 0.748217 0.389127
0.748080 0.748217 0.389127
0.762888 0.748217 0.389127
0.789860 0.760121 0.400797
0.816877 0.772045 0.412487
0.843939 0.783989 0.424197
0.871045 0.795952 0.435925
0.898192 0.807933 0.447672
0.925381 0.819933 0.459436
0.952610 0.831950 0.471218
0.416829 0.774670 0.400797
0.430362 0.774670 0.400797
0.444018 0.774670 0.400797
0.457781 0.774670 0.400797
0.471638 0.774670 0.400797
0.485577 0.774670 0.400797
0.499592 0.774670 0.400797
0.513676 0.774670 0.400797
0.527823 0.774670 0.400797
0.542027 0.774670 0.400797
0.556287 0.774670 0.400797
0.570597 0.774670 0.400797
0.584955 0.774670 0.400797
0.599358 0.774670 0.400797
0.613803 0.774670 0.400797
0.628289 0.774670 0.400797
0.642814 0.774670 0.400797
0.657375 0.774670 0.400797
0.671972 0.774670 0.400797
0.686603 0.774670 0.400797
0.701265 0.774670 0.400797
0.715959 0.774670 0.400797
0.730684 0.774670 0.400797
0.745436 0.774670 0.400797
0.760217 0.774670 0.400797
0.775025 0.774670 0.400797
0.789860 0.774670 0.400797
