backend/luts/sun_bleached.cube
TITLE "Sun Bleached"
LUT_3D_SIZE 9
DOMAIN_MIN 0.0 0.0 0.0
DOMAIN_MAX 1.0 1.0 1.0
0.111622 0.109476 0.107329
0.211274 0.153457 0.150448
0.313429 0.198542 0.194649
0.417305 0.244388 0.239596
0.522504 0.290817 0.285114
0.628779 0.337721 0.331099
0.735965 0.385027 0.377477
0.843939 0.432681 0.424197
0.952610 0.480642 0.471218
0.156466 0.207211 0.150448
0.211274 0.207211 0.150448
0.313429 0.252297 0.194649
0.417305 0.298142 0.239596
0.522504 0.344571 0.285114
0.628779 0.391476 0.331099
0.735965 0.438781 0.377477
0.843939 0.486435 0.424197
0.952610 0.534397 0.471218
0.202435 0.307401 0.194649
0.257244 0.307401 0.194649
0.313429 0.307401 0.194649
0.417305 0.353247 0.239596
0.522504 0.399676 0.285114
0.628779 0.446580 0.331099
0.735965 0.493886 0.377477
0.843939 0.541540 0.424197
0.952610 0.589501 0.471218
0.249179 0.409280 0.239596
0.303988 0.409280 0.239596
0.360173 0.409280 0.239596
0.417305 0.409280 0.239596
0.522504 0.455709 0.285114
0.628779 0.502613 0.331099
0.735965 0.549919 0.377477
0.843939 0.597573 0.424197
0.952610 0.645535 0.471218
0.296519 0.512456 0.285114
0.351328 0.512456 0.285114
0.407512 0.512456 0.285114
0.464644 0.512456 0.285114
0.522504 0.512456 0.285114
0.628779 0.559360 0.331099
0.735965 0.606666 0.377477
0.843939 0.654320 0.424197
0.952610 0.702281 0.471218
0.344343 0.616687 0.331099
0.399152 0.616687 0.331099
0.455336 0.616687 0.331099
0.512468 0.616687 0.331099
0.570328 0.616687 0.331099
0.628779 0.616687 0.331099
0.735965 0.663993 0.377477
0.843939 0.711647 0.424197
0.952610 0.759609 0.471218
0.392576 0.721812 0.377477
0.447385 0.721812 0.377477
0.503570 0.721812 0.377477
0.560702 0.721812 0.377477
0.618561 0.721812 0.377477
0.677013 0.721812 0.377477
0.735965 0.721812 0.377477
0.843939 0.769466 0.424197
0.952610 0.817427 0.471218
0.441165 0.827709 0.424197
0.495973 0.827709 0.424197
0.552158 0.827709 0.424197
0.609290 0.827709 0.424197
0.667150 0.827709 0.424197
0.725601 0.827709 0.424197
0.784553 0.827709 0.424197
0.843939 0.827709 0.424197
0.952610 0.875671 0.471218
0.490067 0.934291 0.471218
0.544875 0.934291 0.471218
0.601060 0.934291 0.471218
0.658192 0.934291 0.471218
0.716052 0.934291 0.471218
0.774503 0.934291 0.471218
0.833455 0.934291 0.471218
0.892841 0.934291 0.471218
0.952610 0.934291 0.471218
0.156466 0.153457 0.203148
0.211274 0.153457 0.203148
0.313429 0.198542 0.247350
0.417305 0.244388 0.292296
0.522504 0.290817 0.337815
0.628779 0.337721 0.383799
0.735965 0.385027 0.430178
0.843939 0.432681 0.476897
0.952610 0.480642 0.523919
0.156466 0.207211 0.203148
0.211274 0.207211 0.203148
0.313429 0.252297 0.247350
0.417305 0.298142 0.292296
0.522504 0.344571 0.337815
0.628779 0.391476 0.383800
0.735965 0.438781 0.430178
0.843939 0.486435 0.476898
0.952610 0.534397 0.523919
0.202435 0.307401 0.247350
0.257244 0.307401 0.247350
0.313429 0.307401 0.247350
0.417305 0.353247 0.292296
0.522504 0.399676 0.337815
0.628779 0.446580 0.383800
0.735965 0.493886 0.430178
0.843939 0.541540 0.476898
0.952610 0.589501 0.523919
0.249179 0.409280 0.292296
0.303988 0.409280 0.292296
0.360173 0.409280 0.292296
0.417305 0.409280 0.292296
0.522504 0.455709 0.337815
0.628779 0.502613 0.383800
0.735965 0.549919 0.430178
0.843939 0.597573 0.476898
0.952610 0.645535 0.523919
0.296519 0.512456 0.337815
0.351328 0.512456 0.337815
0.407512 0.512456 0.337815
0.464645 0.512456 0.337815
0.522504 0.512456 0.337815
0.628779 0.559360 0.383800
0.735965 0.606666 0.430178
0.843939 0.654320 0.476898
0.952610 0.702282 0.523919
0.344343 0.616687 0.383800
0.399152 0.616687 0.383800
0.455336 0.616687 0.383800
0.512468 0.616687 0.383800
0.570328 0.616687 0.383800
0.628779 0.616687 0.383800
0.735965 0.663993 0.430178
0.843939 0.711647 0.476898
0.952610 0.759609 0.523919
0.392576 0.721812 0.430178
0.447385 0.721812 0.430178
0.503570 0.721812 0.430178
0.560702 0.721812 0.430178
0.618561 0.721812 0.430178
0.677013 0.721812 0.430178
0.735965 0.721812 0.430178
0.843939 0.769466 0.476898
0.952610 0.817427 0.523919
0.441165 0.827709 0.476897
0.495973 0.827709 0.476898
0.552158 0.827709 0.476898
0.609290 0.827709 0.476898
0.667150 0.827709 0.476898
0.725601 0.827709 0.476898
0.784553 0.827709 0.476898
0.843939 0.827709 0.476898
0.952610 0.875671 0.523919
0.490067 0.934291 0.523919
0.544875 0.934291 0.523919
0.601060 0.934291 0.523919
0.658192 0.934291 0.523919
0.716052 0.934291 0.523919
0.774503 0.934291 0.523919
0.833455 0.934291 0.523919
0.892841 0.934291 0.523919
0.952610 0.934291 0.523919
0.202435 0.198542 0.301374
0.257244 0.198542 0.301374
0.313429 0.198542 0.301374
0.417305 0.244388 0.346320
0.522504 0.290817 0.391839
0.628779 0.337721 0.437823
0.735965 0.385027 0.484202
0.843939 0.432681 0.530921
0.952610 0.480642 0.577943
0.202435 0.252297 0.301374
0.257244 0.252297 0.301374
0.313429 0.252297 0.301374
0.417305 0.298142 0.346320
0.522504 0.344571 0.391839
0.628779 0.391476 0.437823
0.735965 0.438781 0.484202
0.843939 0.486435 0.530921
0.952610 0.534397 0.577943
0.202435 0.307401 0.301374
0.257244 0.307401 0.301374
0.313429 0.307401 0.301374
0.417305 0.353247 0.346320
0.522504 0.399676 0.391839
0.628779 0.446580 0.437823
0.735965 0.493886 0.484202
0.843939 0.541540 0.530921
0.952610 0.589501 0.577943
0.249179 0.409280 0.346320
0.303988 0.409280 0.346320
0.360173 0.409280 0.346320
0.417305 0.409280 0.346320
0.522504 0.455709 0.391839
0.628779 0.502613 0.437823
0.735965 0.549919 0.484202
0.843939 0.597573 0.530921
0.952610 0.645535 0.577943
0.296519 0.512456 0.391839
0.351328 0.512456 0.391839
0.407512 0.512456 0.391839
0.464644 0.512456 0.391839
0.522504 0.512456 0.391839
0.628779 0.559360 0.437823
0.735965 0.606666 0.484202
0.843939 0.654320 0.530921
0.952610 0.702281 0.577943
0.344343 0.616687 0.437823
0.399152 0.616687 0.437823
0.455336 0.616687 0.437823
0.512469 0.616687 0.437823
0.570328 0.616687 0.437823
0.628779 0.616687 0.437823
0.735965 0.663993 0.484202
0.843939 0.711647 0.530921
0.952610 0.759609 0.577943
0.392576 0.721812 0.484202
0.447385 0.721812 0.484202
0.503570 0.721812 0.484202
0.560702 0.721812 0.484202
0.618561 0.721812 0.484202
0.677013 0.721812 0.484202
0.735965 0.721812 0.484202
0.843939 0.769466 0.530921
0.952610 0.817427 0.577943
0.441165 0.827709 0.530921
0.495973 0.827709 0.530921
0.552158 0.827709 0.530921
0.609290 0.827709 0.530921
0.667150 0.827709 0.530921
0.725601 0.827709 0.530921
0.784553 0.827709 0.530921
0.843939 0.827709 0.530921
0.952610 0.875671 0.577943
0.490067 0.934291 0.577943
0.544875 0.934291 0.577943
0.601060 0.934291 0.577943
0.658192 0.934291 0.577943
0.716052 0.934291 0.577943
0.774503 0.934291 0.577943
0.833455 0.934291 0.577943
0.892841 0.934291 0.577943
0.952610 0.934291 0.577943
0.249179 0.244388 0.401255
0.303988 0.244388 0.401255
0.360173 0.244388 0.401255
0.417305 0.244388 0.401255
0.522504 0.290817 0.446773
0.628779 0.337721 0.492758
0.735965 0.385027 0.539137
0.843939 0.432681 0.585856
0.952610 0.480642 0.632877
0.249179 0.298142 0.401255
0.303988 0.298142 0.401255
0.360173 0.298142 0.401255
0.417305 0.298142 0.401255
0.522504 0.344571 0.446774
0.628779 0.391476 0.492758
0.735965 0.438781 0.539136
0.843939 0.486435 0.585856
0.952610 0.534397 0.632877
0.249179 0.353247 0.401255
0.303988 0.353247 0.401255
0.360173 0.353247 0.401255
0.417305 0.353247 0.401255
0.522504 0.399676 0.446774
0.628779 0.446580 0.492758
0.735965 0.493886 0.539136
0.843939 0.541540 0.585856
0.952610 0.589502 0.632877
0.249179 0.409280 0.401255
0.303988 0.409280 0.401255
0.360173 0.409280 0.401255
0.417305 0.409280 0.401255
0.522504 0.455709 0.446774
0.628779 0.502613 0.492758
0.735965 0.549919 0.539136
0.843939 0.597573 0.585856
0.952610 0.645535 0.632877
0.296519 0.512456 0.446774
0.351328 0.512456 0.446774
0.407512 0.512456 0.446774
0.464645 0.512456 0.446774
0.522504 0.512456 0.446774
0.628779 0.559360 0.492758
0.735965 0.606666 0.539136
0.843939 0.654320 0.585856
0.952610 0.702281 0.632877
0.344343 0.616687 0.492758
0.399152 0.616687 0.492758
0.455336 0.616687 0.492758
0.512468 0.616687 0.492758
0.570328 0.616687 0.492758
0.628779 0.616687 0.492758
0.735965 0.663993 0.539136
0.843939 0.711647 0.585856
0.952610 0.759609 0.632877
0.392576 0.721812 0.539136
0.447385 0.721812 0.539136
0.503570 0.721812 0.539136
0.560702 0.721812 0.539136
0.618561 0.721812 0.539136
0.677013 0.721812 0.539136
0.735965 0.721812 0.539136
0.843939 0.769466 0.585856
0.952610 0.817427 0.632877
0.441165 0.827709 0.585856
0.495973 0.827709 0.585856
0.552158 0.827709 0.585856
0.609290 0.827709 0.585856
0.667150 0.827709 0.585856
0.725601 0.827709 0.585856
0.784553 0.827709 0.585856
0.843939 0.827709 0.585856
0.952610 0.875671 0.632877
0.490067 0.934291 0.632877
0.544875 0.934291 0.632877
0.601060 0.934291 0.632877
0.658192 0.934291 0.632877
0.716052 0.934291 0.632877
0.774503 0.934291 0.632877
0.833455 0.934291 0.632877
0.892841 0.934291 0.632877
0.952610 0.934291 0.632877
0.296519 0.290817 0.502407
0.351328 0.290817 0.502407
0.407512 0.290817 0.502407
0.464645 0.290817 0.502407
0.522504 0.290817 0.502407
0.628779 0.337721 0.548392
0.735965 0.385027 0.594770
0.843939 0.432681 0.641490
0.952610 0.480642 0.688511
0.296519 0.344571 0.502407
0.351328 0.344571 0.502407
0.407512 0.344571 0.502407
0.464644 0.344571 0.502407
0.522504 0.344571 0.502407
0.628779 0.391476 0.548392
0.735965 0.438781 0.594770
0.843939 0.486435 0.641490
0.952610 0.534397 0.688511
0.296519 0.399676 0.502407
0.351328 0.399676 0.502407
0.407512 0.399676 0.502407
0.464645 0.399676 0.502407
0.522504 0.399676 0.502407
0.628779 0.446580 0.548392
0.735965 0.493886 0.594770
0.843939 0.541540 0.641490
0.952610 0.589502 0.688511
0.296519 0.455709 0.502407
0.351328 0.455709 0.502407
0.407512 0.455709 0.502407
0.464644 0.455709 0.502407
0.522504 0.455709 0.502407
0.628779 0.502613 0.548392
0.735965 0.549919 0.594770
0.843939 0.597573 0.641490
0.952610 0.645535 0.688511
0.296519 0.512456 0.502407
0.351328 0.512456 0.502407
0.407512 0.512456 0.502407
0.464645 0.512456 0.502407
0.522504 0.512456 0.502407
0.628779 0.559360 0.548392
0.735965 0.606666 0.594770
0.843939 0.654320 0.641490
0.952610 0.702281 0.688511
0.344343 0.616687 0.548392
0.399152 0.616687 0.548392
0.455336 0.616687 0.548392
0.512468 0.616687 0.548392
0.570328 0.616687 0.548392
0.628779 0.616687 0.548392
0.735965 0.663993 0.594770
0.843939 0.711647 0.641490
0.952610 0.759609 0.688511
0.392576 0.721812 0.594770
0.447385 0.721812 0.594770
0.503570 0.721812 0.594770
0.560702 0.721812 0.594770
0.618561 0.721812 0.594770
0.677013 0.721812 0.594770
0.735965 0.721812 0.594770
0.843939 0.769466 0.641490
0.952610 0.817427 0.688511
0.441165 0.827709 0.641490
0.495973 0.827709 0.641490
0.552158 0.827709 0.641490
0.609290 0.827709 0.641490
0.667150 0.827709 0.641490
0.725601 0.827709 0.641490
0.784553 0.827709 0.641490
0.843939 0.827709 0.641490
0.952610 0.875671 0.688511
0.490067 0.934291 0.688511
0.544875 0.934291 0.688511
0.601060 0.934291 0.688511
0.658192 0.934291 0.688511
0.716052 0.934291 0.688511
0.774503 0.934291 0.688511
0.833455 0.934291 0.688511
0.892841 0.934291 0.688511
0.952610 0.934291 0.688511
0.344343 0.337721 0.604595
0.399152 0.337721 0.604595
0.455336 0.337721 0.604595
0.512468 0.337721 0.604595
0.570328 0.337721 0.604595
0.628779 0.337721 0.604595
0.735965 0.385027 0.650974
0.843939 0.432681 0.697693
0.952610 0.480642 0.744715
0.344343 0.391476 0.604595
0.399152 0.391476 0.604595
0.455336 0.391476 0.604595
0.512468 0.391476 0.604595
0.570328 0.391476 0.604595
0.628779 0.391476 0.604595
0.735965 0.438781 0.650974
0.843939 0.486435 0.697693
0.952610 0.534397 0.744715
0.344343 0.446580 0.604595
0.399152 0.446580 0.604595
0.455336 0.446580 0.604595
0.512469 0.446580 0.604595
0.570328 0.446580 0.604595
0.628779 0.446580 0.604595
0.735965 0.493886 0.650974
0.843939 0.541540 0.697693
0.952610 0.589502 0.744715
0.344343 0.502613 0.604595
0.399152 0.502613 0.604595
0.455336 0.502613 0.604595
0.512468 0.502613 0.604595
0.570328 0.502613 0.604595
0.628779 0.502613 0.604595
0.735965 0.549919 0.650974
0.843939 0.597573 0.697693
0.952610 0.645535 0.744715
0.344343 0.559360 0.604595
0.399152 0.559360 0.604595
0.455336 0.559360 0.604595
0.512468 0.559360 0.604595
0.570328 0.559360 0.604595
0.628779 0.559360 0.604595
0.735965 0.606666 0.650974
0.843939 0.654320 0.697693
0.952610 0.702281 0.744715
0.344343 0.616687 0.604595
0.399152 0.616687 0.604595
0.455336 0.616687 0.604595
0.512468 0.616687 0.604595
0.570328 0.616687 0.604595
0.628779 0.616687 0.604595
0.735965 0.663993 0.650974
0.843939 0.711647 0.697693
0.952610 0.759609 0.744715
0.392576 0.721812 0.650974
0.447385 0.721812 0.650974
0.503570 0.721812 0.650974
0.560702 0.721812 0.650974
0.618561 0.721812 0.650974
0.677013 0.721812 0.650974
0.735965 0.721812 0.650974
0.843939 0.769466 0.697693
0.952610 0.817427 0.744715
0.441165 0.827709 0.697693
0.495973 0.827709 0.697693
0.552158 0.827709 0.697693
0.609290 0.827709 0.697693
0.667150 0.827709 0.697693
0.725601 0.827709 0.697693
0.784553 0.827709 0.697693
0.843939 0.827709 0.697693
0.952610 0.875671 0.744715
0.490067 0.934291 0.744715
0.544875 0.934291 0.744715
0.601060 0.934291 0.744715
0.658192 0.934291 0.744715
0.716052 0.934291 0.744715
0.774503 0.934291 0.744715
0.833455 0.934291 0.744715
0.892841 0.934291 0.744715
0.952610 0.934291 0.744715
0.392576 0.385027 0.707658
0.447385 0.385027 0.707658
0.503570 0.385027 0.707658
0.560702 0.385027 0.707658
0.618561 0.385027 0.707658
0.677013 0.385027 0.707658
0.735965 0.385027 0.707658
0.843939 0.432681 0.754378
0.952610 0.480642 0.801399
0.392576 0.438781 0.707658
0.447385 0.438781 0.707658
0.503570 0.438781 0.707658
0.560702 0.438781 0.707658
0.618561 0.438781 0.707658
0.677013 0.438781 0.707658
0.735965 0.438781 0.707658
0.843939 0.486435 0.754378
0.952610 0.534397 0.801399
0.392576 0.493886 0.707658
0.447385 0.493886 0.707658
0.503570 0.493886 0.707658
0.560702 0.493886 0.707658
0.618561 0.493886 0.707658
0.677013 0.493886 0.707658
0.735965 0.493886 0.707658
0.843939 0.541540 0.754378
0.952610 0.589502 0.801399
0.392576 0.549919 0.707658
0.447385 0.549919 0.707658
0.503570 0.549919 0.707658
0.560702 0.549919 0.707658
0.618561 0.549919 0.707658
0.677013 0.549919 0.707658
0.735965 0.549919 0.707658
0.843939 0.597573 0.754378
0.952610 0.645535 0.801399
0.392576 0.606666 0.707658
0.447385 0.606666 0.707658
0.503570 0.606666 0.707658
0.560702 0.606666 0.707658
0.618561 0.606666 0.707658
0.677013 0.606666 0.707658
0.735965 0.606666 0.707658
0.843939 0.654320 0.754378
0.952610 0.702281 0.801399
0.392576 0.663993 0.707658
0.447385 0.663993 0.707658
0.503570 0.663993 0.707658
0.560702 0.663993 0.707658
0.618561 0.663993 0.707658
0.677013 0.663993 0.707658
0.735965 0.663993 0.707658
0.843939 0.711647 0.754378
0.952610 0.759609 0.801399
0.392576 0.721812 0.707658
0.447385 0.721812 0.707658
0.503570 0.721812 0.707658
0.560702 0.721812 0.707658
0.618561 0.721812 0.707658
0.677013 0.721812 0.707658
0.735965 0.721812 0.707658
0.843939 0.769466 0.754378
0.952610 0.817427 0.801399
0.441165 0.827709 0.754378
0.495973 0.827709 0.754378
0.552158 0.827709 0.754378
0.609290 0.827709 0.754378
0.667150 0.827709 0.754378
0.725601 0.827709 0.754378
0.784553 0.827709 0.754378
0.843939 0.827709 0.754378
0.952610 0.875671 0.801399
0.490067 0.934291 0.801399
0.544875 0.934291 0.801399
0.601060 0.934291 0.801399
0.658192 0.934291 0.801399
0.716052 0.934291 0.801399
0.774503 0.934291 0.801399
0.833455 0.934291 0.801399
0.892841 0.934291 0.801399
0.952610 0.934291 0.801399
0.441165 0.432681 0.811480
0.495973 0.432681 0.811480
0.552158 0.432681 0.811480
0.609290 0.432681 0.811480
0.667150 0.432681 0.811480
0.725601 0.432681 0.811480
0.784553 0.432681 0.811480
0.843939 0.432681 0.811480
0.952610 0.480642 0.858501
0.441165 0.486435 0.811480
0.495973 0.486435 0.811480
0.552158 0.486435 0.811480
0.609290 0.486435 0.811480
0.667150 0.486435 0.811480
0.725601 0.486435 0.811480
0.784553 0.486435 0.811480
0.843939 0.486435 0.811480
0.952610 0.534397 0.858501
0.441165 0.541540 0.811480
0.495973 0.541540 0.811480
0.552158 0.541540 0.811480
0.609290 0.541540 0.811480
0.667150 0.541540 0.811480
0.725601 0.541540 0.811480
0.784553 0.541540 0.811480
0.843939 0.541540 0.811480
0.952610 0.589502 0.858501
0.441165 0.597573 0.811480
0.495973 0.597573 0.811480
0.552158 0.597573 0.811480
0.609290 0.597573 0.811480
0.667150 0.597573 0.811480
0.725601 0.597573 0.811480
0.784553 0.597573 0.811480
0.843939 0.597573 0.811480
0.952610 0.645535 0.858501
0.441165 0.654320 0.811480
0.495973 0.654320 0.811480
0.552158 0.654320 0.811480
0.609290 0.654320 0.811480
0.667150 0.654320 0.811480
0.725601 0.654320 0.811480
0.784553 0.654320 0.811480
0.843939 0.654320 0.811480
0.952610 0.702281 0.858501
0.441165 0.711647 0.811480
0.495973 0.711647 0.811480
0.552158 0.711647 0.811480
0.609290 0.711647 0.811480
0.667150 0.711647 0.811480
0.725601 0.711647 0.811480
0.784553 0.711647 0.811480
0.843939 0.711647 0.811480
0.952610 0.759609 0.858501
0.441165 0.769466 0.811480
0.495973 0.769466 0.811480
0.552158 0.769466 0.811480
0.609290 0.769466 0.811480
0.667150 0.769466 0.811480
0.725601 0.769466 0.811480
0.784553 0.769466 0.811480
0.843939 0.769466 0.811480
0.952610 0.817427 0.858501
0.441165 0.827709 0.811480
0.495973 0.827709 0.811480
0.552158 0.827709 0.811480
0.609290 0.827709 0.811480
0.667150 0.827709 0.811480
0.725601 0.827709 0.811480
0.784553 0.827709 0.811480
0.843939 0.827709 0.811480
0.952610 0.875671 0.858501
0.490067 0.934291 0.858501
0.544875 0.934291 0.858501
0.601060 0.934291 0.858501
0.658192 0.934291 0.858501
0.716052 0.934291 0.858501
0.774503 0.934291 0.858501
0.833455 0.934291 0.858501
0.892841 0.934291 0.858501
0.952610 0.934291 0.858501
0.490067 0.480642 0.915971
0.544875 0.480642 0.915971
0.601060 0.480642 0.915971
0.658192 0.480642 0.915971
0.716052 0.480642 0.915971
0.774503 0.480642 0.915971
0.833455 0.480642 0.915971
0.892841 0.480642 0.915971
0.952610 0.480642 0.915971
0.490067 0.534397 0.915971
0.544875 0.534397 0.915971
0.601060 0.534397 0.915971
0.658192 0.534397 0.915971
0.716052 0.534397 0.915971
0.774503 0.534397 0.915971
0.833455 0.534397 0.915971
0.892841 0.534397 0.915971
0.952610 0.534397 0.915971
0.490067 0.589502 0.915971
0.544875 0.589501 0.915971
0.601060 0.589502 0.915971
0.658192 0.589502 0.915971
0.716052 0.589502 0.915971
0.774503 0.589502 0.915971
0.833455 0.589502 0.915971
0.892841 0.589502 0.915971
0.952610 0.589502 0.915971
0.490067 0.645535 0.915971
0.544875 0.645535 0.915971
0.601060 0.645535 0.915971
0.658192 0.645535 0.915971
0.716052 0.645535 0.915971
0.774503 0.645535 0.915971
0.833455 0.645535 0.915971
0.892841 0.645535 0.915971
0.952610 0.645535 0.915971
0.490067 0.702282 0.915971
0.544875 0.702282 0.915971
0.601060 0.702282 0.915971
0.658192 0.702281 0.915971
0.716052 0.702281 0.915971
0.774503 0.702281 0.915971
0.833455 0.702281 0.915971
0.892841 0.702281 0.915971
0.952610 0.702281 0.915971
0.490067 0.759609 0.915971
0.544875 0.759609 0.915971
0.601060 0.759609 0.915971
0.658192 0.759609 0.915971
0.716052 0.759609 0.915971
0.774503 0.759609 0.915971
0.833455 0.759609 0.915971
0.892841 0.759609 0.915971
0.952610 0.759609 0.915971
0.490067 0.817427 0.915971
0.544875 0.817427 0.915971
0.601060 0.817427 0.915971
0.658192 0.817427 0.915971
0.716052 0.817427 0.915971
0.774503 0.817427 0.915971
0.833455 0.817427 0.915971
0.892841 0.817427 0.915971
0.952610 0.817427 0.915971
0.490067 0.875671 0.915971
0.544875 0.875671 0.915971
0.601060 0.875671 0.915971
0.658192 0.875671 0.915971
0.716052 0.875671 0.915971
0.774503 0.875671 0.915971
0.833455 0.875671 0.915971
0.892841 0.875671 0.915971
0.952610 0.875671 0.915971
0.490067 0.934291 0.915971
0.544875 0.934291 0.915971
0.601060 0.934291 0.915971
0.658192 0.934291 0.915971
0.716052 0.934291 0.915971
0.774503 0.934291 0.915971
0.833455 0.934291 0.915971
0.892841 0.934291 0.915971
0.952610 0.934291 0.915971
