backend/luts/sun_bleached.cube
TITLE "Sun Bleached"
LUT_3D_SIZE 5
DOMAIN_MIN 0.0 0.0 0.0
DOMAIN_MAX 1.0 1.0 1.0
0.111622 0.109476 0.107329
0.313429 0.198542 0.194649
0.522504 0.290817 0.285114
0.735965 0.385027 0.377477
0.952610 0.480642 0.471218
0.202435 0.307401 0.194649
0.313429 0.307401 0.194649
0.522504 0.399676 0.285114
0.735965 0.493886 0.377477
0.952610 0.589501 0.471218
0.296519 0.512456 0.285114
0.407512 0.512456 0.285114
0.522504 0.512456 0.285114
0.735965 0.606666 0.377477
0.952610 0.702281 0.471218
0.392576 0.721812 0.377477
0.503570 0.721812 0.377477
0.618561 0.721812 0.377477
0.735965 0.721812 0.377477
0.952610 0.817427 0.471218
0.490067 0.934291 0.471218
0.601060 0.934291 0.471218
0.716052 0.934291 0.471218
0.833455 0.934291 0.471218
0.952610 0.934291 0.471218
0.202435 0.198542 0.301374
0.313429 0.198542 0.301374
0.522504 0.290817 0.391839
0.735965 0.385027 0.484202
0.952610 0.480642 0.577943
0.202435 0.307401 0.301374
0.313429 0.307401 0.301374
0.522504 0.399676 0.391839
0.735965 0.493886 0.484202
0.952610 0.589501 0.577943
0.296519 0.512456 0.391839
0.407512 0.512456 0.391839
0.522504 0.512456 0.391839
0.735965 0.606666 0.484202
0.952610 0.702281 0.577943
0.392576 0.721812 0.484202
0.503570 0.721812 0.484202
0.618561 0.721812 0.484202
0.735965 0.721812 0.484202
0.952610 0.817427 0.577943
0.490067 0.934291 0.577943
0.601060 0.934291 0.577943
0.716052 0.934291 0.577943
0.833455 0.934291 0.577943
0.952610 0.934291 0.577943
0.296519 0.290817 0.502407
0.407512 0.290817 0.502407
0.522504 0.290817 0.502407
0.735965 0.385027 0.594770
0.952610 0.480642 0.688511
0.296519 0.399676 0.502407
0.407512 0.399676 0.502407
0.522504 0.399676 0.502407
0.735965 0.493886 0.594770
0.952610 0.589502 0.688511
0.296519 0.512456 0.502407
0.407512 0.512456 0.502407
0.522504 0.512456 0.502407
0.735965 0.606666 0.594770
0.952610 0.702281 0.688511
0.392576 0.721812 0.594770
0.503570 0.721812 0.594770
0.618561 0.721812 0.594770
0.735965 0.721812 0.594770
0.952610 0.817427 0.688511
0.490067 0.934291 0.688511
0.601060 0.934291 0.688511
0.716052 0.934291 0.688511
0.833455 0.934291 0.688511
0.952610 0.934291 0.688511
0.392576 0.385027 0.707658
0.503570 0.385027 0.707658
0.618561 0.385027 0.707658
0.735965 0.385027 0.707658
0.952610 0.480642 0.801399
0.392576 0.493886 0.707658
0.503570 0.493886 0.707658
0.618561 0.493886 0.707658
0.735965 0.493886 0.707658
0.952610 0.589502 0.801399
0.392576 0.606666 0.707658
0.503570 0.606666 0.707658
0.618561 0.606666 0.707658
0.735965 0.606666 0.707658
0.952610 0.702281 0.801399
0.392576 0.721812 0.707658
0.503570 0.721812 0.707658
0.618561 0.721812 0.707658
0.735965 0.721812 0.707658
0.952610 0.817427 0.801399
0.490067 0.934291 0.801399
0.601060 0.934291 0.801399
0.716052 0.934291 0.801399
0.833455 0.934291 0.801399
0.952610 0.934291 0.801399
0.490067 0.480642 0.915971
0.601060 0.480642 0.915971
0.716052 0.480642 0.915971
0.833455 0.480642 0.915971
0.952610 0.480642 0.915971
0.490067 0.589502 0.915971
0.601060 0.589502 0.915971
0.716052 0.589502 0.915971
0.833455 0.589502 0.915971
0.952610 0.589502 0.915971
0.490067 0.702282 0.915971
0.601060 0.702282 0.915971
0.716052 0.702281 0.915971
0.833455 0.702281 0.915971
0.952610 0.702281 0.915971
0.490067 0.817427 0.915971
0.601060 0.817427 0.915971
0.716052 0.817427 0.915971
0.833455 0.817427 0.915971
0.952610 0.817427 0.915971
0.490067 0.934291 0.915971
0.601060 0.934291 0.915971
0.716052 0.934291 0.915971
0.833455 0.934291 0.915971
0.952610 0.934291 0.915971
