backend/luts/teal_orange.cube
TITLE "Teal & Orange"
LUT_3D_SIZE 9
DOMAIN_MIN 0.0 0.0 0.0
DOMAIN_MAX 1.0 1.0 1.0
0.000000 0.000000 0.068000
0.033591 0.000000 0.062349
0.171981 0.000000 0.056698
0.310372 0.000000 0.051047
0.448763 0.000000 0.045396
0.587153 0.000000 0.039744
0.725544 0.000000 0.034093
0.863935 0.000000 0.028442
1.000000 0.000000 0.022791
0.000000 0.085309 0.056906
0.040247 0.085875 0.051255
0.178638 0.086440 0.045603
0.317029 0.087005 0.039952
0.455419 0.087570 0.034301
0.593810 0.088135 0.028650
0.732201 0.088700 0.022999
0.870591 0.089265 0.017348
1.000000 0.089830 0.011697
0.000000 0.221419 0.045811
0.046904 0.221984 0.040160
0.185294 0.222549 0.034509
0.323685 0.223114 0.028858
0.462076 0.223679 0.023207
0.600466 0.224244 0.017556
0.738857 0.224810 0.011905
0.878767 0.226008 0.004987
1.000000 0.229398 0.000000
0.000000 0.357528 0.034717
0.053560 0.358093 0.029066
0.191951 0.358658 0.023415
0.330342 0.359224 0.017764
0.468732 0.359789 0.012113
0.608393 0.360883 0.005403
0.753565 0.364274 0.000000
0.898737 0.367664 0.000000
1.000000 0.371055 0.000000
0.000000 0.493638 0.023623
0.060217 0.494203 0.017972
0.198608 0.494768 0.012321
0.338019 0.495758 0.005819
0.483191 0.499149 0.000000
0.628363 0.502540 0.000000
0.773535 0.505930 0.000000
0.918707 0.509321 0.000000
1.000000 0.512712 0.000000
0.000000 0.629747 0.012528
0.067645 0.630634 0.006235
0.212817 0.634024 0.000000
0.357989 0.637415 0.000000
0.503161 0.640806 0.000000
0.648333 0.644196 0.000000
0.793505 0.647587 0.000000
0.938677 0.650978 0.000000
1.000000 0.654368 0.000000
0.000000 0.768900 0.000000
0.087614 0.772290 0.000000
0.232786 0.775681 0.000000
0.377958 0.779071 0.000000
0.523130 0.782462 0.000000
0.668302 0.785853 0.000000
0.813474 0.789243 0.000000
0.958646 0.792634 0.000000
1.000000 0.795647 0.000000
0.000000 0.910556 0.000000
0.107584 0.913947 0.000000
0.252756 0.917337 0.000000
0.397928 0.920728 0.000000
0.543100 0.924119 0.000000
0.688272 0.927509 0.000000
0.831304 0.930543 0.000000
0.973085 0.933369 0.000000
1.000000 0.936194 0.000000
0.000000 1.000000 0.000000
0.127554 1.000000 0.000000
0.272726 1.000000 0.000000
0.417898 1.000000 0.000000
0.561055 1.000000 0.000000
0.702836 1.000000 0.000000
0.844617 1.000000 0.000000
0.986399 1.000000 0.000000
1.000000 1.000000 0.000000
0.000000 0.000000 0.200845
0.034883 0.000000 0.195194
0.173274 0.000000 0.189543
0.311665 0.000000 0.183892
0.450055 0.000000 0.178241
0.588446 0.000000 0.172590
0.726837 0.000000 0.166939
0.865227 0.000000 0.161288
1.000000 0.000000 0.155637
0.000000 0.085525 0.189751
0.041540 0.086090 0.184100
0.179931 0.086655 0.178449
0.318321 0.087220 0.172798
0.456712 0.087785 0.167147
0.595103 0.088350 0.161496
0.733493 0.088916 0.155844
0.871884 0.089481 0.150193
1.000000 0.090046 0.144542
0.000000 0.221634 0.178657
0.048197 0.222199 0.173006
0.186587 0.222765 0.167355
0.324978 0.223330 0.161703
0.463369 0.223895 0.156052
0.601759 0.224460 0.150401
0.740150 0.225025 0.144750
0.882646 0.227301 0.135678
1.000000 0.230691 0.124376
0.000000 0.357744 0.167562
0.054853 0.358309 0.161911
0.193244 0.358874 0.156260
0.331634 0.359439 0.150609
0.470025 0.360004 0.144958
0.612271 0.362176 0.136094
0.757443 0.365566 0.124792
0.902615 0.368957 0.113490
1.000000 0.372348 0.102187
0.000000 0.493853 0.156468
0.061510 0.494418 0.150817
0.199900 0.494983 0.145166
0.341897 0.497051 0.136510
0.487069 0.500442 0.125208
0.632241 0.503832 0.113905
0.777413 0.507223 0.102603
0.922585 0.510614 0.091301
1.000000 0.514004 0.079999
0.000000 0.629963 0.145374
0.071523 0.631926 0.136926
0.216695 0.635317 0.125623
0.361867 0.638708 0.114321
0.507039 0.642098 0.103019
0.652211 0.645489 0.091717
0.797383 0.648880 0.080415
0.942555 0.652270 0.069112
1.000000 0.655661 0.057810
0.000000 0.770192 0.126039
0.091493 0.773583 0.114737
0.236665 0.776974 0.103435
0.381837 0.780364 0.092133
0.527009 0.783755 0.080830
0.672181 0.787146 0.069528
0.817353 0.790536 0.058226
0.962358 0.793899 0.047202
1.000000 0.796725 0.041551
0.000000 0.911849 0.103851
0.111462 0.915239 0.092548
0.256634 0.918630 0.081246
0.401806 0.922021 0.069944
0.546978 0.925411 0.058642
0.692108 0.928795 0.047410
0.833890 0.931621 0.041759
0.975671 0.934446 0.036108
1.000000 0.937272 0.030456
0.000000 1.000000 0.081662
0.131432 1.000000 0.070360
0.276604 1.000000 0.059058
0.421776 1.000000 0.047755
0.563640 1.000000 0.041967
0.705421 1.000000 0.036315
0.847203 1.000000 0.030664
0.988984 1.000000 0.025013
1.000000 1.000000 0.019362
0.000000 0.000000 0.333691
0.036176 0.000000 0.328040
0.174567 0.000000 0.322389
0.312957 0.000000 0.316737
0.451348 0.000000 0.311086
0.589739 0.000000 0.305435
0.728130 0.000000 0.299784
0.866520 0.000000 0.294133
1.000000 0.000000 0.288482
0.000000 0.085740 0.322596
0.042833 0.086305 0.316945
0.181223 0.086871 0.311294
0.319614 0.087436 0.305643
0.458005 0.088001 0.299992
0.596395 0.088566 0.294341
0.734786 0.089131 0.288690
0.873177 0.089696 0.283039
1.000000 0.090327 0.277255
0.000000 0.221850 0.311502
0.049489 0.222415 0.305851
0.187880 0.222980 0.300200
0.326271 0.223545 0.294549
0.464661 0.224110 0.288898
0.603052 0.224675 0.283247
0.741443 0.225240 0.277596
0.886524 0.228593 0.266369
1.000000 0.231984 0.255067
0.000000 0.357959 0.300408
0.056146 0.358524 0.294757
0.194537 0.359089 0.289106
0.332927 0.359655 0.283455
0.471318 0.360220 0.277803
0.616150 0.363469 0.266785
0.761322 0.366859 0.255483
0.906494 0.370250 0.244180
1.000000 0.373641 0.232878
0.000000 0.494069 0.289314
0.062802 0.494634 0.283662
0.201193 0.495199 0.278011
0.345775 0.498344 0.267201
0.490947 0.501734 0.255898
0.636119 0.505125 0.244596
0.781291 0.508516 0.233294
0.926463 0.511906 0.221992
1.000000 0.515297 0.210690
0.000000 0.630178 0.278219
0.075401 0.633219 0.267616
0.220573 0.636610 0.256314
0.365745 0.640000 0.245012
0.510917 0.643391 0.233710
0.656089 0.646782 0.222408
0.801261 0.650172 0.211105
0.946433 0.653563 0.199803
1.000000 0.656954 0.188501
0.000000 0.771485 0.256730
0.095371 0.774876 0.245428
0.240543 0.778266 0.234126
0.385715 0.781657 0.222823
0.530887 0.785048 0.211521
0.676059 0.788438 0.200219
0.821231 0.791829 0.188917
0.964943 0.794976 0.180047
1.000000 0.797802 0.174396
0.000000 0.913142 0.234541
0.115341 0.916532 0.223239
0.260513 0.919923 0.211937
0.405685 0.923314 0.200635
0.550857 0.926704 0.189333
0.694694 0.929872 0.180255
0.836475 0.932698 0.174604
0.978256 0.935524 0.168953
1.000000 0.938349 0.163302
0.000000 1.000000 0.212353
0.135310 1.000000 0.201051
0.280482 1.000000 0.189748
0.424444 1.000000 0.180463
0.566226 1.000000 0.174812
0.708007 1.000000 0.169161
0.849788 1.000000 0.163510
0.991570 1.000000 0.157859
1.000000 1.000000 0.152208
0.000000 0.000000 0.466536
0.037469 0.000000 0.460885
0.175860 0.000000 0.455234
0.314250 0.000000 0.449583
0.452641 0.000000 0.443932
0.591032 0.000000 0.438281
0.729422 0.000000 0.432630
0.867813 0.000000 0.426978
1.000000 0.000000 0.421327
0.000000 0.085956 0.455442
0.044125 0.086521 0.449791
0.182516 0.087086 0.444140
0.320907 0.087651 0.438489
0.459297 0.088216 0.432838
0.597688 0.088781 0.427186
0.736079 0.089346 0.421535
0.874470 0.089912 0.415884
1.000000 0.091620 0.407946
0.000000 0.222065 0.444348
0.050782 0.222630 0.438696
0.189173 0.223195 0.433045
0.327563 0.223761 0.427394
0.465954 0.224326 0.421743
0.604345 0.224891 0.416092
0.745230 0.226495 0.408362
0.890402 0.229886 0.397060
1.000000 0.233277 0.385758
0.000000 0.358175 0.433253
0.057439 0.358740 0.427602
0.195829 0.359305 0.421951
0.334220 0.359870 0.416300
0.474856 0.361371 0.408778
0.620028 0.364761 0.397476
0.765200 0.368152 0.386173
0.910372 0.371543 0.374871
1.000000 0.374933 0.363569
0.000000 0.494284 0.422159
0.064095 0.494849 0.416508
0.204482 0.496246 0.409194
0.349654 0.499637 0.397891
0.494826 0.503027 0.386589
0.639998 0.506418 0.375287
0.785170 0.509809 0.363985
0.930342 0.513199 0.352683
1.000000 0.516590 0.341380
0.000000 0.631121 0.409609
0.079280 0.634512 0.398307
0.224451 0.637902 0.387005
0.369623 0.641293 0.375703
0.514795 0.644684 0.364401
0.659967 0.648075 0.353098
0.805139 0.651465 0.341796
0.950311 0.654856 0.330494
1.000000 0.658246 0.319192
0.000000 0.772778 0.387421
0.099249 0.776168 0.376119
0.244421 0.779559 0.364816
0.389593 0.782950 0.353514
0.534765 0.786340 0.342212
0.679937 0.789731 0.330910
0.825109 0.793122 0.319608
0.967529 0.796054 0.312893
1.000000 0.798879 0.307242
0.000000 0.914434 0.365232
0.119219 0.917825 0.353930
0.264391 0.921216 0.342628
0.409563 0.924606 0.331326
0.554735 0.927997 0.320023
0.697279 0.930950 0.313101
0.839061 0.933775 0.307449
0.980842 0.936601 0.301798
1.000000 0.939426 0.296147
0.000000 1.000000 0.343044
0.139189 1.000000 0.331741
0.284361 1.000000 0.320439
0.427030 1.000000 0.313308
0.568811 1.000000 0.307657
0.710592 1.000000 0.302006
0.852374 1.000000 0.296355
0.994155 1.000000 0.290704
1.000000 1.000000 0.285053
0.000000 0.000000 0.599382
0.038762 0.000000 0.593731
0.177152 0.000000 0.588079
0.315543 0.000000 0.582428
0.453934 0.000000 0.576777
0.592324 0.000000 0.571126
0.730715 0.000000 0.565475
0.869106 0.000000 0.559824
1.000000 0.000000 0.554173
0.000000 0.086171 0.588287
0.045418 0.086736 0.582636
0.183809 0.087301 0.576985
0.322200 0.087867 0.571334
0.460590 0.088432 0.565683
0.598981 0.088997 0.560032
0.737372 0.089562 0.554381
0.875762 0.090127 0.548730
1.000000 0.092913 0.538637
0.000000 0.222281 0.577193
0.052075 0.222846 0.571542
0.190465 0.223411 0.565891
0.328856 0.223976 0.560240
0.467247 0.224541 0.554589
0.605638 0.225106 0.548938
0.749109 0.227788 0.539053
0.894280 0.231179 0.527751
1.000000 0.234569 0.516448
0.000000 0.358390 0.566099
0.058731 0.358955 0.560448
0.197122 0.359520 0.554797
0.335513 0.360085 0.549145
0.478734 0.362663 0.539469
0.623906 0.366054 0.528166
0.769078 0.369445 0.516864
0.914250 0.372835 0.505562
1.000000 0.376226 0.494260
0.000000 0.494500 0.555004
0.065388 0.495065 0.549353
0.208360 0.497539 0.539884
0.353532 0.500929 0.528582
0.498704 0.504320 0.517280
0.643876 0.507711 0.505978
0.789048 0.511101 0.494676
0.934220 0.514492 0.483373
1.000000 0.517883 0.472071
0.000000 0.632414 0.540300
0.083158 0.635805 0.528998
0.228330 0.639195 0.517696
0.373502 0.642586 0.506394
0.518674 0.645977 0.495091
0.663846 0.649367 0.483789
0.809018 0.652758 0.472487
0.954190 0.656149 0.461185
1.000000 0.659409 0.451181
0.000000 0.774071 0.518112
0.103128 0.777461 0.506809
0.248300 0.780852 0.495507
0.393472 0.784243 0.484205
0.538643 0.787633 0.472903
0.683815 0.791024 0.461601
0.828333 0.794305 0.451389
0.970114 0.797131 0.445738
1.000000 0.799957 0.440087
0.000000 0.915727 0.495923
0.123097 0.919118 0.484621
0.268269 0.922508 0.473319
0.413441 0.925899 0.462016
0.558083 0.929201 0.451597
0.699865 0.932027 0.445946
0.841646 0.934853 0.440295
0.983427 0.937678 0.434644
1.000000 0.940504 0.428993
0.000000 1.000000 0.473734
0.143067 1.000000 0.462432
0.287834 1.000000 0.451805
0.429615 1.000000 0.446154
0.571397 1.000000 0.440503
0.713178 1.000000 0.434852
0.854959 1.000000 0.429201
0.996741 1.000000 0.423550
1.000000 1.000000 0.417898
0.000000 0.000000 0.732227
0.040054 0.000000 0.726576
0.178445 0.000000 0.720925
0.316836 0.000000 0.715274
0.455226 0.000000 0.709623
0.593617 0.000000 0.703972
0.732008 0.000000 0.698320
0.870398 0.000000 0.692669
1.000000 0.000000 0.687018
0.000000 0.086387 0.721133
0.046711 0.086952 0.715482
0.185102 0.087517 0.709831
0.323492 0.088082 0.704179
0.461883 0.088647 0.698528
0.600274 0.089212 0.692877
0.738664 0.089777 0.687226
0.878189 0.090815 0.680630
1.000000 0.094206 0.669328
0.000000 0.222496 0.710038
0.053368 0.223061 0.704387
0.191758 0.223626 0.698736
0.330149 0.224191 0.693085
0.468540 0.224757 0.687434
0.607815 0.225690 0.681046
0.752987 0.229081 0.669744
0.898159 0.232472 0.658441
1.000000 0.235862 0.647139
0.000000 0.358606 0.698944
0.060024 0.359171 0.693293
0.198415 0.359736 0.687642
0.337441 0.360566 0.681462
0.482613 0.363956 0.670159
0.627784 0.367347 0.658857
0.772956 0.370737 0.647555
0.918128 0.374128 0.636253
1.000000 0.377519 0.624951
0.000000 0.494715 0.687850
0.067066 0.495441 0.681877
0.212238 0.498831 0.670575
0.357410 0.502222 0.659273
0.502582 0.505613 0.647971
0.647754 0.509003 0.636669
0.792926 0.512394 0.625366
0.938098 0.515785 0.614064
1.000000 0.519175 0.602762
0.000000 0.633707 0.670991
0.087036 0.637097 0.659689
0.232208 0.640488 0.648387
0.377380 0.643879 0.637084
0.522552 0.647269 0.625782
0.667724 0.650660 0.614480
0.812896 0.654051 0.603178
0.958068 0.657441 0.591876
1.000000 0.660487 0.584027
0.000000 0.775363 0.648802
0.107006 0.778754 0.637500
0.252178 0.782145 0.626198
0.397350 0.785535 0.614896
0.542522 0.788926 0.603594
0.687694 0.792317 0.592291
0.830919 0.795383 0.584235
0.972700 0.798208 0.578583
1.000000 0.801034 0.572932
0.000000 0.917020 0.626614
0.126976 0.920411 0.615312
0.272148 0.923801 0.604009
0.417320 0.927192 0.592707
0.560669 0.930279 0.584442
0.702450 0.933104 0.578791
0.844232 0.935930 0.573140
0.986013 0.938755 0.567489
1.000000 0.941581 0.561838
0.001773 1.000000 0.604425
0.146945 1.000000 0.593123
0.290420 1.000000 0.584650
0.432201 1.000000 0.578999
0.573982 1.000000 0.573348
0.715764 1.000000 0.567697
0.857545 1.000000 0.562046
0.999326 1.000000 0.556395
1.000000 1.000000 0.550744
0.000000 0.000000 0.865072
0.041347 0.000000 0.859421
0.179738 0.000000 0.853770
0.318129 0.000000 0.848119
0.456519 0.000000 0.842468
0.594910 0.000000 0.836817
0.733301 0.000000 0.831166
0.871691 0.000000 0.825515
1.000000 0.000000 0.819864
0.000000 0.086602 0.853978
0.048004 0.087167 0.848327
0.186394 0.087732 0.842676
0.324785 0.088297 0.837025
0.463176 0.088863 0.831374
0.601566 0.089428 0.825723
0.739957 0.089993 0.820072
0.882067 0.092108 0.811321
1.000000 0.095498 0.800019
0.000000 0.222712 0.842884
0.054660 0.223277 0.837233
0.193051 0.223842 0.831582
0.331442 0.224407 0.825930
0.469832 0.224972 0.820279
0.611693 0.226983 0.811737
0.756865 0.230374 0.800434
0.902037 0.233764 0.789132
1.000000 0.237155 0.777830
0.000000 0.358821 0.831789
0.061317 0.359386 0.826138
0.199708 0.359951 0.820487
0.341319 0.361858 0.812152
0.486491 0.365249 0.800850
0.631663 0.368640 0.789548
0.776835 0.372030 0.778246
0.922007 0.375421 0.766944
1.000000 0.378812 0.755641
0.000000 0.494931 0.820695
0.070945 0.496734 0.812568
0.216117 0.500124 0.801266
0.361289 0.503515 0.789964
0.506461 0.506905 0.778662
0.651633 0.510296 0.767359
0.796805 0.513687 0.756057
0.941977 0.517077 0.744755
1.000000 0.520468 0.733453
0.000000 0.634999 0.801682
0.090914 0.638390 0.790380
0.236086 0.641781 0.779077
0.381258 0.645171 0.767775
0.526430 0.648562 0.756473
0.671602 0.651953 0.745171
0.816774 0.655343 0.733869
0.961946 0.658734 0.722566
1.000000 0.661564 0.716872
0.000000 0.776656 0.779493
0.110884 0.780047 0.768191
0.256056 0.783437 0.756889
0.401228 0.786828 0.745587
0.546400 0.790219 0.734284
0.691572 0.793609 0.722982
0.833504 0.796460 0.717080
0.975285 0.799286 0.711429
1.000000 0.802111 0.705778
0.000000 0.918313 0.757305
0.130854 0.921703 0.746002
0.276026 0.925094 0.734700
0.421198 0.928485 0.723398
0.563255 0.931356 0.717288
0.705036 0.934182 0.711637
0.846817 0.937007 0.705986
0.988598 0.939833 0.700335
1.000000 0.942658 0.694683
0.005652 1.000000 0.735116
0.150824 1.000000 0.723814
0.293005 1.000000 0.717496
0.434786 1.000000 0.711845
0.576568 1.000000 0.706194
0.718349 1.000000 0.700543
0.860130 1.000000 0.694891
1.000000 1.000000 0.689240
1.000000 1.000000 0.683589
0.000000 0.000000 0.997918
0.042640 0.000000 0.992267
0.181031 0.000000 0.986616
0.319421 0.000000 0.980964
0.457812 0.000000 0.975313
0.596203 0.000000 0.969662
0.734593 0.000000 0.964011
0.872984 0.000000 0.958360
1.000000 0.000000 0.952709
0.000000 0.086818 0.986824
0.049297 0.087383 0.981172
0.187687 0.087948 0.975521
0.326078 0.088513 0.969870
0.464469 0.089078 0.964219
0.602859 0.089643 0.958568
0.741250 0.090208 0.952917
0.885946 0.093401 0.942012
1.000000 0.096791 0.930709
0.000000 0.222927 0.975729
0.055953 0.223492 0.970078
0.194344 0.224057 0.964427
0.332734 0.224622 0.958776
0.471125 0.225188 0.953125
0.615571 0.228276 0.942427
0.760743 0.231666 0.931125
0.905915 0.235057 0.919823
1.000000 0.238448 0.908521
0.000000 0.359037 0.964635
0.062610 0.359602 0.958984
0.201000 0.360167 0.953333
0.345197 0.363151 0.942843
0.490369 0.366542 0.931541
0.635541 0.369932 0.920239
0.780713 0.373323 0.908937
0.925885 0.376714 0.897634
1.000000 0.380104 0.886332
0.000000 0.495146 0.953541
0.074823 0.498026 0.943259
0.219995 0.501417 0.931957
0.365167 0.504808 0.920655
0.510339 0.508198 0.909352
0.655511 0.511589 0.898050
0.800683 0.514980 0.886748
0.945855 0.518370 0.875446
1.000000 0.521761 0.864144
0.000000 0.636292 0.932373
0.094793 0.639683 0.921070
0.239965 0.643074 0.909768
0.385137 0.646464 0.898466
0.530309 0.649855 0.887164
0.675481 0.653246 0.875862
0.820653 0.656636 0.864559
0.964558 0.659816 0.855369
1.000000 0.662641 0.849717
0.000000 0.777949 0.910184
0.114762 0.781339 0.898882
0.259934 0.784730 0.887580
0.405106 0.788121 0.876277
0.550278 0.791511 0.864975
0.694308 0.794712 0.855577
0.836089 0.797537 0.849925
0.977871 0.800363 0.844274
1.000000 0.803188 0.838623
0.000000 0.919605 0.887995
0.134732 0.922996 0.876693
0.279904 0.926387 0.865391
0.424059 0.929608 0.855784
0.565840 0.932433 0.850133
0.707621 0.935259 0.844482
0.849403 0.938084 0.838831
0.991184 0.940910 0.833180
1.000000 0.943736 0.827529
0.009530 1.000000 0.865807
0.153809 1.000000 0.855992
0.295591 1.000000 0.850341
0.437372 1.000000 0.844690
0.579153 1.000000 0.839039
0.720935 1.000000 0.833388
0.862716 1.000000 0.827737
1.000000 1.000000 0.822086
1.000000 1.000000 0.816435
0.000000 0.000000 1.000000
0.043933 0.000000 1.000000
0.182323 0.000000 1.000000
0.320714 0.000000 1.000000
0.459105 0.000000 1.000000
0.597495 0.000000 1.000000
0.735886 0.000000 1.000000
0.874277 0.000000 1.000000
1.000000 0.000000 1.000000
0.000000 0.087033 1.000000
0.050589 0.087598 1.000000
0.188980 0.088163 1.000000
0.327371 0.088728 1.000000
0.465761 0.089294 1.000000
0.604152 0.089859 1.000000
0.744652 0.091303 1.000000
0.889824 0.094693 1.000000
1.000000 0.098084 1.000000
0.000000 0.223143 1.000000
0.057246 0.223708 1.000000
0.195637 0.224273 1.000000
0.334027 0.224838 1.000000
0.474278 0.226178 1.000000
0.619450 0.229569 1.000000
0.764622 0.232959 1.000000
0.909794 0.236350 1.000000
1.000000 0.239740 1.000000
0.000000 0.359252 1.000000
0.063902 0.359817 1.000000
0.203903 0.361053 1.000000
0.349075 0.364444 1.000000
0.494247 0.367834 1.000000
0.639419 0.371225 1.000000
0.784591 0.374616 1.000000
0.929763 0.378006 1.000000
1.000000 0.381397 1.000000
0.000000 0.495928 1.000000
0.078701 0.499319 1.000000
0.223873 0.502710 1.000000
0.369045 0.506100 1.000000
0.514217 0.509491 1.000000
0.659389 0.512882 1.000000
0.804561 0.516272 1.000000
0.949733 0.519663 1.000000
1.000000 0.523054 0.994834
0.000000 0.637585 1.000000
0.098671 0.640976 1.000000
0.243843 0.644366 1.000000
0.389015 0.647757 1.000000
0.534187 0.651148 1.000000
0.679359 0.654538 1.000000
0.824531 0.657929 0.995250
0.967143 0.660893 0.988214
1.000000 0.663719 0.982563
0.000000 0.779242 1.000000
0.118641 0.782632 1.000000
0.263813 0.786023 1.000000
0.408985 0.789414 1.000000
0.554157 0.792804 0.995666
0.696894 0.795789 0.988422
0.838675 0.798615 0.982771
0.980456 0.801440 0.977120
1.000000 0.804266 0.971469
0.000000 0.920898 1.000000
0.138610 0.924289 1.000000
0.283782 0.927679 0.996082
0.426644 0.930685 0.988630
0.568426 0.933511 0.982979
0.710207 0.936336 0.977328
0.851988 0.939162 0.971676
0.993770 0.941987 0.966025
1.000000 0.944813 0.960374
0.013408 1.000000 0.996498
0.156395 1.000000 0.988838
0.298176 1.000000 0.983187
0.439957 1.000000 0.977536
0.581739 1.000000 0.971884
0.723520 1.000000 0.966233
0.865301 1.000000 0.960582
1.000000 1.000000 0.954931
1.000000 1.000000 0.949280
