backend/luts/teal_orange.cube
TITLE "Teal & Orange"
LUT_3D_SIZE 5
DOMAIN_MIN 0.0 0.0 0.0
DOMAIN_MAX 1.0 1.0 1.0
0.000000 0.000000 0.068000
0.171981 0.000000 0.056698
0.448763 0.000000 0.045396
0.725544 0.000000 0.034093
1.000000 0.000000 0.022791
0.000000 0.221419 0.045811
0.185294 0.222549 0.034509
0.462076 0.223679 0.023207
0.738857 0.224810 0.011905
1.000000 0.229398 0.000000
0.000000 0.493638 0.023623
0.198608 0.494768 0.012321
0.483191 0.499149 0.000000
0.773535 0.505930 0.000000
1.000000 0.512712 0.000000
0.000000 0.768900 0.000000
0.232786 0.775681 0.000000
0.523130 0.782462 0.000000
0.813474 0.789243 0.000000
1.000000 0.795647 0.000000
0.000000 1.000000 0.000000
0.272726 1.000000 0.000000
0.561055 1.000000 0.000000
0.844617 1.000000 0.000000
1.000000 1.000000 0.000000
0.000000 0.000000 0.333691
0.174567 0.000000 0.322389
0.451348 0.000000 0.311086
0.728130 0.000000 0.299784
1.000000 0.000000 0.288482
0.000000 0.221850 0.311502
0.187880 0.222980 0.300200
0.464661 0.224110 0.288898
0.741443 0.225240 0.277596
1.000000 0.231984 0.255067
0.000000 0.494069 0.289314
0.201193 0.495199 0.278011
0.490947 0.501734 0.255898
0.781291 0.508516 0.233294
1.000000 0.515297 0.210690
0.000000 0.771485 0.256730
0.240543 0.778266 0.234126
0.530887 0.785048 0.211521
0.821231 0.791829 0.188917
1.000000 0.797802 0.174396
0.000000 1.000000 0.212353
0.280482 1.000000 0.189748
0.566226 1.000000 0.174812
0.849788 1.000000 0.163510
1.000000 1.000000 0.152208
0.000000 0.000000 0.599382
0.177152 0.000000 0.588079
0.453934 0.000000 0.576777
0.730715 0.000000 0.565475
1.000000 0.000000 0.554173
0.000000 0.222281 0.577193
0.190465 0.223411 0.565891
0.467247 0.224541 0.554589
0.749109 0.227788 0.539053
1.000000 0.234569 0.516448
0.000000 0.494500 0.555004
0.208360 0.497539 0.539884
0.498704 0.504320 0.517280
0.789048 0.511101 0.494676
1.000000 0.517883 0.472071
0.000000 0.774071 0.518112
0.248300 0.780852 0.495507
0.538643 0.787633 0.472903
0.828333 0.794305 0.451389
1.000000 0.799957 0.440087
0.000000 1.000000 0.473734
0.287834 1.000000 0.451805
0.571397 1.000000 0.440503
0.854959 1.000000 0.429201
1.000000 1.000000 0.417898
0.000000 0.000000 0.865072
0.179738 0.000000 0.853770
0.456519 0.000000 0.842468
0.733301 0.000000 0.831166
1.000000 0.000000 0.819864
0.000000 0.222712 0.842884
0.193051 0.223842 0.831582
0.469832 0.224972 0.820279
0.756865 0.230374 0.800434
1.000000 0.237155 0.777830
0.000000 0.494931 0.820695
0.216117 0.500124 0.801266
0.506461 0.506905 0.778662
0.796805 0.513687 0.756057
1.000000 0.520468 0.733453
0.000000 0.776656 0.779493
0.256056 0.783437 0.756889
0.546400 0.790219 0.734284
0.833504 0.796460 0.717080
1.000000 0.802111 0.705778
0.005652 1.000000 0.735116
0.293005 1.000000 0.717496
0.576568 1.000000 0.706194
0.860130 1.000000 0.694891
1.000000 1.000000 0.683589
0.000000 0.000000 1.000000
0.182323 0.000000 1.000000
0.459105 0.000000 1.000000
0.735886 0.000000 1.000000
1.000000 0.000000 1.000000
0.000000 0.223143 1.000000
0.195637 0.224273 1.000000
0.474278 0.226178 1.000000
0.764622 0.232959 1.000000
1.000000 0.239740 1.000000
0.000000 0.495928 1.000000
0.223873 0.502710 1.000000
0.514217 0.509491 1.000000
0.804561 0.516272 1.000000
1.000000 0.523054 0.994834
0.000000 0.779242 1.000000
0.263813 0.786023 1.000000
0.554157 0.792804 0.995666
0.838675 0.798615 0.982771
1.000000 0.804266 0.971469
0.013408 1.000000 0.996498
0.298176 1.000000 0.983187
0.581739 1.000000 0.971884
0.865301 1.000000 0.960582
1.000000 1.000000 0.949280
