backend/luts/teal_orange.cube
TITLE "Teal & Orange"
LUT_3D_SIZE 33
DOMAIN_MIN 0.0 0.0 0.0
DOMAIN_MAX 1.0 1.0 1.0
0.000000 0.000000 0.068000
0.000000 0.000000 0.066587
0.000000 0.000000 0.065174
0.000000 0.000000 0.063762
0.033591 0.000000 0.062349
0.068188 0.000000 0.060936
0.102786 0.000000 0.059523
0.137384 0.000000 0.058111
0.171981 0.000000 0.056698
0.206579 0.000000 0.055285
0.241177 0.000000 0.053872
0.275774 0.000000 0.052459
0.310372 0.000000 0.051047
0.344970 0.000000 0.049634
0.379567 0.000000 0.048221
0.414165 0.000000 0.046808
0.448763 0.000000 0.045396
0.483360 0.000000 0.043983
0.517958 0.000000 0.042570
0.552556 0.000000 0.041157
0.587153 0.000000 0.039744
0.621751 0.000000 0.038332
0.656349 0.000000 0.036919
0.690946 0.000000 0.035506
0.725544 0.000000 0.034093
0.760142 0.000000 0.032681
0.794739 0.000000 0.031268
0.829337 0.000000 0.029855
0.863935 0.000000 0.028442
0.898532 0.000000 0.027030
0.933130 0.000000 0.025617
0.967728 0.000000 0.024204
1.000000 0.000000 0.022791
0.000000 0.000000 0.065226
0.000000 0.000000 0.063814
0.000000 0.000000 0.062401
0.000657 0.000000 0.060988
0.035255 0.000000 0.059575
0.069852 0.000000 0.058163
0.104450 0.000000 0.056750
0.139048 0.000000 0.055337
0.173645 0.000000 0.053924
0.208243 0.000000 0.052511
0.242841 0.000000 0.051099
0.277438 0.000000 0.049686
0.312036 0.000000 0.048273
0.346634 0.000000 0.046860
0.381231 0.000000 0.045448
0.415829 0.000000 0.044035
0.450427 0.000000 0.042622
0.485024 0.000000 0.041209
0.519622 0.000000 0.039796
0.554220 0.000000 0.038384
0.588817 0.000000 0.036971
0.623415 0.000000 0.035558
0.658013 0.000000 0.034145
0.692610 0.000000 0.032733
0.727208 0.000000 0.031320
0.761806 0.000000 0.029907
0.796403 0.000000 0.028494
0.831001 0.000000 0.027081
0.865599 0.000000 0.025669
0.900196 0.000000 0.024256
0.934794 0.000000 0.022843
0.969392 0.000000 0.021430
1.000000 0.000000 0.020018
0.000000 0.017255 0.062453
0.000000 0.017396 0.061040
0.000000 0.017537 0.059627
0.002321 0.017679 0.058215
0.036919 0.017820 0.056802
0.071517 0.017961 0.055389
0.106114 0.018102 0.053976
0.140712 0.018244 0.052563
0.175310 0.018385 0.051151
0.209907 0.018526 0.049738
0.244505 0.018667 0.048325
0.279103 0.018809 0.046912
0.313700 0.018950 0.045500
0.348298 0.019091 0.044087
0.382896 0.019233 0.042674
0.417493 0.019374 0.041261
0.452091 0.019515 0.039848
0.486689 0.019656 0.038436
0.521286 0.019798 0.037023
0.555884 0.019939 0.035610
0.590482 0.020080 0.034197
0.625079 0.020222 0.032785
0.659677 0.020363 0.031372
0.694275 0.020504 0.029959
0.728872 0.020645 0.028546
0.763470 0.020787 0.027133
0.798068 0.020928 0.025721
0.832665 0.021069 0.024308
0.867263 0.021210 0.022895
0.901861 0.021352 0.021482
0.936458 0.021493 0.020070
0.971056 0.021634 0.018657
1.000000 0.021776 0.017244
0.000000 0.051282 0.059679
0.000000 0.051423 0.058266
0.000000 0.051565 0.056854
0.003985 0.051706 0.055441
0.038583 0.051847 0.054028
0.073181 0.051988 0.052615
0.107778 0.052130 0.051203
0.142376 0.052271 0.049790
0.176974 0.052412 0.048377
0.211571 0.052554 0.046964
0.246169 0.052695 0.045552
0.280767 0.052836 0.044139
0.315364 0.052977 0.042726
0.349962 0.053119 0.041313
0.384560 0.053260 0.039900
0.419157 0.053401 0.038488
0.453755 0.053542 0.037075
0.488353 0.053684 0.035662
0.522950 0.053825 0.034249
0.557548 0.053966 0.032837
0.592146 0.054108 0.031424
0.626743 0.054249 0.030011
0.661341 0.054390 0.028598
0.695939 0.054531 0.027185
0.730536 0.054673 0.025773
0.765134 0.054814 0.024360
0.799732 0.054955 0.022947
0.834329 0.055097 0.021534
0.868927 0.055238 0.020122
0.903525 0.055379 0.018709
0.938122 0.055520 0.017296
0.972720 0.055662 0.015883
1.000000 0.055803 0.014470
0.000000 0.085309 0.056906
0.000000 0.085451 0.055493
0.000000 0.085592 0.054080
0.005650 0.085733 0.052667
0.040247 0.085875 0.051255
0.074845 0.086016 0.049842
0.109443 0.086157 0.048429
0.144040 0.086298 0.047016
0.178638 0.086440 0.045603
0.213236 0.086581 0.044191
0.247833 0.086722 0.042778
0.282431 0.086863 0.041365
0.317029 0.087005 0.039952
0.351626 0.087146 0.038540
0.386224 0.087287 0.037127
0.420822 0.087429 0.035714
0.455419 0.087570 0.034301
0.490017 0.087711 0.032889
0.524615 0.087852 0.031476
0.559212 0.087994 0.030063
0.593810 0.088135 0.028650
0.628408 0.088276 0.027237
0.663005 0.088418 0.025825
0.697603 0.088559 0.024412
0.732201 0.088700 0.022999
0.766798 0.088841 0.021586
0.801396 0.088983 0.020174
0.835994 0.089124 0.018761
0.870591 0.089265 0.017348
0.905189 0.089406 0.015935
0.939787 0.089548 0.014522
0.974384 0.089689 0.013110
1.000000 0.089830 0.011697
0.000000 0.119337 0.054132
0.000000 0.119478 0.052719
0.000000 0.119619 0.051307
0.007314 0.119761 0.049894
0.041911 0.119902 0.048481
0.076509 0.120043 0.047068
0.111107 0.120184 0.045655
0.145704 0.120326 0.044243
0.180302 0.120467 0.042830
0.214900 0.120608 0.041417
0.249497 0.120750 0.040004
0.284095 0.120891 0.038592
0.318693 0.121032 0.037179
0.353290 0.121173 0.035766
0.387888 0.121315 0.034353
0.422486 0.121456 0.032940
0.457083 0.121597 0.031528
0.491681 0.121738 0.030115
0.526279 0.121880 0.028702
0.560876 0.122021 0.027289
0.595474 0.122162 0.025877
0.630072 0.122304 0.024464
0.664669 0.122445 0.023051
0.699267 0.122586 0.021638
0.733865 0.122727 0.020225
0.768462 0.122869 0.018813
0.803060 0.123010 0.017400
0.837658 0.123151 0.015987
0.872255 0.123293 0.014574
0.906853 0.123434 0.013162
0.941451 0.123575 0.011749
0.976048 0.123716 0.010336
1.000000 0.123858 0.008923
0.000000 0.153364 0.051359
0.000000 0.153505 0.049946
0.000000 0.153647 0.048533
0.008978 0.153788 0.047120
0.043576 0.153929 0.045707
0.078173 0.154071 0.044295
0.112771 0.154212 0.042882
0.147369 0.154353 0.041469
0.181966 0.154494 0.040056
0.216564 0.154636 0.038644
0.251162 0.154777 0.037231
0.285759 0.154918 0.035818
0.320357 0.155059 0.034405
0.354955 0.155201 0.032992
0.389552 0.155342 0.031580
0.424150 0.155483 0.030167
0.458748 0.155625 0.028754
0.493345 0.155766 0.027341
0.527943 0.155907 0.025929
0.562541 0.156048 0.024516
0.597138 0.156190 0.023103
0.631736 0.156331 0.021690
0.666333 0.156472 0.020278
0.700931 0.156614 0.018865
0.735529 0.156755 0.017452
0.770126 0.156896 0.016039
0.804724 0.157037 0.014626
0.839322 0.157179 0.013214
0.873919 0.157320 0.011801
0.908517 0.157461 0.010388
0.943115 0.157602 0.008975
0.977713 0.157744 0.007562
1.000000 0.158570 0.004779
0.000000 0.187391 0.048585
0.000000 0.187533 0.047172
0.000000 0.187674 0.045759
0.010642 0.187815 0.044347
0.045240 0.187957 0.042934
0.079837 0.188098 0.041521
0.114435 0.188239 0.040108
0.149033 0.188380 0.038696
0.183630 0.188522 0.037283
0.218228 0.188663 0.035870
0.252826 0.188804 0.034457
0.287423 0.188946 0.033044
0.322021 0.189087 0.031632
0.356619 0.189228 0.030219
0.391216 0.189369 0.028806
0.425814 0.189511 0.027393
0.460412 0.189652 0.025981
0.495009 0.189793 0.024568
0.529607 0.189934 0.023155
0.564205 0.190076 0.021742
0.598802 0.190217 0.020329
0.633400 0.190358 0.018917
0.667998 0.190500 0.017504
0.702595 0.190641 0.016091
0.737193 0.190782 0.014678
0.771791 0.190923 0.013266
0.806388 0.191065 0.011853
0.840986 0.191206 0.010440
0.875584 0.191347 0.009027
0.910181 0.191489 0.007614
0.946361 0.192289 0.004883
0.982654 0.193137 0.002058
1.000000 0.193984 0.000000
0.000000 0.221419 0.045811
0.000000 0.221560 0.044399
0.000000 0.221701 0.042986
0.012306 0.221843 0.041573
0.046904 0.221984 0.040160
0.081501 0.222125 0.038747
0.116099 0.222267 0.037335
0.150697 0.222408 0.035922
0.185294 0.222549 0.034509
0.219892 0.222690 0.033096
0.254490 0.222832 0.031684
0.289087 0.222973 0.030271
0.323685 0.223114 0.028858
0.358283 0.223255 0.027445
0.392880 0.223397 0.026033
0.427478 0.223538 0.024620
0.462076 0.223679 0.023207
0.496673 0.223821 0.021794
0.531271 0.223962 0.020381
0.565869 0.224103 0.018969
0.600466 0.224244 0.017556
0.635064 0.224386 0.016143
0.669662 0.224527 0.014730
0.704259 0.224668 0.013318
0.738857 0.224810 0.011905
0.773455 0.224951 0.010492
0.808052 0.225092 0.009079
0.842650 0.225233 0.007666
0.878767 0.226008 0.004987
0.915060 0.226855 0.002162
0.951353 0.227703 0.000000
0.987646 0.228551 0.000000
1.000000 0.229398 0.000000
0.000000 0.255446 0.043038
0.000000 0.255587 0.041625
0.000000 0.255729 0.040212
0.013970 0.255870 0.038799
0.048568 0.256011 0.037387
0.083166 0.256153 0.035974
0.117763 0.256294 0.034561
0.152361 0.256435 0.033148
0.186959 0.256576 0.031736
0.221556 0.256718 0.030323
0.256154 0.256859 0.028910
0.290752 0.257000 0.027497
0.325349 0.257142 0.026085
0.359947 0.257283 0.024672
0.394545 0.257424 0.023259
0.429142 0.257565 0.021846
0.463740 0.257707 0.020433
0.498338 0.257848 0.019021
0.532935 0.257989 0.017608
0.567533 0.258130 0.016195
0.602131 0.258272 0.014782
0.636728 0.258413 0.013370
0.671326 0.258554 0.011957
0.705924 0.258696 0.010544
0.740521 0.258837 0.009131
0.775119 0.258978 0.007718
0.811174 0.259727 0.005091
0.847467 0.260574 0.002266
0.883760 0.261422 0.000000
0.920053 0.262270 0.000000
0.956346 0.263117 0.000000
0.992639 0.263965 0.000000
1.000000 0.264813 0.000000
0.000000 0.289474 0.040264
0.000000 0.289615 0.038851
0.000000 0.289756 0.037439
0.015634 0.289897 0.036026
0.050232 0.290039 0.034613
0.084830 0.290180 0.033200
0.119427 0.290321 0.031788
0.154025 0.290462 0.030375
0.188623 0.290604 0.028962
0.223220 0.290745 0.027549
0.257818 0.290886 0.026136
0.292416 0.291028 0.024724
0.327013 0.291169 0.023311
0.361611 0.291310 0.021898
0.396209 0.291451 0.020485
0.430806 0.291593 0.019073
0.465404 0.291734 0.017660
0.500002 0.291875 0.016247
0.534599 0.292017 0.014834
0.569197 0.292158 0.013422
0.603795 0.292299 0.012009
0.638392 0.292440 0.010596
0.672990 0.292582 0.009183
0.707588 0.292723 0.007770
0.743580 0.293445 0.005195
0.779873 0.294293 0.002370
0.816166 0.295141 0.000000
0.852459 0.295988 0.000000
0.888752 0.296836 0.000000
0.925045 0.297684 0.000000
0.961338 0.298531 0.000000
0.997631 0.299379 0.000000
1.000000 0.300227 0.000000
0.000000 0.323501 0.037491
0.000000 0.323642 0.036078
0.000000 0.323784 0.034665
0.017299 0.323925 0.033252
0.051896 0.324066 0.031840
0.086494 0.324207 0.030427
0.121092 0.324349 0.029014
0.155689 0.324490 0.027601
0.190287 0.324631 0.026188
0.224885 0.324772 0.024776
0.259482 0.324914 0.023363
0.294080 0.325055 0.021950
0.328678 0.325196 0.020537
0.363275 0.325338 0.019125
0.397873 0.325479 0.017712
0.432471 0.325620 0.016299
0.467068 0.325761 0.014886
0.501666 0.325903 0.013473
0.536264 0.326044 0.012061
0.570861 0.326185 0.010648
0.605459 0.326326 0.009235
0.640057 0.326468 0.007822
0.675987 0.327164 0.005299
0.712280 0.328012 0.002474
0.748573 0.328860 0.000000
0.784866 0.329707 0.000000
0.821159 0.330555 0.000000
0.857452 0.331403 0.000000
0.893745 0.332250 0.000000
0.930038 0.333098 0.000000
0.966331 0.333946 0.000000
1.000000 0.334793 0.000000
1.000000 0.335641 0.000000
0.000000 0.357528 0.034717
0.000000 0.357670 0.033304
0.000000 0.357811 0.031892
0.018963 0.357952 0.030479
0.053560 0.358093 0.029066
0.088158 0.358235 0.027653
0.122756 0.358376 0.026240
0.157353 0.358517 0.024828
0.191951 0.358658 0.023415
0.226549 0.358800 0.022002
0.261146 0.358941 0.020589
0.295744 0.359082 0.019177
0.330342 0.359224 0.017764
0.364939 0.359365 0.016351
0.399537 0.359506 0.014938
0.434135 0.359647 0.013525
0.468732 0.359789 0.012113
0.503330 0.359930 0.010700
0.537928 0.360071 0.009287
0.572525 0.360213 0.007874
0.608393 0.360883 0.005403
0.644686 0.361731 0.002578
0.680979 0.362578 0.000000
0.717272 0.363426 0.000000
0.753565 0.364274 0.000000
0.789858 0.365121 0.000000
0.826151 0.365969 0.000000
0.862444 0.366817 0.000000
0.898737 0.367664 0.000000
0.935030 0.368512 0.000000
0.971323 0.369360 0.000000
1.000000 0.370207 0.000000
1.000000 0.371055 0.000000
0.000000 0.391556 0.031944
0.000000 0.391697 0.030531
0.000000 0.391838 0.029118
0.020627 0.391979 0.027705
0.055225 0.392121 0.026292
0.089822 0.392262 0.024880
0.124420 0.392403 0.023467
0.159018 0.392545 0.022054
0.193615 0.392686 0.020641
0.228213 0.392827 0.019229
0.262811 0.392968 0.017816
0.297408 0.393110 0.016403
0.332006 0.393251 0.014990
0.366604 0.393392 0.013577
0.401201 0.393534 0.012165
0.435799 0.393675 0.010752
0.470397 0.393816 0.009339
0.504994 0.393957 0.007926
0.540800 0.394602 0.005507
0.577093 0.395450 0.002682
0.613386 0.396297 0.000000
0.649679 0.397145 0.000000
0.685971 0.397993 0.000000
0.722265 0.398840 0.000000
0.758558 0.399688 0.000000
0.794850 0.400536 0.000000
0.831143 0.401383 0.000000
0.867437 0.402231 0.000000
0.903729 0.403078 0.000000
0.940022 0.403926 0.000000
0.976315 0.404774 0.000000
1.000000 0.405621 0.000000
1.000000 0.406469 0.000000
0.000000 0.425583 0.029170
0.000000 0.425724 0.027757
0.000000 0.425866 0.026344
0.022291 0.426007 0.024932
0.056889 0.426148 0.023519
0.091486 0.426289 0.022106
0.126084 0.426431 0.020693
0.160682 0.426572 0.019281
0.195279 0.426713 0.017868
0.229877 0.426854 0.016455
0.264475 0.426996 0.015042
0.299072 0.427137 0.013629
0.333670 0.427278 0.012217
0.368268 0.427420 0.010804
0.402865 0.427561 0.009391
0.437463 0.427702 0.007978
0.473206 0.428321 0.005611
0.509499 0.429168 0.002786
0.545792 0.430016 0.000000
0.582085 0.430864 0.000000
0.618378 0.431711 0.000000
0.654671 0.432559 0.000000
0.690964 0.433407 0.000000
0.727257 0.434254 0.000000
0.763550 0.435102 0.000000
0.799843 0.435950 0.000000
0.836136 0.436797 0.000000
0.872429 0.437645 0.000000
0.908722 0.438493 0.000000
0.945015 0.439340 0.000000
0.981308 0.440188 0.000000
1.000000 0.441036 0.000000
1.000000 0.441883 0.000000
0.000000 0.459610 0.026396
0.000000 0.459752 0.024984
0.000000 0.459893 0.023571
0.023955 0.460034 0.022158
0.058553 0.460175 0.020745
0.093150 0.460317 0.019332
0.127748 0.460458 0.017920
0.162346 0.460599 0.016507
0.196943 0.460741 0.015094
0.231541 0.460882 0.013681
0.266139 0.461023 0.012269
0.300736 0.461164 0.010856
0.335334 0.461306 0.009443
0.369932 0.461447 0.008030
0.405612 0.462039 0.005715
0.441905 0.462887 0.002889
0.478198 0.463735 0.000064
0.514491 0.464582 0.000000
0.550784 0.465430 0.000000
0.587077 0.466278 0.000000
0.623370 0.467125 0.000000
0.659663 0.467973 0.000000
0.695956 0.468821 0.000000
0.732249 0.469668 0.000000
0.768542 0.470516 0.000000
0.804835 0.471364 0.000000
0.841128 0.472211 0.000000
0.877421 0.473059 0.000000
0.913714 0.473907 0.000000
0.950007 0.474754 0.000000
0.986300 0.475602 0.000000
1.000000 0.476450 0.000000
1.000000 0.477297 0.000000
0.000000 0.493638 0.023623
0.000000 0.493779 0.022210
0.000000 0.493920 0.020797
0.025619 0.494062 0.019384
0.060217 0.494203 0.017972
0.094815 0.494344 0.016559
0.129412 0.494485 0.015146
0.164010 0.494627 0.013733
0.198608 0.494768 0.012321
0.233205 0.494909 0.010908
0.267803 0.495050 0.009495
0.302401 0.495192 0.008082
0.338019 0.495758 0.005819
0.374312 0.496606 0.002993
0.410605 0.497454 0.000168
0.446898 0.498301 0.000000
0.483191 0.499149 0.000000
0.519484 0.499997 0.000000
0.555777 0.500844 0.000000
0.592070 0.501692 0.000000
0.628363 0.502540 0.000000
0.664656 0.503387 0.000000
0.700949 0.504235 0.000000
0.737242 0.505083 0.000000
0.773535 0.505930 0.000000
0.809828 0.506778 0.000000
0.846121 0.507626 0.000000
0.882414 0.508473 0.000000
0.918707 0.509321 0.000000
0.955000 0.510169 0.000000
0.991293 0.511016 0.000000
1.000000 0.511864 0.000000
1.000000 0.512712 0.000000
0.000000 0.527665 0.020849
0.000000 0.527806 0.019436
0.000000 0.527948 0.018024
0.027283 0.528089 0.016611
0.061881 0.528230 0.015198
0.096479 0.528371 0.013785
0.131076 0.528513 0.012373
0.165674 0.528654 0.010960
0.200272 0.528795 0.009547
0.234869 0.528937 0.008134
0.270425 0.529477 0.005923
0.306718 0.530325 0.003097
0.343011 0.531172 0.000272
0.379304 0.532020 0.000000
0.415597 0.532868 0.000000
0.451890 0.533715 0.000000
0.488183 0.534563 0.000000
0.524476 0.535411 0.000000
0.560769 0.536258 0.000000
0.597062 0.537106 0.000000
0.633355 0.537954 0.000000
0.669648 0.538801 0.000000
0.705941 0.539649 0.000000
0.742234 0.540497 0.000000
0.778527 0.541344 0.000000
0.814820 0.542192 0.000000
0.851113 0.543040 0.000000
0.887406 0.543887 0.000000
0.923699 0.544735 0.000000
0.959992 0.545583 0.000000
0.996285 0.546430 0.000000
1.000000 0.547278 0.000000
1.000000 0.548126 0.000000
0.000000 0.561692 0.018076
0.000000 0.561834 0.016663
0.000000 0.561975 0.015250
0.028948 0.562116 0.013837
0.063545 0.562258 0.012425
0.098143 0.562399 0.011012
0.132741 0.562540 0.009599
0.167338 0.562681 0.008186
0.202832 0.563196 0.006027
0.239125 0.564044 0.003201
0.275418 0.564891 0.000376
0.311711 0.565739 0.000000
0.348004 0.566587 0.000000
0.384297 0.567434 0.000000
0.420590 0.568282 0.000000
0.456883 0.569130 0.000000
0.493176 0.569977 0.000000
0.529469 0.570825 0.000000
0.565762 0.571673 0.000000
0.602055 0.572520 0.000000
0.638348 0.573368 0.000000
0.674641 0.574216 0.000000
0.710934 0.575063 0.000000
0.747227 0.575911 0.000000
0.783520 0.576759 0.000000
0.819813 0.577606 0.000000
0.856106 0.578454 0.000000
0.892399 0.579302 0.000000
0.928692 0.580149 0.000000
0.964985 0.580997 0.000000
1.000000 0.581845 0.000000
1.000000 0.582692 0.000000
1.000000 0.583540 0.000000
0.000000 0.595720 0.015302
0.000000 0.595861 0.013889
0.000000 0.596002 0.012477
0.030612 0.596144 0.011064
0.065209 0.596285 0.009651
0.099807 0.596426 0.008238
0.135238 0.596915 0.006131
0.171531 0.597762 0.003305
0.207824 0.598610 0.000480
0.244117 0.599458 0.000000
0.280410 0.600305 0.000000
0.316703 0.601153 0.000000
0.352996 0.602001 0.000000
0.389289 0.602848 0.000000
0.425582 0.603696 0.000000
0.461875 0.604544 0.000000
0.498168 0.605391 0.000000
0.534461 0.606239 0.000000
0.570754 0.607087 0.000000
0.607047 0.607934 0.000000
0.643340 0.608782 0.000000
0.679633 0.609630 0.000000
0.715926 0.610477 0.000000
0.752219 0.611325 0.000000
0.788512 0.612173 0.000000
0.824805 0.613020 0.000000
0.861098 0.613868 0.000000
0.897391 0.614716 0.000000
0.933684 0.615563 0.000000
0.969977 0.616411 0.000000
1.000000 0.617259 0.000000
1.000000 0.618106 0.000000
1.000000 0.618954 0.000000
0.000000 0.629747 0.012528
0.000000 0.629888 0.011116
0.000000 0.630030 0.009703
0.032276 0.630171 0.008290
0.067645 0.630634 0.006235
0.103938 0.631481 0.003409
0.140231 0.632329 0.000584
0.176524 0.633177 0.000000
0.212817 0.634024 0.000000
0.249110 0.634872 0.000000
0.285403 0.635720 0.000000
0.321696 0.636567 0.000000
0.357989 0.637415 0.000000
0.394282 0.638263 0.000000
0.430575 0.639110 0.000000
0.466868 0.639958 0.000000
0.503161 0.640806 0.000000
0.539454 0.641653 0.000000
0.575747 0.642501 0.000000
0.612040 0.643349 0.000000
0.648333 0.644196 0.000000
0.684626 0.645044 0.000000
0.720919 0.645892 0.000000
0.757212 0.646739 0.000000
0.793505 0.647587 0.000000
0.829798 0.648435 0.000000
0.866091 0.649282 0.000000
0.902384 0.650130 0.000000
0.938677 0.650978 0.000000
0.974970 0.651825 0.000000
1.000000 0.652673 0.000000
1.000000 0.653521 0.000000
1.000000 0.654368 0.000000
0.000000 0.663774 0.009755
0.000000 0.663916 0.008342
0.000051 0.664352 0.006339
0.036344 0.665200 0.003513
0.072637 0.666048 0.000688
0.108930 0.666895 0.000000
0.145223 0.667743 0.000000
0.181516 0.668591 0.000000
0.217809 0.669438 0.000000
0.254102 0.670286 0.000000
0.290395 0.671134 0.000000
0.326688 0.671981 0.000000
0.362981 0.672829 0.000000
0.399274 0.673677 0.000000
0.435567 0.674524 0.000000
0.471860 0.675372 0.000000
0.508153 0.676220 0.000000
0.544446 0.677067 0.000000
0.580739 0.677915 0.000000
0.617032 0.678763 0.000000
0.653325 0.679610 0.000000
0.689618 0.680458 0.000000
0.725911 0.681306 0.000000
0.762204 0.682153 0.000000
0.798497 0.683001 0.000000
0.834790 0.683849 0.000000
0.871083 0.684696 0.000000
0.907376 0.685544 0.000000
0.943669 0.686392 0.000000
0.979962 0.687239 0.000000
1.000000 0.688087 0.000000
1.000000 0.688935 0.000000
1.000000 0.689782 0.000000
0.000000 0.698071 0.006443
0.000000 0.698919 0.003617
0.005044 0.699767 0.000792
0.041337 0.700614 0.000000
0.077630 0.701462 0.000000
0.113923 0.702310 0.000000
0.150216 0.703157 0.000000
0.186509 0.704005 0.000000
0.222802 0.704853 0.000000
0.259095 0.705700 0.000000
0.295388 0.706548 0.000000
0.331681 0.707395 0.000000
0.367974 0.708243 0.000000
0.404267 0.709091 0.000000
0.440560 0.709939 0.000000
0.476852 0.710786 0.000000
0.513146 0.711634 0.000000
0.549438 0.712481 0.000000
0.585731 0.713329 0.000000
0.622024 0.714177 0.000000
0.658317 0.715024 0.000000
0.694610 0.715872 0.000000
0.730903 0.716720 0.000000
0.767196 0.717567 0.000000
0.803489 0.718415 0.000000
0.839782 0.719263 0.000000
0.876076 0.720110 0.000000
0.912368 0.720958 0.000000
0.948661 0.721806 0.000000
0.984954 0.722653 0.000000
1.000000 0.723501 0.000000
1.000000 0.724349 0.000000
1.000000 0.725196 0.000000
0.000000 0.733485 0.000896
0.000000 0.734333 0.000000
0.010036 0.735181 0.000000
0.046329 0.736028 0.000000
0.082622 0.736876 0.000000
0.118915 0.737724 0.000000
0.155208 0.738571 0.000000
0.191501 0.739419 0.000000
0.227794 0.740267 0.000000
0.264087 0.741114 0.000000
0.300380 0.741962 0.000000
0.336673 0.742810 0.000000
0.372966 0.743657 0.000000
0.409259 0.744505 0.000000
0.445552 0.745353 0.000000
0.481845 0.746200 0.000000
0.518138 0.747048 0.000000
0.554431 0.747896 0.000000
0.590724 0.748743 0.000000
0.627017 0.749591 0.000000
0.663310 0.750439 0.000000
0.699603 0.751286 0.000000
0.735896 0.752134 0.000000
0.772189 0.752982 0.000000
0.808482 0.753829 0.000000
0.844775 0.754677 0.000000
0.881068 0.755525 0.000000
0.917361 0.756372 0.000000
0.953654 0.757220 0.000000
0.989947 0.758068 0.000000
1.000000 0.758915 0.000000
1.000000 0.759763 0.000000
1.000000 0.760511 0.000000
0.000000 0.768900 0.000000
0.000000 0.769747 0.000000
0.015028 0.770595 0.000000
0.051321 0.771442 0.000000
0.087614 0.772290 0.000000
0.123907 0.773138 0.000000
0.160200 0.773986 0.000000
0.196493 0.774833 0.000000
0.232786 0.775681 0.000000
0.269079 0.776528 0.000000
0.305372 0.777376 0.000000
0.341665 0.778224 0.000000
0.377958 0.779071 0.000000
0.414251 0.779919 0.000000
0.450544 0.780767 0.000000
0.486837 0.781614 0.000000
0.523130 0.782462 0.000000
0.559423 0.783310 0.000000
0.595716 0.784157 0.000000
0.632009 0.785005 0.000000
0.668302 0.785853 0.000000
0.704595 0.786700 0.000000
0.740888 0.787548 0.000000
0.777181 0.788396 0.000000
0.813474 0.789243 0.000000
0.849767 0.790091 0.000000
0.886060 0.790939 0.000000
0.922353 0.791786 0.000000
0.958646 0.792634 0.000000
0.994939 0.793482 0.000000
1.000000 0.794235 0.000000
1.000000 0.794941 0.000000
1.000000 0.795647 0.000000
0.000000 0.804314 0.000000
0.000000 0.805161 0.000000
0.020021 0.806009 0.000000
0.056314 0.806857 0.000000
0.092607 0.807704 0.000000
0.128900 0.808552 0.000000
0.165193 0.809400 0.000000
0.201486 0.810247 0.000000
0.237779 0.811095 0.000000
0.274072 0.811943 0.000000
0.310365 0.812790 0.000000
0.346658 0.813638 0.000000
0.382951 0.814486 0.000000
0.419244 0.815333 0.000000
0.455537 0.816181 0.000000
0.491830 0.817029 0.000000
0.528123 0.817876 0.000000
0.564416 0.818724 0.000000
0.600709 0.819572 0.000000
0.637002 0.820419 0.000000
0.673295 0.821267 0.000000
0.709588 0.822115 0.000000
0.745881 0.822962 0.000000
0.782174 0.823810 0.000000
0.818467 0.824658 0.000000
0.854760 0.825505 0.000000
0.891053 0.826353 0.000000
0.927346 0.827201 0.000000
0.963101 0.827959 0.000000
0.998546 0.828665 0.000000
1.000000 0.829371 0.000000
1.000000 0.830078 0.000000
1.000000 0.830784 0.000000
0.000000 0.839728 0.000000
0.000000 0.840575 0.000000
0.025013 0.841423 0.000000
0.061306 0.842271 0.000000
0.097599 0.843118 0.000000
0.133892 0.843966 0.000000
0.170185 0.844814 0.000000
0.206478 0.845661 0.000000
0.242771 0.846509 0.000000
0.279064 0.847357 0.000000
0.315357 0.848204 0.000000
0.351650 0.849052 0.000000
0.387943 0.849900 0.000000
0.424236 0.850747 0.000000
0.460529 0.851595 0.000000
0.496822 0.852443 0.000000
0.533115 0.853290 0.000000
0.569408 0.854138 0.000000
0.605701 0.854986 0.000000
0.641994 0.855833 0.000000
0.678287 0.856681 0.000000
0.714580 0.857529 0.000000
0.750873 0.858376 0.000000
0.787166 0.859224 0.000000
0.823459 0.860072 0.000000
0.859752 0.860919 0.000000
0.895538 0.861683 0.000000
