backend/luts/vhs_90s.cube
TITLE "90s VHS"
LUT_3D_SIZE 33
DOMAIN_MIN 0.0 0.0 0.0
DOMAIN_MAX 1.0 1.0 1.0
0.072021 0.061518 0.080000
0.102936 0.068399 0.086881
0.136696 0.078527 0.097009
0.170040 0.088530 0.107012
0.203058 0.098436 0.116917
0.235808 0.108261 0.126742
0.268332 0.118018 0.136500
0.300659 0.127716 0.146198
0.332813 0.137362 0.155844
0.364812 0.146962 0.165444
0.396672 0.156520 0.175001
0.428403 0.166039 0.184521
0.460018 0.175524 0.194005
0.491524 0.184975 0.203457
0.522929 0.194397 0.212879
0.554240 0.203790 0.222272
0.585464 0.213157 0.231639
0.616603 0.222499 0.240981
0.647665 0.231818 0.250300
0.678652 0.241114 0.259596
0.709569 0.250389 0.268871
0.740418 0.259644 0.278126
0.771203 0.268879 0.287361
0.801927 0.278096 0.296578
0.832592 0.287296 0.305778
0.863201 0.296479 0.314960
0.893755 0.305645 0.324127
0.924258 0.314796 0.333278
0.954710 0.323931 0.342413
0.985114 0.333052 0.351534
1.000000 0.337518 0.356000
1.000000 0.337518 0.356000
1.000000 0.337518 0.356000
0.074221 0.087333 0.082200
0.102936 0.092014 0.086881
0.136696 0.102142 0.097009
0.170040 0.112145 0.107012
0.203058 0.122050 0.116917
0.235808 0.131875 0.126742
0.268332 0.141632 0.136500
0.300659 0.151331 0.146198
0.332813 0.160977 0.155844
0.364812 0.170577 0.165444
0.396672 0.180134 0.175001
0.428403 0.189654 0.184521
0.460018 0.199138 0.194005
0.491524 0.208590 0.203457
0.522929 0.218012 0.212879
0.554240 0.227405 0.222272
0.585464 0.236772 0.231639
0.616603 0.246114 0.240981
0.647665 0.255432 0.250299
0.678652 0.264728 0.259596
0.709569 0.274003 0.268871
0.740418 0.283258 0.278125
0.771203 0.292494 0.287361
0.801927 0.301711 0.296578
0.832592 0.310910 0.305778
0.863201 0.320093 0.314960
0.893755 0.329259 0.324127
0.924258 0.338410 0.333277
0.954710 0.347546 0.342413
0.985114 0.356667 0.351534
1.000000 0.361133 0.356000
1.000000 0.361133 0.356000
1.000000 0.361133 0.356000
0.083954 0.119777 0.091933
0.107989 0.119777 0.091933
0.136696 0.124853 0.097009
0.170040 0.134856 0.107012
0.203058 0.144761 0.116917
0.235808 0.154587 0.126742
0.268332 0.164344 0.136500
0.300659 0.174042 0.146198
0.332813 0.183688 0.155844
0.364812 0.193288 0.165444
0.396672 0.202846 0.175001
0.428403 0.212365 0.184521
0.460018 0.221849 0.194005
0.491524 0.231301 0.203457
0.522929 0.240723 0.212879
0.554240 0.250116 0.222272
0.585464 0.259483 0.231639
0.616603 0.268825 0.240981
0.647665 0.278144 0.250299
0.678652 0.287440 0.259596
0.709569 0.296715 0.268871
0.740418 0.305970 0.278125
0.771203 0.315205 0.287361
0.801927 0.324422 0.296578
0.832592 0.333622 0.305778
0.863201 0.342804 0.314960
0.893755 0.351971 0.324127
0.924258 0.361121 0.333277
0.954710 0.370257 0.342413
0.985114 0.379378 0.351534
1.000000 0.383844 0.356000
1.000000 0.383844 0.356000
1.000000 0.383844 0.356000
0.093427 0.151354 0.101406
0.117462 0.151354 0.101406
0.141094 0.151354 0.101406
0.170040 0.156960 0.107012
0.203058 0.166865 0.116917
0.235808 0.176691 0.126742
0.268332 0.186448 0.136500
0.300659 0.196146 0.146198
0.332813 0.205792 0.155844
0.364812 0.215392 0.165444
0.396672 0.224950 0.175001
0.428403 0.234469 0.184521
0.460018 0.243953 0.194005
0.491524 0.253405 0.203457
0.522929 0.262827 0.212879
0.554240 0.272220 0.222272
0.585464 0.281587 0.231639
0.616603 0.290929 0.240981
0.647665 0.300248 0.250299
0.678652 0.309544 0.259596
0.709569 0.318819 0.268871
0.740418 0.328074 0.278125
0.771203 0.337309 0.287361
0.801927 0.346526 0.296578
0.832592 0.355726 0.305778
0.863201 0.364908 0.314960
0.893755 0.374075 0.324127
0.924258 0.383225 0.333277
0.954710 0.392361 0.342413
0.985114 0.401482 0.351534
1.000000 0.405948 0.356000
1.000000 0.405948 0.356000
1.000000 0.405948 0.356000
0.102705 0.182281 0.110684
0.126740 0.182281 0.110684
0.150372 0.182281 0.110684
0.173712 0.182281 0.110684
0.203058 0.188514 0.116917
0.235808 0.198339 0.126742
0.268332 0.208096 0.136500
0.300659 0.217794 0.146198
0.332813 0.227441 0.155844
0.364812 0.237040 0.165444
0.396672 0.246598 0.175001
0.428403 0.256118 0.184521
0.460018 0.265602 0.194005
0.491524 0.275054 0.203457
0.522929 0.284475 0.212879
0.554240 0.293869 0.222272
0.585464 0.303236 0.231639
0.616603 0.312578 0.240981
0.647665 0.321896 0.250299
0.678652 0.331192 0.259596
0.709569 0.340467 0.268871
0.740418 0.349722 0.278125
0.771203 0.358958 0.287361
0.801927 0.368175 0.296578
0.832592 0.377374 0.305778
0.863201 0.386557 0.314960
0.893755 0.395723 0.324127
0.924258 0.404874 0.333277
0.954710 0.414010 0.342413
0.985114 0.423131 0.351534
1.000000 0.427597 0.356000
1.000000 0.427597 0.356000
1.000000 0.427597 0.356000
0.111828 0.212689 0.119807
0.135862 0.212689 0.119807
0.159494 0.212689 0.119807
0.182835 0.212689 0.119807
0.205947 0.212689 0.119807
0.235808 0.219624 0.126742
0.268332 0.229382 0.136500
0.300659 0.239080 0.146198
0.332813 0.248726 0.155844
0.364812 0.258326 0.165444
0.396672 0.267883 0.175001
0.428403 0.277403 0.184521
0.460018 0.286887 0.194005
0.491524 0.296339 0.203457
0.522929 0.305761 0.212879
0.554240 0.315154 0.222272
0.585464 0.324521 0.231639
0.616603 0.333863 0.240981
0.647665 0.343181 0.250299
0.678652 0.352478 0.259596
0.709569 0.361753 0.268871
0.740418 0.371007 0.278125
0.771203 0.380243 0.287361
0.801927 0.389460 0.296578
0.832592 0.398660 0.305778
0.863201 0.407842 0.314960
0.893755 0.417009 0.324127
0.924258 0.426159 0.333277
0.954710 0.435295 0.342413
0.985114 0.444416 0.351534
1.000000 0.448882 0.356000
1.000000 0.448882 0.356000
1.000000 0.448882 0.356000
0.120821 0.242666 0.128800
0.144855 0.242666 0.128800
0.168487 0.242666 0.128800
0.191828 0.242666 0.128800
0.214940 0.242666 0.128800
0.237866 0.242666 0.128800
0.268332 0.250366 0.136500
0.300659 0.260064 0.146198
0.332813 0.269710 0.155844
0.364812 0.279310 0.165444
0.396672 0.288868 0.175001
0.428403 0.298387 0.184521
0.460018 0.307872 0.194005
0.491524 0.317323 0.203457
0.522929 0.326745 0.212879
0.554240 0.336138 0.222272
0.585464 0.345505 0.231639
0.616603 0.354847 0.240981
0.647665 0.364166 0.250299
0.678652 0.373462 0.259596
0.709569 0.382737 0.268871
0.740418 0.391992 0.278125
0.771203 0.401227 0.287361
0.801927 0.410444 0.296578
0.832592 0.419644 0.305778
0.863201 0.428827 0.314960
0.893755 0.437993 0.324127
0.924258 0.447144 0.333277
0.954710 0.456279 0.342413
0.985114 0.465400 0.351534
1.000000 0.469866 0.356000
1.000000 0.469866 0.356000
1.000000 0.469866 0.356000
0.129704 0.272277 0.137683
0.153738 0.272277 0.137683
0.177371 0.272277 0.137683
0.200711 0.272277 0.137683
0.223824 0.272277 0.137683
0.246749 0.272277 0.137683
0.269515 0.272277 0.137683
0.300659 0.280791 0.146198
0.332813 0.290438 0.155844
0.364812 0.300037 0.165444
0.396672 0.309595 0.175001
0.428403 0.319115 0.184521
0.460018 0.328599 0.194005
0.491524 0.338051 0.203457
0.522929 0.347472 0.212879
0.554240 0.356866 0.222272
0.585464 0.366233 0.231639
0.616603 0.375575 0.240981
0.647665 0.384893 0.250299
0.678652 0.394189 0.259596
0.709569 0.403464 0.268871
0.740418 0.412719 0.278125
0.771203 0.421955 0.287361
0.801927 0.431172 0.296578
0.832592 0.440371 0.305778
0.863201 0.449554 0.314960
0.893755 0.458720 0.324127
0.924258 0.467871 0.333277
0.954710 0.477007 0.342413
0.985114 0.486128 0.351534
1.000000 0.490594 0.356000
1.000000 0.490594 0.356000
1.000000 0.490594 0.356000
0.138492 0.301568 0.146470
0.162526 0.301568 0.146470
0.186158 0.301568 0.146470
0.209499 0.301568 0.146470
0.232611 0.301568 0.146470
0.255536 0.301568 0.146470
0.278303 0.301568 0.146470
0.300932 0.301568 0.146470
0.332813 0.310942 0.155844
0.364812 0.320541 0.165444
0.396672 0.330099 0.175001
0.428403 0.339619 0.184521
0.460018 0.349103 0.194005
0.491524 0.358555 0.203457
0.522929 0.367976 0.212879
0.554240 0.377370 0.222272
0.585464 0.386737 0.231639
0.616603 0.396079 0.240981
0.647665 0.405397 0.250299
0.678652 0.414693 0.259596
0.709569 0.423968 0.268871
0.740418 0.433223 0.278125
0.771203 0.442459 0.287361
0.801927 0.451676 0.296578
0.832592 0.460875 0.305778
0.863201 0.470058 0.314960
0.893755 0.479224 0.324127
0.924258 0.488375 0.333277
0.954710 0.497511 0.342413
0.985114 0.506632 0.351534
1.000000 0.511098 0.356000
1.000000 0.511098 0.356000
1.000000 0.511098 0.356000
0.147194 0.330577 0.155173
0.171229 0.330577 0.155173
0.194861 0.330577 0.155173
0.218201 0.330577 0.155173
0.241314 0.330577 0.155173
0.264239 0.330577 0.155173
0.287006 0.330577 0.155173
0.309635 0.330577 0.155173
0.332813 0.331248 0.155844
0.364812 0.340848 0.165444
0.396672 0.350405 0.175001
0.428403 0.359925 0.184521
0.460018 0.369409 0.194005
0.491524 0.378861 0.203457
0.522929 0.388283 0.212879
0.554240 0.397676 0.222272
0.585464 0.407043 0.231639
0.616603 0.416385 0.240981
0.647665 0.425703 0.250299
0.678652 0.435000 0.259596
0.709569 0.444275 0.268871
0.740418 0.453529 0.278125
0.771203 0.462765 0.287361
0.801927 0.471982 0.296578
0.832592 0.481182 0.305778
0.863201 0.490364 0.314960
0.893755 0.499531 0.324127
0.924258 0.508681 0.333277
0.954710 0.517817 0.342413
0.985114 0.526938 0.351534
1.000000 0.531404 0.356000
1.000000 0.531404 0.356000
1.000000 0.531404 0.356000
0.155821 0.359333 0.163800
0.179855 0.359333 0.163800
0.203488 0.359333 0.163800
0.226828 0.359333 0.163800
0.249941 0.359333 0.163800
0.272866 0.359333 0.163800
0.295632 0.359333 0.163800
0.318261 0.359333 0.163800
0.340769 0.359333 0.163800
0.364812 0.360977 0.165444
0.396672 0.370535 0.175001
0.428403 0.380054 0.184521
0.460018 0.389539 0.194005
0.491524 0.398991 0.203457
0.522929 0.408412 0.212879
0.554240 0.417806 0.222272
0.585464 0.427172 0.231639
0.616603 0.436514 0.240981
0.647665 0.445833 0.250299
0.678652 0.455129 0.259596
0.709569 0.464404 0.268871
0.740418 0.473659 0.278125
0.771203 0.482894 0.287361
0.801927 0.492112 0.296578
0.832592 0.501311 0.305778
0.863201 0.510494 0.314960
0.893755 0.519660 0.324127
0.924258 0.528811 0.333277
0.954710 0.537946 0.342413
0.985114 0.547067 0.351534
1.000000 0.551533 0.356000
1.000000 0.551533 0.356000
1.000000 0.551533 0.356000
0.164380 0.387861 0.172358
0.188414 0.387861 0.172358
0.212046 0.387861 0.172358
0.235387 0.387861 0.172358
0.258499 0.387861 0.172358
0.281424 0.387861 0.172358
0.304191 0.387861 0.172358
0.326820 0.387861 0.172358
0.349328 0.387861 0.172358
0.371727 0.387861 0.172358
0.396672 0.390504 0.175001
0.428403 0.400024 0.184521
0.460018 0.409508 0.194005
0.491524 0.418960 0.203457
0.522929 0.428382 0.212879
0.554240 0.437775 0.222272
0.585464 0.447142 0.231639
0.616603 0.456484 0.240981
0.647665 0.465802 0.250299
0.678652 0.475098 0.259596
0.709569 0.484373 0.268871
0.740418 0.493628 0.278125
0.771203 0.502864 0.287361
0.801927 0.512081 0.296578
0.832592 0.521280 0.305778
0.863201 0.530463 0.314960
0.893755 0.539629 0.324127
0.924258 0.548780 0.333277
0.954710 0.557916 0.342413
0.985114 0.567037 0.351534
1.000000 0.571503 0.356000
1.000000 0.571503 0.356000
1.000000 0.571503 0.356000
0.172875 0.416180 0.180854
0.196910 0.416180 0.180854
0.220542 0.416180 0.180854
0.243882 0.416180 0.180854
0.266995 0.416180 0.180854
0.289920 0.416180 0.180854
0.312686 0.416180 0.180854
0.335316 0.416180 0.180854
0.357823 0.416180 0.180854
0.380223 0.416180 0.180854
0.402524 0.416180 0.180854
0.428403 0.419847 0.184521
0.460018 0.429332 0.194005
0.491524 0.438783 0.203457
0.522929 0.448205 0.212879
0.554240 0.457598 0.222272
0.585464 0.466965 0.231639
0.616603 0.476307 0.240981
0.647665 0.485626 0.250299
0.678652 0.494922 0.259596
0.709569 0.504197 0.268871
0.740418 0.513452 0.278125
0.771203 0.522687 0.287361
0.801927 0.531904 0.296578
0.832592 0.541104 0.305778
0.863201 0.550287 0.314960
0.893755 0.559453 0.324127
0.924258 0.568604 0.333277
0.954710 0.577739 0.342413
0.985114 0.586860 0.351534
1.000000 0.591326 0.356000
1.000000 0.591326 0.356000
1.000000 0.591326 0.356000
0.181314 0.444308 0.189292
0.205348 0.444308 0.189292
0.228980 0.444308 0.189292
0.252321 0.444308 0.189292
0.275433 0.444308 0.189292
0.298358 0.444308 0.189292
0.321125 0.444308 0.189292
0.343754 0.444308 0.189292
0.366262 0.444308 0.189292
0.388661 0.444308 0.189292
0.410963 0.444308 0.189292
0.433175 0.444308 0.189292
0.460018 0.449021 0.194005
0.491524 0.458473 0.203457
0.522929 0.467894 0.212879
0.554240 0.477288 0.222272
0.585464 0.486655 0.231639
0.616603 0.495997 0.240981
0.647665 0.505315 0.250299
0.678652 0.514611 0.259596
0.709569 0.523886 0.268871
0.740418 0.533141 0.278125
0.771203 0.542377 0.287361
0.801927 0.551594 0.296578
0.832592 0.560793 0.305778
0.863201 0.569976 0.314960
0.893755 0.579142 0.324127
0.924258 0.588293 0.333277
0.954710 0.597429 0.342413
0.985114 0.606550 0.351534
1.000000 0.611016 0.356000
1.000000 0.611016 0.356000
1.000000 0.611016 0.356000
0.189699 0.472259 0.197678
0.213733 0.472259 0.197678
0.237365 0.472259 0.197678
0.260706 0.472259 0.197678
0.283818 0.472259 0.197678
0.306743 0.472259 0.197678
0.329510 0.472259 0.197678
0.352139 0.472259 0.197678
0.374647 0.472259 0.197678
0.397046 0.472259 0.197678
0.419348 0.472259 0.197678
0.441560 0.472259 0.197678
0.463690 0.472259 0.197678
0.491524 0.478038 0.203457
0.522929 0.487460 0.212879
0.554240 0.496853 0.222272
0.585464 0.506220 0.231639
0.616603 0.515562 0.240981
0.647665 0.524881 0.250299
0.678652 0.534177 0.259596
0.709569 0.543452 0.268871
0.740418 0.552707 0.278125
0.771203 0.561942 0.287361
0.801927 0.571159 0.296578
0.832592 0.580359 0.305778
0.863201 0.589541 0.314960
0.893755 0.598708 0.324127
0.924258 0.607858 0.333277
0.954710 0.616994 0.342413
0.985114 0.626115 0.351534
1.000000 0.630581 0.356000
1.000000 0.630581 0.356000
1.000000 0.630581 0.356000
0.198035 0.500045 0.206013
0.222069 0.500045 0.206013
0.245701 0.500045 0.206013
0.269042 0.500045 0.206013
0.292154 0.500045 0.206013
0.315079 0.500045 0.206013
0.337846 0.500045 0.206013
0.360475 0.500045 0.206013
0.382983 0.500045 0.206013
0.405382 0.500045 0.206013
0.427684 0.500045 0.206013
0.449896 0.500045 0.206013
0.472026 0.500045 0.206013
0.494080 0.500045 0.206013
0.522929 0.506910 0.212879
0.554240 0.516304 0.222272
0.585464 0.525670 0.231639
0.616603 0.535012 0.240981
0.647665 0.544331 0.250299
0.678652 0.553627 0.259596
0.709569 0.562902 0.268871
0.740418 0.572157 0.278125
0.771203 0.581392 0.287361
0.801927 0.590610 0.296578
0.832592 0.599809 0.305778
0.863201 0.608992 0.314960
0.893755 0.618158 0.324127
0.924258 0.627309 0.333277
0.954710 0.636444 0.342413
0.985114 0.645565 0.351534
1.000000 0.650031 0.356000
1.000000 0.650031 0.356000
1.000000 0.650031 0.356000
0.206324 0.527677 0.214303
0.230359 0.527677 0.214303
0.253991 0.527677 0.214303
0.277331 0.527677 0.214303
0.300444 0.527677 0.214303
0.323369 0.527677 0.214303
0.346136 0.527677 0.214303
0.368765 0.527677 0.214303
0.391272 0.527677 0.214303
0.413672 0.527677 0.214303
0.435973 0.527677 0.214303
0.458185 0.527677 0.214303
0.480316 0.527677 0.214303
0.502370 0.527677 0.214303
0.524354 0.527677 0.214303
0.554240 0.535646 0.222272
0.585464 0.545013 0.231639
0.616603 0.554355 0.240981
0.647665 0.563674 0.250299
0.678652 0.572970 0.259596
0.709569 0.582245 0.268871
0.740418 0.591500 0.278125
0.771203 0.600735 0.287361
0.801927 0.609952 0.296578
0.832592 0.619152 0.305778
0.863201 0.628334 0.314960
0.893755 0.637501 0.324127
0.924258 0.646651 0.333277
0.954710 0.655787 0.342413
0.985114 0.664908 0.351534
1.000000 0.669374 0.356000
1.000000 0.669374 0.356000
1.000000 0.669374 0.356000
0.214571 0.555166 0.222550
0.238605 0.555166 0.222550
0.262237 0.555166 0.222550
0.285578 0.555166 0.222550
0.308690 0.555166 0.222550
0.331616 0.555166 0.222550
0.354382 0.555166 0.222550
0.377011 0.555166 0.222550
0.399519 0.555166 0.222550
0.421918 0.555166 0.222550
0.444220 0.555166 0.222550
0.466432 0.555166 0.222550
0.488562 0.555166 0.222550
0.510616 0.555166 0.222550
0.532600 0.555166 0.222550
0.554518 0.555166 0.222550
0.585464 0.564255 0.231639
0.616603 0.573597 0.240981
0.647665 0.582915 0.250299
0.678652 0.592212 0.259596
0.709569 0.601487 0.268871
0.740418 0.610741 0.278125
0.771203 0.619977 0.287361
0.801927 0.629194 0.296578
0.832592 0.638394 0.305778
0.863201 0.647576 0.314960
0.893755 0.656743 0.324127
0.924258 0.665893 0.333277
0.954710 0.675029 0.342413
0.985114 0.684150 0.351534
1.000000 0.688616 0.356000
1.000000 0.688616 0.356000
1.000000 0.688616 0.356000
0.222777 0.582519 0.230756
0.246811 0.582519 0.230756
0.270443 0.582519 0.230756
0.293784 0.582519 0.230756
0.316896 0.582519 0.230756
0.339821 0.582519 0.230756
0.362588 0.582519 0.230756
0.385217 0.582519 0.230756
0.407725 0.582519 0.230756
0.430124 0.582519 0.230756
0.452426 0.582519 0.230756
0.474638 0.582519 0.230756
0.496768 0.582519 0.230756
0.518822 0.582519 0.230756
0.540806 0.582519 0.230756
0.562724 0.582519 0.230756
0.585464 0.583402 0.231639
0.616603 0.592744 0.240981
0.647665 0.602062 0.250299
0.678652 0.611359 0.259596
0.709569 0.620634 0.268871
0.740418 0.629888 0.278125
0.771203 0.639124 0.287361
0.801927 0.648341 0.296578
0.832592 0.657541 0.305778
0.863201 0.666723 0.314960
0.893755 0.675890 0.324127
0.924258 0.685040 0.333277
0.954710 0.694176 0.342413
0.985114 0.703297 0.351534
1.000000 0.707763 0.356000
1.000000 0.707763 0.356000
1.000000 0.707763 0.356000
0.230944 0.609744 0.238923
0.254979 0.609744 0.238923
0.278611 0.609744 0.238923
0.301951 0.609744 0.238923
0.325064 0.609744 0.238923
0.347989 0.609744 0.238923
0.370755 0.609744 0.238923
0.393384 0.609744 0.238923
0.415892 0.609744 0.238923
0.438292 0.609744 0.238923
0.460593 0.609744 0.238923
0.482805 0.609744 0.238923
0.504935 0.609744 0.238923
0.526990 0.609744 0.238923
0.548973 0.609744 0.238923
0.570891 0.609744 0.238923
0.592748 0.609744 0.238923
0.616603 0.611801 0.240981
0.647665 0.621120 0.250299
0.678652 0.630416 0.259596
0.709569 0.639691 0.268871
0.740418 0.648946 0.278125
0.771203 0.658181 0.287361
0.801927 0.667399 0.296578
0.832592 0.676598 0.305778
0.863201 0.685781 0.314960
0.893755 0.694947 0.324127
0.924258 0.704098 0.333277
0.954710 0.713233 0.342413
0.985114 0.722355 0.351534
1.000000 0.726820 0.356000
1.000000 0.726820 0.356000
1.000000 0.726820 0.356000
0.239075 0.636847 0.247054
0.263110 0.636847 0.247054
0.286742 0.636847 0.247054
0.310082 0.636847 0.247054
0.333195 0.636847 0.247054
0.356120 0.636847 0.247054
0.378887 0.636847 0.247054
0.401516 0.636847 0.247054
0.424024 0.636847 0.247054
0.446423 0.636847 0.247054
0.468724 0.636847 0.247054
0.490937 0.636847 0.247054
0.513067 0.636847 0.247054
0.535121 0.636847 0.247054
0.557105 0.636847 0.247054
0.579023 0.636847 0.247054
0.600879 0.636847 0.247054
0.622677 0.636847 0.247054
0.647665 0.640093 0.250299
0.678652 0.649389 0.259596
0.709569 0.658664 0.268871
0.740418 0.667919 0.278125
0.771203 0.677154 0.287361
0.801927 0.686371 0.296578
0.832592 0.695571 0.305778
0.863201 0.704754 0.314960
0.893755 0.713920 0.324127
0.924258 0.723071 0.333277
0.954710 0.732206 0.342413
0.985114 0.741327 0.351534
1.000000 0.745793 0.356000
1.000000 0.745793 0.356000
1.000000 0.745793 0.356000
0.247172 0.663837 0.255151
0.271206 0.663837 0.255151
0.294839 0.663837 0.255151
0.318179 0.663837 0.255151
0.341292 0.663837 0.255151
0.364217 0.663837 0.255151
0.386983 0.663837 0.255151
0.409612 0.663837 0.255151
0.432120 0.663837 0.255151
0.454520 0.663837 0.255151
0.476821 0.663837 0.255151
0.499033 0.663837 0.255151
0.521163 0.663837 0.255151
0.543218 0.663837 0.255151
0.565201 0.663837 0.255151
0.587119 0.663837 0.255151
0.608975 0.663837 0.255151
0.630773 0.663837 0.255151
0.652516 0.663837 0.255151
0.678652 0.668281 0.259596
0.709569 0.677556 0.268871
0.740418 0.686811 0.278125
0.771203 0.696047 0.287361
0.801927 0.705264 0.296578
0.832592 0.714463 0.305778
0.863201 0.723646 0.314960
0.893755 0.732812 0.324127
0.924258 0.741963 0.333277
0.954710 0.751099 0.342413
0.985114 0.760220 0.351534
1.000000 0.764686 0.356000
1.000000 0.764686 0.356000
1.000000 0.764686 0.356000
0.255236 0.690716 0.263215
0.279270 0.690716 0.263215
0.302902 0.690716 0.263215
0.326243 0.690716 0.263215
0.349356 0.690716 0.263215
0.372281 0.690716 0.263215
0.395047 0.690716 0.263215
0.417676 0.690716 0.263215
0.440184 0.690716 0.263215
0.462584 0.690716 0.263215
0.484885 0.690716 0.263215
0.507097 0.690716 0.263215
0.529227 0.690716 0.263215
0.551282 0.690716 0.263215
0.573265 0.690716 0.263215
0.595183 0.690716 0.263215
0.617039 0.690716 0.263215
0.638837 0.690716 0.263215
0.660580 0.690716 0.263215
0.682271 0.690716 0.263215
0.709569 0.696372 0.268871
0.740418 0.705627 0.278125
0.771203 0.714862 0.287361
0.801927 0.724080 0.296578
0.832592 0.733279 0.305778
0.863201 0.742462 0.314960
0.893755 0.751628 0.324127
0.924258 0.760779 0.333277
0.954710 0.769914 0.342413
0.985114 0.779035 0.351534
1.000000 0.783501 0.356000
1.000000 0.783501 0.356000
1.000000 0.783501 0.356000
0.263269 0.717492 0.271247
0.287303 0.717492 0.271248
0.310935 0.717492 0.271248
0.334276 0.717492 0.271248
0.357388 0.717492 0.271248
0.380313 0.717492 0.271248
0.403080 0.717492 0.271248
0.425709 0.717492 0.271248
0.448217 0.717492 0.271248
0.470616 0.717492 0.271248
0.492918 0.717492 0.271248
0.515130 0.717492 0.271248
0.537260 0.717492 0.271248
0.559314 0.717492 0.271248
0.581298 0.717492 0.271248
0.603216 0.717492 0.271248
0.625072 0.717492 0.271248
0.646870 0.717492 0.271248
0.668613 0.717492 0.271248
0.690304 0.717492 0.271248
0.711946 0.717492 0.271248
0.740418 0.724370 0.278125
0.771203 0.733605 0.287361
0.801927 0.742822 0.296578
0.832592 0.752022 0.305778
0.863201 0.761204 0.314960
0.893755 0.770371 0.324127
0.924258 0.779522 0.333277
0.954710 0.788657 0.342413
0.985114 0.797778 0.351534
1.000000 0.802244 0.356000
1.000000 0.802244 0.356000
1.000000 0.802244 0.356000
0.271271 0.744168 0.279250
0.295306 0.744168 0.279250
0.318938 0.744168 0.279250
0.342278 0.744168 0.279250
0.365391 0.744168 0.279250
0.388316 0.744168 0.279250
0.411083 0.744168 0.279250
0.433712 0.744168 0.279250
0.456220 0.744168 0.279250
0.478619 0.744168 0.279250
0.500920 0.744168 0.279250
0.523133 0.744168 0.279250
0.545263 0.744168 0.279250
0.567317 0.744168 0.279250
0.589301 0.744168 0.279250
0.611219 0.744168 0.279250
0.633075 0.744168 0.279250
0.654873 0.744168 0.279250
0.676616 0.744168 0.279250
0.698307 0.744168 0.279250
0.719948 0.744168 0.279250
0.741543 0.744168 0.279250
0.771203 0.752278 0.287361
0.801927 0.761496 0.296578
0.832592 0.770695 0.305778
0.863201 0.779878 0.314960
0.893755 0.789044 0.324127
0.924258 0.798195 0.333277
0.954710 0.807330 0.342413
0.985114 0.816451 0.351534
1.000000 0.820917 0.356000
1.000000 0.820917 0.356000
1.000000 0.820917 0.356000
0.279246 0.770748 0.287224
0.303280 0.770748 0.287224
0.326912 0.770748 0.287224
0.350253 0.770748 0.287224
0.373365 0.770748 0.287224
0.396290 0.770748 0.287224
0.419057 0.770748 0.287224
0.441686 0.770748 0.287224
0.464194 0.770748 0.287224
0.486593 0.770748 0.287224
0.508895 0.770748 0.287224
0.531107 0.770748 0.287224
0.553237 0.770748 0.287224
0.575291 0.770748 0.287224
0.597275 0.770748 0.287224
0.619193 0.770748 0.287224
0.641049 0.770748 0.287224
0.662847 0.770748 0.287224
0.684590 0.770748 0.287224
0.706281 0.770748 0.287224
0.727923 0.770748 0.287224
0.749517 0.770748 0.287224
0.771203 0.770885 0.287361
0.801927 0.780102 0.296578
0.832592 0.789301 0.305778
0.863201 0.798484 0.314960
0.893755 0.807650 0.324127
0.924258 0.816801 0.333277
0.954710 0.825937 0.342413
0.985114 0.835058 0.351534
1.000000 0.839524 0.356000
1.000000 0.839524 0.356000
1.000000 0.839524 0.356000
0.287192 0.797237 0.295171
0.311227 0.797237 0.295171
0.334859 0.797237 0.295171
0.358199 0.797237 0.295171
0.381312 0.797237 0.295171
0.404237 0.797237 0.295171
0.427004 0.797237 0.295171
0.449633 0.797237 0.295171
0.472140 0.797237 0.295171
0.494540 0.797237 0.295171
0.516841 0.797237 0.295171
0.539053 0.797237 0.295171
0.561184 0.797237 0.295171
0.583238 0.797237 0.295171
0.605222 0.797237 0.295171
0.627140 0.797237 0.295171
0.648996 0.797237 0.295171
0.670794 0.797237 0.295171
0.692537 0.797237 0.295171
0.714228 0.797237 0.295171
0.735869 0.797237 0.295171
0.757464 0.797237 0.295171
0.779013 0.797237 0.295171
0.801927 0.798644 0.296578
0.832592 0.807844 0.305778
0.863201 0.817026 0.314960
0.893755 0.826193 0.324127
0.924258 0.835344 0.333277
