backend/luts/vhs_90s.cube
TITLE "90s VHS"
LUT_3D_SIZE 9
DOMAIN_MIN 0.0 0.0 0.0
DOMAIN_MAX 1.0 1.0 1.0
0.072021 0.061518 0.080000
0.203058 0.098436 0.116917
0.332813 0.137362 0.155844
0.460018 0.175524 0.194005
0.585464 0.213157 0.231639
0.709569 0.250389 0.268871
0.832592 0.287296 0.305778
0.954710 0.323931 0.342413
1.000000 0.337518 0.356000
0.102705 0.182281 0.110684
0.203058 0.188514 0.116917
0.332813 0.227441 0.155844
0.460018 0.265602 0.194005
0.585464 0.303236 0.231639
0.709569 0.340467 0.268871
0.832592 0.377374 0.305778
0.954710 0.414010 0.342413
1.000000 0.427597 0.356000
0.138492 0.301568 0.146470
0.232611 0.301568 0.146470
0.332813 0.310942 0.155844
0.460018 0.349103 0.194005
0.585464 0.386737 0.231639
0.709569 0.423968 0.268871
0.832592 0.460875 0.305778
0.954710 0.497511 0.342413
1.000000 0.511098 0.356000
0.172875 0.416180 0.180854
0.266995 0.416180 0.180854
0.357823 0.416180 0.180854
0.460018 0.429332 0.194005
0.585464 0.466965 0.231639
0.709569 0.504197 0.268871
0.832592 0.541104 0.305778
0.954710 0.577739 0.342413
1.000000 0.591326 0.356000
0.206324 0.527677 0.214303
0.300444 0.527677 0.214303
0.391272 0.527677 0.214303
0.480316 0.527677 0.214303
0.585464 0.545013 0.231639
0.709569 0.582245 0.268871
0.832592 0.619152 0.305778
0.954710 0.655787 0.342413
1.000000 0.669374 0.356000
0.239075 0.636847 0.247054
0.333195 0.636847 0.247054
0.424024 0.636847 0.247054
0.513067 0.636847 0.247054
0.600879 0.636847 0.247054
0.709569 0.658664 0.268871
0.832592 0.695571 0.305778
0.954710 0.732206 0.342413
1.000000 0.745793 0.356000
0.271271 0.744168 0.279250
0.365391 0.744168 0.279250
0.456220 0.744168 0.279250
0.545263 0.744168 0.279250
0.633075 0.744168 0.279250
0.719948 0.744168 0.279250
0.832592 0.770695 0.305778
0.954710 0.807330 0.342413
1.000000 0.820917 0.356000
0.303008 0.849956 0.310987
0.397128 0.849956 0.310987
0.487956 0.849956 0.310987
0.576999 0.849956 0.310987
0.664811 0.849956 0.310987
0.751685 0.849956 0.310987
0.837801 0.849956 0.310987
0.954710 0.881382 0.342413
1.000000 0.894969 0.356000
0.334353 0.954440 0.342332
0.428473 0.954440 0.342332
0.519301 0.954440 0.342332
0.608344 0.954440 0.342332
0.696156 0.954440 0.342332
0.783030 0.954440 0.342332
0.869147 0.954440 0.342332
0.954710 0.954521 0.342413
1.000000 0.968108 0.356000
0.108396 0.097893 0.201250
0.203058 0.098436 0.201792
0.332813 0.137362 0.240719
0.460018 0.175524 0.278880
0.585464 0.213157 0.316514
0.709569 0.250389 0.353746
0.832592 0.287296 0.390652
0.954710 0.323931 0.427288
1.000000 0.337518 0.440875
0.108396 0.187972 0.201250
0.203058 0.188514 0.201792
0.332813 0.227441 0.240719
0.460018 0.265602 0.278880
0.585464 0.303236 0.316514
0.709569 0.340467 0.353746
0.832592 0.377374 0.390653
0.954710 0.414010 0.427288
1.000000 0.427597 0.440875
0.138492 0.301568 0.231345
0.232611 0.301568 0.231345
0.332813 0.310942 0.240719
0.460018 0.349103 0.278880
0.585464 0.386737 0.316514
0.709569 0.423968 0.353746
0.832592 0.460875 0.390653
0.954710 0.497511 0.427288
1.000000 0.511098 0.440875
0.172875 0.416180 0.265729
0.266995 0.416180 0.265729
0.357823 0.416180 0.265729
0.460018 0.429332 0.278880
0.585464 0.466965 0.316514
0.709569 0.504197 0.353746
0.832592 0.541104 0.390653
0.954710 0.577739 0.427288
1.000000 0.591326 0.440875
0.206324 0.527677 0.299178
0.300444 0.527677 0.299178
0.391272 0.527677 0.299178
0.480316 0.527677 0.299178
0.585464 0.545013 0.316514
0.709569 0.582245 0.353746
0.832592 0.619152 0.390653
0.954710 0.655787 0.427288
1.000000 0.669374 0.440875
0.239075 0.636847 0.331929
0.333195 0.636847 0.331929
0.424023 0.636847 0.331929
0.513067 0.636847 0.331929
0.600879 0.636847 0.331929
0.709569 0.658664 0.353746
0.832592 0.695571 0.390653
0.954710 0.732206 0.427288
1.000000 0.745793 0.440875
0.271271 0.744168 0.364125
0.365391 0.744168 0.364125
0.456220 0.744168 0.364125
0.545263 0.744168 0.364125
0.633075 0.744168 0.364125
0.719948 0.744168 0.364125
0.832592 0.770695 0.390653
0.954710 0.807330 0.427288
1.000000 0.820917 0.440875
0.303008 0.849956 0.395862
0.397128 0.849956 0.395862
0.487956 0.849956 0.395862
0.576999 0.849956 0.395862
0.664811 0.849956 0.395862
0.751685 0.849956 0.395862
0.837801 0.849956 0.395862
0.954710 0.881382 0.427288
1.000000 0.894969 0.440875
0.334353 0.954440 0.427207
0.428473 0.954440 0.427207
0.519301 0.954440 0.427207
0.608344 0.954440 0.427207
0.696156 0.954440 0.427207
0.783030 0.954440 0.427207
0.869147 0.954440 0.427207
0.954710 0.954521 0.427288
1.000000 0.968108 0.440875
0.144771 0.134268 0.322500
0.238891 0.134268 0.322500
0.332813 0.137362 0.325594
0.460018 0.175524 0.363755
0.585464 0.213157 0.401389
0.709569 0.250389 0.438621
0.832592 0.287296 0.475528
0.954710 0.323931 0.512163
1.000000 0.337518 0.525750
0.144771 0.224347 0.322500
0.238891 0.224347 0.322500
0.332813 0.227441 0.325594
0.460018 0.265602 0.363755
0.585464 0.303236 0.401389
0.709569 0.340467 0.438621
0.832592 0.377374 0.475528
0.954710 0.414010 0.512163
1.000000 0.427597 0.525750
0.144771 0.307848 0.322500
0.238891 0.307848 0.322500
0.332813 0.310942 0.325594
0.460018 0.349103 0.363755
0.585464 0.386737 0.401389
0.709569 0.423968 0.438621
0.832592 0.460875 0.475528
0.954710 0.497511 0.512163
1.000000 0.511098 0.525750
0.172875 0.416180 0.350604
0.266995 0.416180 0.350604
0.357823 0.416180 0.350604
0.460018 0.429332 0.363755
0.585464 0.466965 0.401389
0.709569 0.504197 0.438621
0.832592 0.541104 0.475528
0.954710 0.577739 0.512163
1.000000 0.591326 0.525750
0.206324 0.527677 0.384053
0.300444 0.527677 0.384053
0.391272 0.527677 0.384053
0.480316 0.527677 0.384053
0.585464 0.545013 0.401389
0.709569 0.582245 0.438621
0.832592 0.619152 0.475528
0.954710 0.655787 0.512163
1.000000 0.669374 0.525750
0.239075 0.636847 0.416804
0.333195 0.636847 0.416804
0.424023 0.636847 0.416804
0.513067 0.636847 0.416804
0.600879 0.636847 0.416804
0.709569 0.658664 0.438621
0.832592 0.695571 0.475528
0.954710 0.732206 0.512163
1.000000 0.745793 0.525750
0.271271 0.744168 0.449000
0.365391 0.744168 0.449000
0.456220 0.744168 0.449000
0.545263 0.744168 0.449000
0.633075 0.744168 0.449000
0.719948 0.744168 0.449000
0.832592 0.770695 0.475528
0.954710 0.807330 0.512163
1.000000 0.820917 0.525750
0.303008 0.849956 0.480737
0.397128 0.849956 0.480737
0.487956 0.849956 0.480737
0.576999 0.849956 0.480737
0.664811 0.849956 0.480737
0.751685 0.849956 0.480737
0.837801 0.849956 0.480737
0.954710 0.881382 0.512163
1.000000 0.894969 0.525750
0.334353 0.954440 0.512082
0.428473 0.954440 0.512082
0.519301 0.954440 0.512082
0.608344 0.954440 0.512082
0.696157 0.954440 0.512082
0.783030 0.954440 0.512082
0.869147 0.954440 0.512082
0.954710 0.954521 0.512163
1.000000 0.968108 0.525750
0.181146 0.170643 0.443750
0.275266 0.170643 0.443750
0.366094 0.170643 0.443750
0.460018 0.175524 0.448630
0.585464 0.213157 0.486264
0.709569 0.250389 0.523496
0.832592 0.287296 0.560403
0.954710 0.323931 0.597038
1.000000 0.337518 0.610625
0.181146 0.260722 0.443750
0.275266 0.260722 0.443750
0.366094 0.260722 0.443750
0.460018 0.265602 0.448630
0.585464 0.303236 0.486264
0.709569 0.340467 0.523496
0.832592 0.377374 0.560403
0.954710 0.414010 0.597038
1.000000 0.427597 0.610625
0.181146 0.344223 0.443750
0.275266 0.344223 0.443750
0.366094 0.344223 0.443750
0.460018 0.349103 0.448630
0.585464 0.386737 0.486264
0.709569 0.423968 0.523496
0.832592 0.460875 0.560403
0.954710 0.497511 0.597038
1.000000 0.511098 0.610625
0.181146 0.424451 0.443750
0.275266 0.424451 0.443750
0.366094 0.424451 0.443750
0.460018 0.429332 0.448630
0.585464 0.466965 0.486264
0.709569 0.504197 0.523496
0.832592 0.541104 0.560403
0.954710 0.577739 0.597038
1.000000 0.591326 0.610625
0.206324 0.527677 0.468928
0.300444 0.527677 0.468928
0.391272 0.527677 0.468928
0.480316 0.527677 0.468928
0.585464 0.545013 0.486264
0.709569 0.582245 0.523496
0.832592 0.619152 0.560403
0.954710 0.655787 0.597038
1.000000 0.669374 0.610625
0.239075 0.636847 0.501679
0.333195 0.636847 0.501679
0.424023 0.636847 0.501679
0.513067 0.636847 0.501679
0.600879 0.636847 0.501679
0.709569 0.658664 0.523496
0.832592 0.695571 0.560403
0.954710 0.732206 0.597038
1.000000 0.745793 0.610625
0.271271 0.744168 0.533875
0.365391 0.744168 0.533875
0.456220 0.744168 0.533875
0.545263 0.744168 0.533875
0.633075 0.744168 0.533875
0.719948 0.744168 0.533875
0.832592 0.770695 0.560403
0.954710 0.807330 0.597038
1.000000 0.820917 0.610625
0.303008 0.849956 0.565612
0.397128 0.849956 0.565612
0.487956 0.849956 0.565612
0.576999 0.849956 0.565612
0.664811 0.849956 0.565612
0.751685 0.849956 0.565612
0.837801 0.849956 0.565612
0.954710 0.881382 0.597038
1.000000 0.894969 0.610625
0.334353 0.954440 0.596957
0.428473 0.954440 0.596957
0.519301 0.954440 0.596957
0.608345 0.954440 0.596957
0.696157 0.954440 0.596957
0.783030 0.954440 0.596957
0.869147 0.954440 0.596957
0.954710 0.954521 0.597038
1.000000 0.968108 0.610625
0.217521 0.207018 0.565000
0.311641 0.207018 0.565000
0.402469 0.207018 0.565000
0.491512 0.207018 0.565000
0.585464 0.213157 0.571139
0.709569 0.250389 0.608371
0.832592 0.287296 0.645278
0.954710 0.323931 0.681913
1.000000 0.337518 0.695500
0.217521 0.297097 0.565000
0.311641 0.297097 0.565000
0.402469 0.297097 0.565000
0.491512 0.297097 0.565000
0.585464 0.303236 0.571139
0.709569 0.340467 0.608371
0.832592 0.377374 0.645278
0.954710 0.414010 0.681913
1.000000 0.427597 0.695500
0.217521 0.380598 0.565000
0.311641 0.380598 0.565000
0.402469 0.380598 0.565000
0.491512 0.380598 0.565000
0.585464 0.386737 0.571139
0.709569 0.423968 0.608371
0.832592 0.460875 0.645278
0.954710 0.497511 0.681913
1.000000 0.511098 0.695500
0.217521 0.460826 0.565000
0.311641 0.460826 0.565000
0.402469 0.460826 0.565000
0.491512 0.460826 0.565000
0.585464 0.466965 0.571139
0.709569 0.504197 0.608371
0.832592 0.541104 0.645278
0.954710 0.577739 0.681913
1.000000 0.591326 0.695500
0.217521 0.538874 0.565000
0.311641 0.538874 0.565000
0.402469 0.538874 0.565000
0.491512 0.538874 0.565000
0.585464 0.545013 0.571139
0.709569 0.582245 0.608371
0.832592 0.619152 0.645278
0.954710 0.655787 0.681913
1.000000 0.669374 0.695500
0.239075 0.636847 0.586554
0.333195 0.636847 0.586554
0.424023 0.636847 0.586554
0.513067 0.636847 0.586554
0.600879 0.636847 0.586554
0.709569 0.658664 0.608371
0.832592 0.695571 0.645278
0.954710 0.732206 0.681913
1.000000 0.745793 0.695500
0.271271 0.744168 0.618750
0.365391 0.744168 0.618750
0.456220 0.744168 0.618750
0.545263 0.744168 0.618750
0.633075 0.744168 0.618750
0.719948 0.744168 0.618750
0.832592 0.770695 0.645278
0.954710 0.807330 0.681913
1.000000 0.820917 0.695500
0.303008 0.849956 0.650487
0.397128 0.849956 0.650487
0.487956 0.849956 0.650487
0.576999 0.849956 0.650487
0.664811 0.849956 0.650487
0.751685 0.849956 0.650487
0.837801 0.849956 0.650487
0.954710 0.881382 0.681913
1.000000 0.894969 0.695500
0.334353 0.954440 0.681832
0.428473 0.954440 0.681832
0.519301 0.954440 0.681832
0.608344 0.954440 0.681832
0.696157 0.954440 0.681832
0.783030 0.954440 0.681832
0.869147 0.954440 0.681832
0.954710 0.954521 0.681913
1.000000 0.968108 0.695500
0.253896 0.243393 0.686250
0.348016 0.243393 0.686250
0.438844 0.243393 0.686250
0.527887 0.243393 0.686250
0.615699 0.243393 0.686250
0.709569 0.250389 0.693246
0.832592 0.287296 0.730153
0.954710 0.323931 0.766788
1.000000 0.337518 0.780375
0.253896 0.333472 0.686250
0.348016 0.333472 0.686250
0.438844 0.333472 0.686250
0.527887 0.333472 0.686250
0.615699 0.333472 0.686250
0.709569 0.340467 0.693246
0.832592 0.377374 0.730153
0.954710 0.414010 0.766788
1.000000 0.427597 0.780375
0.253896 0.416973 0.686250
0.348016 0.416973 0.686250
0.438844 0.416973 0.686250
0.527887 0.416973 0.686250
0.615699 0.416973 0.686250
0.709569 0.423968 0.693246
0.832592 0.460875 0.730153
0.954710 0.497511 0.766788
1.000000 0.511098 0.780375
0.253896 0.497201 0.686250
0.348016 0.497201 0.686250
0.438844 0.497201 0.686250
0.527887 0.497201 0.686250
0.615699 0.497201 0.686250
0.709569 0.504197 0.693246
0.832592 0.541104 0.730153
0.954710 0.577739 0.766788
1.000000 0.591326 0.780375
0.253896 0.575249 0.686250
0.348016 0.575249 0.686250
0.438844 0.575249 0.686250
0.527887 0.575249 0.686250
0.615699 0.575249 0.686250
0.709569 0.582245 0.693246
0.832592 0.619152 0.730153
0.954710 0.655787 0.766788
1.000000 0.669374 0.780375
0.253896 0.651668 0.686250
0.348016 0.651668 0.686250
0.438844 0.651668 0.686250
0.527887 0.651668 0.686250
0.615699 0.651668 0.686250
0.709569 0.658664 0.693246
0.832592 0.695571 0.730153
0.954710 0.732206 0.766788
1.000000 0.745793 0.780375
0.271271 0.744168 0.703625
0.365391 0.744168 0.703625
0.456220 0.744168 0.703625
0.545263 0.744168 0.703625
0.633075 0.744168 0.703625
0.719948 0.744168 0.703625
0.832592 0.770695 0.730153
0.954710 0.807330 0.766788
1.000000 0.820917 0.780375
0.303008 0.849956 0.735362
0.397128 0.849956 0.735362
0.487956 0.849956 0.735362
0.576999 0.849956 0.735362
0.664811 0.849956 0.735362
0.751685 0.849956 0.735362
0.837801 0.849956 0.735362
0.954710 0.881382 0.766788
1.000000 0.894969 0.780375
0.334353 0.954440 0.766707
0.428473 0.954440 0.766707
0.519301 0.954440 0.766707
0.608344 0.954440 0.766707
0.696157 0.954440 0.766707
0.783030 0.954440 0.766707
0.869147 0.954440 0.766707
0.954710 0.954521 0.766788
1.000000 0.968108 0.780375
0.290271 0.279768 0.807500
0.384391 0.279768 0.807500
0.475219 0.279768 0.807500
0.564262 0.279768 0.807500
0.652075 0.279768 0.807500
0.738948 0.279768 0.807500
0.832592 0.287296 0.815027
0.954710 0.323931 0.851663
1.000000 0.337518 0.865250
0.290271 0.369847 0.807500
0.384391 0.369847 0.807500
0.475219 0.369847 0.807500
0.564262 0.369847 0.807500
0.652074 0.369847 0.807500
0.738948 0.369847 0.807500
0.832592 0.377374 0.815028
0.954710 0.414010 0.851663
1.000000 0.427597 0.865250
0.290271 0.453347 0.807500
0.384391 0.453348 0.807500
0.475219 0.453348 0.807500
0.564262 0.453348 0.807500
0.652075 0.453348 0.807500
0.738948 0.453348 0.807500
0.832592 0.460875 0.815028
0.954710 0.497511 0.851663
1.000000 0.511098 0.865250
0.290271 0.533576 0.807500
0.384391 0.533576 0.807500
0.475219 0.533576 0.807500
0.564262 0.533576 0.807500
0.652074 0.533576 0.807500
0.738948 0.533576 0.807500
0.832592 0.541104 0.815028
0.954710 0.577739 0.851663
1.000000 0.591326 0.865250
0.290271 0.611624 0.807500
0.384391 0.611624 0.807500
0.475219 0.611624 0.807500
0.564262 0.611624 0.807500
0.652075 0.611624 0.807500
0.738948 0.611624 0.807500
0.832592 0.619152 0.815028
0.954710 0.655787 0.851663
1.000000 0.669374 0.865250
0.290271 0.688043 0.807500
0.384391 0.688043 0.807500
0.475219 0.688043 0.807500
0.564262 0.688043 0.807500
0.652074 0.688043 0.807500
0.738948 0.688043 0.807500
0.832592 0.695571 0.815028
0.954710 0.732206 0.851663
1.000000 0.745793 0.865250
0.290271 0.763167 0.807500
0.384391 0.763167 0.807500
0.475219 0.763167 0.807500
0.564262 0.763167 0.807500
0.652074 0.763167 0.807500
0.738948 0.763167 0.807500
0.832592 0.770695 0.815028
0.954710 0.807330 0.851663
1.000000 0.820917 0.865250
0.303008 0.849956 0.820237
0.397128 0.849956 0.820237
0.487956 0.849956 0.820237
0.576999 0.849956 0.820237
0.664811 0.849956 0.820237
0.751685 0.849956 0.820237
0.837801 0.849956 0.820237
0.954710 0.881382 0.851663
1.000000 0.894969 0.865250
0.334353 0.954440 0.851582
0.428473 0.954440 0.851582
0.519301 0.954440 0.851582
0.608344 0.954440 0.851582
0.696157 0.954440 0.851582
0.783030 0.954440 0.851582
0.869147 0.954440 0.851582
0.954710 0.954521 0.851663
1.000000 0.968108 0.865250
0.326646 0.316143 0.928750
0.420766 0.316143 0.928750
0.511594 0.316143 0.928750
0.600637 0.316143 0.928750
0.688449 0.316143 0.928750
0.775323 0.316143 0.928750
0.861439 0.316143 0.928750
0.954710 0.323931 0.936538
1.000000 0.337518 0.950125
0.326646 0.406221 0.928750
0.420766 0.406222 0.928750
0.511594 0.406222 0.928750
0.600637 0.406222 0.928750
0.688449 0.406222 0.928750
0.775323 0.406222 0.928750
0.861440 0.406222 0.928750
0.954710 0.414010 0.936538
1.000000 0.427597 0.950125
0.326646 0.489723 0.928750
0.420766 0.489722 0.928750
0.511594 0.489723 0.928750
0.600637 0.489723 0.928750
0.688449 0.489723 0.928750
0.775323 0.489723 0.928750
0.861440 0.489723 0.928750
0.954710 0.497511 0.936538
1.000000 0.511098 0.950125
0.326646 0.569951 0.928750
0.420766 0.569951 0.928750
0.511594 0.569951 0.928750
0.600637 0.569951 0.928750
0.688449 0.569951 0.928750
0.775323 0.569951 0.928750
0.861439 0.569951 0.928750
0.954710 0.577739 0.936538
1.000000 0.591326 0.950125
0.326646 0.647999 0.928750
0.420766 0.647999 0.928750
0.511594 0.647999 0.928750
0.600637 0.647999 0.928750
0.688449 0.647999 0.928750
0.775323 0.647999 0.928750
0.861440 0.647999 0.928750
0.954710 0.655787 0.936538
1.000000 0.669374 0.950125
0.326646 0.724418 0.928750
0.420766 0.724418 0.928750
0.511594 0.724418 0.928750
0.600637 0.724418 0.928750
0.688449 0.724418 0.928750
0.775323 0.724418 0.928750
0.861439 0.724418 0.928750
0.954710 0.732206 0.936538
1.000000 0.745793 0.950125
0.326646 0.799542 0.928750
0.420766 0.799542 0.928750
0.511594 0.799542 0.928750
0.600637 0.799542 0.928750
0.688449 0.799542 0.928750
0.775323 0.799542 0.928750
0.861440 0.799542 0.928750
0.954710 0.807330 0.936538
1.000000 0.820917 0.950125
0.326646 0.873594 0.928750
0.420766 0.873594 0.928750
0.511594 0.873594 0.928750
0.600637 0.873594 0.928750
0.688449 0.873594 0.928750
0.775323 0.873594 0.928750
0.861440 0.873594 0.928750
0.954710 0.881382 0.936538
1.000000 0.894969 0.950125
0.334353 0.954440 0.936457
0.428473 0.954440 0.936457
0.519301 0.954440 0.936457
0.608344 0.954440 0.936457
0.696157 0.954440 0.936457
0.783030 0.954440 0.936457
0.869147 0.954440 0.936457
0.954710 0.954521 0.936538
1.000000 0.968108 0.950125
0.348021 0.337518 1.000000
0.442141 0.337518 1.000000
0.532969 0.337518 1.000000
0.622012 0.337518 1.000000
0.709824 0.337518 1.000000
0.796698 0.337518 1.000000
0.882815 0.337518 1.000000
0.968297 0.337518 1.000000
1.000000 0.337518 1.000000
0.348021 0.427597 1.000000
0.442141 0.427597 1.000000
0.532969 0.427597 1.000000
0.622012 0.427597 1.000000
0.709825 0.427597 1.000000
0.796698 0.427597 1.000000
0.882815 0.427597 1.000000
0.968297 0.427597 1.000000
1.000000 0.427597 1.000000
0.348021 0.511098 1.000000
0.442141 0.511098 1.000000
0.532969 0.511098 1.000000
0.622012 0.511098 1.000000
0.709824 0.511098 1.000000
0.796698 0.511098 1.000000
0.882815 0.511098 1.000000
0.968297 0.511098 1.000000
1.000000 0.511098 1.000000
0.348021 0.591326 1.000000
0.442141 0.591326 1.000000
0.532969 0.591326 1.000000
0.622012 0.591326 1.000000
0.709825 0.591326 1.000000
0.796698 0.591326 1.000000
0.882814 0.591326 1.000000
0.968297 0.591326 1.000000
1.000000 0.591326 1.000000
0.348021 0.669374 1.000000
0.442141 0.669374 1.000000
0.532969 0.669374 1.000000
0.622012 0.669374 1.000000
0.709824 0.669374 1.000000
0.796698 0.669374 1.000000
0.882815 0.669374 1.000000
0.968297 0.669374 1.000000
1.000000 0.669374 1.000000
0.348021 0.745793 1.000000
0.442141 0.745793 1.000000
0.532969 0.745793 1.000000
0.622012 0.745793 1.000000
0.709824 0.745793 1.000000
0.796698 0.745793 1.000000
0.882815 0.745793 1.000000
0.968297 0.745793 1.000000
1.000000 0.745793 1.000000
0.348021 0.820917 1.000000
0.442141 0.820918 1.000000
0.532969 0.820917 1.000000
0.622012 0.820917 1.000000
0.709824 0.820917 1.000000
0.796698 0.820917 1.000000
0.882815 0.820917 1.000000
0.968297 0.820917 1.000000
1.000000 0.820917 1.000000
0.348021 0.894969 1.000000
0.442141 0.894969 1.000000
0.532969 0.894969 1.000000
0.622012 0.894969 1.000000
0.709824 0.894969 1.000000
0.796698 0.894969 1.000000
0.882815 0.894969 1.000000
0.968297 0.894969 1.000000
1.000000 0.894969 1.000000
0.348021 0.968108 1.000000
0.442141 0.968108 1.000000
0.532969 0.968108 1.000000
0.622012 0.968108 1.000000
0.709824 0.968108 1.000000
0.796698 0.968108 1.000000
0.882815 0.968108 1.000000
0.968297 0.968108 1.000000
1.000000 0.968108 1.000000
