backend/luts/vhs_90s.cube
TITLE "90s VHS"
LUT_3D_SIZE 5
DOMAIN_MIN 0.0 0.0 0.0
DOMAIN_MAX 1.0 1.0 1.0
0.072021 0.061518 0.080000
0.332813 0.137362 0.155844
0.585464 0.213157 0.231639
0.832592 0.287296 0.305778
1.000000 0.337518 0.356000
0.138492 0.301568 0.146470
0.332813 0.310942 0.155844
0.585464 0.386737 0.231639
0.832592 0.460875 0.305778
1.000000 0.511098 0.356000
0.206324 0.527677 0.214303
0.391272 0.527677 0.214303
0.585464 0.545013 0.231639
0.832592 0.619152 0.305778
1.000000 0.669374 0.356000
0.271271 0.744168 0.279250
0.456220 0.744168 0.279250
0.633075 0.744168 0.279250
0.832592 0.770695 0.305778
1.000000 0.820917 0.356000
0.334353 0.954440 0.342332
0.519301 0.954440 0.342332
0.696156 0.954440 0.342332
0.869147 0.954440 0.342332
1.000000 0.968108 0.356000
0.144771 0.134268 0.322500
0.332813 0.137362 0.325594
0.585464 0.213157 0.401389
0.832592 0.287296 0.475528
1.000000 0.337518 0.525750
0.144771 0.307848 0.322500
0.332813 0.310942 0.325594
0.585464 0.386737 0.401389
0.832592 0.460875 0.475528
1.000000 0.511098 0.525750
0.206324 0.527677 0.384053
0.391272 0.527677 0.384053
0.585464 0.545013 0.401389
0.832592 0.619152 0.475528
1.000000 0.669374 0.525750
0.271271 0.744168 0.449000
0.456220 0.744168 0.449000
0.633075 0.744168 0.449000
0.832592 0.770695 0.475528
1.000000 0.820917 0.525750
0.334353 0.954440 0.512082
0.519301 0.954440 0.512082
0.696157 0.954440 0.512082
0.869147 0.954440 0.512082
1.000000 0.968108 0.525750
0.217521 0.207018 0.565000
0.402469 0.207018 0.565000
0.585464 0.213157 0.571139
0.832592 0.287296 0.645278
1.000000 0.337518 0.695500
0.217521 0.380598 0.565000
0.402469 0.380598 0.565000
0.585464 0.386737 0.571139
0.832592 0.460875 0.645278
1.000000 0.511098 0.695500
0.217521 0.538874 0.565000
0.402469 0.538874 0.565000
0.585464 0.545013 0.571139
0.832592 0.619152 0.645278
1.000000 0.669374 0.695500
0.271271 0.744168 0.618750
0.456220 0.744168 0.618750
0.633075 0.744168 0.618750
0.832592 0.770695 0.645278
1.000000 0.820917 0.695500
0.334353 0.954440 0.681832
0.519301 0.954440 0.681832
0.696157 0.954440 0.681832
0.869147 0.954440 0.681832
1.000000 0.968108 0.695500
0.290271 0.279768 0.807500
0.475219 0.279768 0.807500
0.652075 0.279768 0.807500
0.832592 0.287296 0.815027
1.000000 0.337518 0.865250
0.290271 0.453347 0.807500
0.475219 0.453348 0.807500
0.652075 0.453348 0.807500
0.832592 0.460875 0.815028
1.000000 0.511098 0.865250
0.290271 0.611624 0.807500
0.475219 0.611624 0.807500
0.652075 0.611624 0.807500
0.832592 0.619152 0.815028
1.000000 0.669374 0.865250
0.290271 0.763167 0.807500
0.475219 0.763167 0.807500
0.652074 0.763167 0.807500
0.832592 0.770695 0.815028
1.000000 0.820917 0.865250
0.334353 0.954440 0.851582
0.519301 0.954440 0.851582
0.696157 0.954440 0.851582
0.869147 0.954440 0.851582
1.000000 0.968108 0.865250
0.348021 0.337518 1.000000
0.532969 0.337518 1.000000
0.709824 0.337518 1.000000
0.882815 0.337518 1.000000
1.000000 0.337518 1.000000
0.348021 0.511098 1.000000
0.532969 0.511098 1.000000
0.709824 0.511098 1.000000
0.882815 0.511098 1.000000
1.000000 0.511098 1.000000
0.348021 0.669374 1.000000
0.532969 0.669374 1.000000
0.709824 0.669374 1.000000
0.882815 0.669374 1.000000
1.000000 0.669374 1.000000
0.348021 0.820917 1.000000
0.532969 0.820917 1.000000
0.709824 0.820917 1.000000
0.882815 0.820917 1.000000
1.000000 0.820917 1.000000
0.348021 0.968108 1.000000
0.532969 0.968108 1.000000
0.709824 0.968108 1.000000
0.882815 0.968108 1.000000
1.000000 0.968108 1.000000
