backend/luts/vintage_film.cube
TITLE "Vintage Film"
LUT_3D_SIZE 5
DOMAIN_MIN 0.0 0.0 0.0
DOMAIN_MAX 1.0 1.0 1.0
0.070418 0.063600 0.057900
0.295509 0.063600 0.057900
0.532955 0.063600 0.057900
0.776474 0.063600 0.057900
1.000000 0.063600 0.057900
0.070418 0.282100 0.057900
0.295509 0.282100 0.057900
0.532955 0.282100 0.057900
0.776474 0.282100 0.057900
1.000000 0.282100 0.057900
0.070418 0.500600 0.057900
0.295509 0.500600 0.057900
0.532955 0.500600 0.057900
0.776474 0.500600 0.057900
1.000000 0.500600 0.057900
0.070418 0.719100 0.057900
0.295509 0.719100 0.057900
0.532955 0.719100 0.057900
0.776474 0.719100 0.057900
1.000000 0.719100 0.057900
0.070418 0.937600 0.057900
0.295509 0.937600 0.057900
0.532955 0.937600 0.057900
0.776474 0.937600 0.057900
1.000000 0.937600 0.057900
0.070418 0.063600 0.262838
0.295509 0.063600 0.262838
0.532955 0.063600 0.262838
0.776474 0.063600 0.262838
1.000000 0.063600 0.262838
0.070418 0.282100 0.262838
0.295509 0.282100 0.262838
0.532955 0.282100 0.262838
0.776474 0.282100 0.262838
1.000000 0.282100 0.262838
0.070418 0.500600 0.262838
0.295509 0.500600 0.262838
0.532955 0.500600 0.262838
0.776474 0.500600 0.262838
1.000000 0.500600 0.262838
0.070418 0.719100 0.262838
0.295509 0.719100 0.262838
0.532955 0.719100 0.262838
0.776474 0.719100 0.262838
1.000000 0.719100 0.262838
0.070418 0.937600 0.262838
0.295509 0.937600 0.262838
0.532955 0.937600 0.262838
0.776474 0.937600 0.262838
1.000000 0.937600 0.262838
0.070418 0.063600 0.447489
0.295509 0.063600 0.447489
0.532955 0.063600 0.447489
0.776474 0.063600 0.447489
1.000000 0.063600 0.447489
0.070418 0.282100 0.447489
0.295509 0.282100 0.447489
0.532955 0.282100 0.447489
0.776474 0.282100 0.447489
1.000000 0.282100 0.447489
0.070418 0.500600 0.447489
0.295509 0.500600 0.447489
0.532955 0.500600 0.447489
0.776474 0.500600 0.447489
1.000000 0.500600 0.447489
0.070418 0.719100 0.447489
0.295509 0.719100 0.447489
0.532955 0.719100 0.447489
0.776474 0.719100 0.447489
1.000000 0.719100 0.447489
0.070418 0.937600 0.447489
0.295509 0.937600 0.447489
0.532955 0.937600 0.447489
0.776474 0.937600 0.447489
1.000000 0.937600 0.447489
0.070418 0.063600 0.623952
0.295509 0.063600 0.623952
0.532955 0.063600 0.623952
0.776474 0.063600 0.623952
1.000000 0.063600 0.623952
0.070418 0.282100 0.623952
0.295509 0.282100 0.623952
0.532955 0.282100 0.623952
0.776474 0.282100 0.623952
1.000000 0.282100 0.623952
0.070418 0.500600 0.623952
0.295509 0.500600 0.623952
0.532955 0.500600 0.623952
0.776474 0.500600 0.623952
1.000000 0.500600 0.623952
0.070418 0.719100 0.623952
0.295509 0.719100 0.623952
0.532955 0.719100 0.623952
0.776474 0.719100 0.623952
1.000000 0.719100 0.623952
0.070418 0.937600 0.623952
0.295509 0.937600 0.623952
0.532955 0.937600 0.623952
0.776474 0.937600 0.623952
1.000000 0.937600 0.623952
0.070418 0.063600 0.795209
0.295509 0.063600 0.795209
0.532955 0.063600 0.795209
0.776474 0.063600 0.795209
1.000000 0.063600 0.795209
0.070418 0.282100 0.795209
0.295509 0.282100 0.795209
0.532955 0.282100 0.795209
0.776474 0.282100 0.795209
1.000000 0.282100 0.795209
0.070418 0.500600 0.795209
0.295509 0.500600 0.795209
0.532955 0.500600 0.795209
0.776474 0.500600 0.795209
1.000000 0.500600 0.795209
0.070418 0.719100 0.795209
0.295509 0.719100 0.795209
0.532955 0.719100 0.795209
0.776474 0.719100 0.795209
1.000000 0.719100 0.795209
0.070418 0.937600 0.795209
0.295509 0.937600 0.795209
0.532955 0.937600 0.795209
0.776474 0.937600 0.795209
1.000000 0.937600 0.795209
