backend/luts/vintage_film.cube
TITLE "Vintage Film"
LUT_3D_SIZE 33
DOMAIN_MIN 0.0 0.0 0.0
DOMAIN_MAX 1.0 1.0 1.0
0.070418 0.063600 0.057900
0.097141 0.063600 0.057900
0.124501 0.063600 0.057900
0.152307 0.063600 0.057900
0.180458 0.063600 0.057900
0.208891 0.063600 0.057900
0.237564 0.063600 0.057900
0.266444 0.063600 0.057900
0.295509 0.063600 0.057900
0.324739 0.063600 0.057900
0.354118 0.063600 0.057900
0.383635 0.063600 0.057900
0.413279 0.063600 0.057900
0.443040 0.063600 0.057900
0.472910 0.063600 0.057900
0.502884 0.063600 0.057900
0.532955 0.063600 0.057900
0.563117 0.063600 0.057900
0.593367 0.063600 0.057900
0.623699 0.063600 0.057900
0.654109 0.063600 0.057900
0.684595 0.063600 0.057900
0.715153 0.063600 0.057900
0.745780 0.063600 0.057900
0.776474 0.063600 0.057900
0.807231 0.063600 0.057900
0.838050 0.063600 0.057900
0.868928 0.063600 0.057900
0.899864 0.063600 0.057900
0.930856 0.063600 0.057900
0.961901 0.063600 0.057900
0.992999 0.063600 0.057900
1.000000 0.063600 0.057900
0.070418 0.090912 0.057900
0.097141 0.090912 0.057900
0.124501 0.090912 0.057900
0.152307 0.090912 0.057900
0.180458 0.090912 0.057900
0.208891 0.090912 0.057900
0.237564 0.090912 0.057900
0.266444 0.090912 0.057900
0.295509 0.090912 0.057900
0.324739 0.090912 0.057900
0.354118 0.090912 0.057900
0.383635 0.090912 0.057900
0.413279 0.090912 0.057900
0.443040 0.090912 0.057900
0.472910 0.090912 0.057900
0.502884 0.090912 0.057900
0.532955 0.090912 0.057900
0.563117 0.090912 0.057900
0.593367 0.090912 0.057900
0.623699 0.090912 0.057900
0.654109 0.090912 0.057900
0.684595 0.090912 0.057900
0.715153 0.090912 0.057900
0.745780 0.090912 0.057900
0.776474 0.090912 0.057900
0.807231 0.090912 0.057900
0.838050 0.090912 0.057900
0.868928 0.090912 0.057900
0.899864 0.090912 0.057900
0.930856 0.090912 0.057900
0.961901 0.090912 0.057900
0.992999 0.090912 0.057900
1.000000 0.090912 0.057900
0.070418 0.118225 0.057900
0.097141 0.118225 0.057900
0.124501 0.118225 0.057900
0.152307 0.118225 0.057900
0.180458 0.118225 0.057900
0.208891 0.118225 0.057900
0.237564 0.118225 0.057900
0.266444 0.118225 0.057900
0.295509 0.118225 0.057900
0.324739 0.118225 0.057900
0.354118 0.118225 0.057900
0.383635 0.118225 0.057900
0.413279 0.118225 0.057900
0.443040 0.118225 0.057900
0.472910 0.118225 0.057900
0.502884 0.118225 0.057900
0.532955 0.118225 0.057900
0.563117 0.118225 0.057900
0.593367 0.118225 0.057900
0.623699 0.118225 0.057900
0.654109 0.118225 0.057900
0.684595 0.118225 0.057900
0.715153 0.118225 0.057900
0.745780 0.118225 0.057900
0.776474 0.118225 0.057900
0.807231 0.118225 0.057900
0.838050 0.118225 0.057900
0.868928 0.118225 0.057900
0.899864 0.118225 0.057900
0.930856 0.118225 0.057900
0.961901 0.118225 0.057900
0.992999 0.118225 0.057900
1.000000 0.118225 0.057900
0.070418 0.145537 0.057900
0.097141 0.145537 0.057900
0.124501 0.145537 0.057900
0.152307 0.145537 0.057900
0.180458 0.145537 0.057900
0.208891 0.145537 0.057900
0.237564 0.145537 0.057900
0.266444 0.145537 0.057900
0.295509 0.145537 0.057900
0.324739 0.145537 0.057900
0.354118 0.145537 0.057900
0.383635 0.145537 0.057900
0.413279 0.145537 0.057900
0.443040 0.145537 0.057900
0.472910 0.145537 0.057900
0.502884 0.145537 0.057900
0.532955 0.145537 0.057900
0.563117 0.145537 0.057900
0.593367 0.145537 0.057900
0.623699 0.145537 0.057900
0.654109 0.145537 0.057900
0.684595 0.145537 0.057900
0.715153 0.145537 0.057900
0.745780 0.145537 0.057900
0.776474 0.145537 0.057900
0.807231 0.145537 0.057900
0.838050 0.145537 0.057900
0.868928 0.145537 0.057900
0.899864 0.145537 0.057900
0.930856 0.145537 0.057900
0.961901 0.145537 0.057900
0.992999 0.145537 0.057900
1.000000 0.145537 0.057900
0.070418 0.172850 0.057900
0.097141 0.172850 0.057900
0.124501 0.172850 0.057900
0.152307 0.172850 0.057900
0.180458 0.172850 0.057900
0.208891 0.172850 0.057900
0.237564 0.172850 0.057900
0.266444 0.172850 0.057900
0.295509 0.172850 0.057900
0.324739 0.172850 0.057900
0.354118 0.172850 0.057900
0.383635 0.172850 0.057900
0.413279 0.172850 0.057900
0.443040 0.172850 0.057900
0.472910 0.172850 0.057900
0.502884 0.172850 0.057900
0.532955 0.172850 0.057900
0.563117 0.172850 0.057900
0.593367 0.172850 0.057900
0.623699 0.172850 0.057900
0.654109 0.172850 0.057900
0.684595 0.172850 0.057900
0.715153 0.172850 0.057900
0.745780 0.172850 0.057900
0.776474 0.172850 0.057900
0.807231 0.172850 0.057900
0.838050 0.172850 0.057900
0.868928 0.172850 0.057900
0.899864 0.172850 0.057900
0.930856 0.172850 0.057900
0.961901 0.172850 0.057900
0.992999 0.172850 0.057900
1.000000 0.172850 0.057900
0.070418 0.200163 0.057900
0.097141 0.200163 0.057900
0.124501 0.200163 0.057900
0.152307 0.200163 0.057900
0.180458 0.200163 0.057900
0.208891 0.200163 0.057900
0.237564 0.200163 0.057900
0.266444 0.200163 0.057900
0.295509 0.200163 0.057900
0.324739 0.200163 0.057900
0.354118 0.200163 0.057900
0.383635 0.200163 0.057900
0.413279 0.200163 0.057900
0.443040 0.200163 0.057900
0.472910 0.200163 0.057900
0.502884 0.200163 0.057900
0.532955 0.200163 0.057900
0.563117 0.200163 0.057900
0.593367 0.200163 0.057900
0.623699 0.200163 0.057900
0.654109 0.200163 0.057900
0.684595 0.200163 0.057900
0.715153 0.200163 0.057900
0.745780 0.200163 0.057900
0.776474 0.200163 0.057900
0.807231 0.200163 0.057900
0.838050 0.200163 0.057900
0.868928 0.200163 0.057900
0.899864 0.200163 0.057900
0.930856 0.200163 0.057900
0.961901 0.200163 0.057900
0.992999 0.200163 0.057900
1.000000 0.200163 0.057900
0.070418 0.227475 0.057900
0.097141 0.227475 0.057900
0.124501 0.227475 0.057900
0.152307 0.227475 0.057900
0.180458 0.227475 0.057900
0.208891 0.227475 0.057900
0.237564 0.227475 0.057900
0.266444 0.227475 0.057900
0.295509 0.227475 0.057900
0.324739 0.227475 0.057900
0.354118 0.227475 0.057900
0.383635 0.227475 0.057900
0.413279 0.227475 0.057900
0.443040 0.227475 0.057900
0.472910 0.227475 0.057900
0.502884 0.227475 0.057900
0.532955 0.227475 0.057900
0.563117 0.227475 0.057900
0.593367 0.227475 0.057900
0.623699 0.227475 0.057900
0.654109 0.227475 0.057900
0.684595 0.227475 0.057900
0.715153 0.227475 0.057900
0.745780 0.227475 0.057900
0.776474 0.227475 0.057900
0.807231 0.227475 0.057900
0.838050 0.227475 0.057900
0.868928 0.227475 0.057900
0.899864 0.227475 0.057900
0.930856 0.227475 0.057900
0.961901 0.227475 0.057900
0.992999 0.227475 0.057900
1.000000 0.227475 0.057900
0.070418 0.254788 0.057900
0.097141 0.254788 0.057900
0.124501 0.254788 0.057900
0.152307 0.254788 0.057900
0.180458 0.254788 0.057900
0.208891 0.254788 0.057900
0.237564 0.254788 0.057900
0.266444 0.254788 0.057900
0.295509 0.254788 0.057900
0.324739 0.254788 0.057900
0.354118 0.254788 0.057900
0.383635 0.254788 0.057900
0.413279 0.254788 0.057900
0.443040 0.254788 0.057900
0.472910 0.254788 0.057900
0.502884 0.254788 0.057900
0.532955 0.254788 0.057900
0.563117 0.254788 0.057900
0.593367 0.254788 0.057900
0.623699 0.254788 0.057900
0.654109 0.254788 0.057900
0.684595 0.254788 0.057900
0.715153 0.254788 0.057900
0.745780 0.254788 0.057900
0.776474 0.254788 0.057900
0.807231 0.254788 0.057900
0.838050 0.254788 0.057900
0.868928 0.254788 0.057900
0.899864 0.254788 0.057900
0.930856 0.254788 0.057900
0.961901 0.254788 0.057900
0.992999 0.254788 0.057900
1.000000 0.254788 0.057900
0.070418 0.282100 0.057900
0.097141 0.282100 0.057900
0.124501 0.282100 0.057900
0.152307 0.282100 0.057900
0.180458 0.282100 0.057900
0.208891 0.282100 0.057900
0.237564 0.282100 0.057900
0.266444 0.282100 0.057900
0.295509 0.282100 0.057900
0.324739 0.282100 0.057900
0.354118 0.282100 0.057900
0.383635 0.282100 0.057900
0.413279 0.282100 0.057900
0.443040 0.282100 0.057900
0.472910 0.282100 0.057900
0.502884 0.282100 0.057900
0.532955 0.282100 0.057900
0.563117 0.282100 0.057900
0.593367 0.282100 0.057900
0.623699 0.282100 0.057900
0.654109 0.282100 0.057900
0.684595 0.282100 0.057900
0.715153 0.282100 0.057900
0.745780 0.282100 0.057900
0.776474 0.282100 0.057900
0.807231 0.282100 0.057900
0.838050 0.282100 0.057900
0.868928 0.282100 0.057900
0.899864 0.282100 0.057900
0.930856 0.282100 0.057900
0.961901 0.282100 0.057900
0.992999 0.282100 0.057900
1.000000 0.282100 0.057900
0.070418 0.309413 0.057900
0.097141 0.309413 0.057900
0.124501 0.309413 0.057900
0.152307 0.309413 0.057900
0.180458 0.309413 0.057900
0.208891 0.309413 0.057900
0.237564 0.309413 0.057900
0.266444 0.309413 0.057900
0.295509 0.309413 0.057900
0.324739 0.309413 0.057900
0.354118 0.309413 0.057900
0.383635 0.309413 0.057900
0.413279 0.309413 0.057900
0.443040 0.309413 0.057900
0.472910 0.309413 0.057900
0.502884 0.309413 0.057900
0.532955 0.309413 0.057900
0.563117 0.309413 0.057900
0.593367 0.309413 0.057900
0.623699 0.309413 0.057900
0.654109 0.309413 0.057900
0.684595 0.309413 0.057900
0.715153 0.309413 0.057900
0.745780 0.309413 0.057900
0.776474 0.309413 0.057900
0.807231 0.309413 0.057900
0.838050 0.309413 0.057900
0.868928 0.309413 0.057900
0.899864 0.309413 0.057900
0.930856 0.309413 0.057900
0.961901 0.309413 0.057900
0.992999 0.309413 0.057900
1.000000 0.309413 0.057900
0.070418 0.336725 0.057900
0.097141 0.336725 0.057900
0.124501 0.336725 0.057900
0.152307 0.336725 0.057900
0.180458 0.336725 0.057900
0.208891 0.336725 0.057900
0.237564 0.336725 0.057900
0.266444 0.336725 0.057900
0.295509 0.336725 0.057900
0.324739 0.336725 0.057900
0.354118 0.336725 0.057900
0.383635 0.336725 0.057900
0.413279 0.336725 0.057900
0.443040 0.336725 0.057900
0.472910 0.336725 0.057900
0.502884 0.336725 0.057900
0.532955 0.336725 0.057900
0.563117 0.336725 0.057900
0.593367 0.336725 0.057900
0.623699 0.336725 0.057900
0.654109 0.336725 0.057900
0.684595 0.336725 0.057900
0.715153 0.336725 0.057900
0.745780 0.336725 0.057900
0.776474 0.336725 0.057900
0.807231 0.336725 0.057900
0.838050 0.336725 0.057900
0.868928 0.336725 0.057900
0.899864 0.336725 0.057900
0.930856 0.336725 0.057900
0.961901 0.336725 0.057900
0.992999 0.336725 0.057900
1.000000 0.336725 0.057900
0.070418 0.364037 0.057900
0.097141 0.364037 0.057900
0.124501 0.364037 0.057900
0.152307 0.364037 0.057900
0.180458 0.364037 0.057900
0.208891 0.364037 0.057900
0.237564 0.364037 0.057900
0.266444 0.364037 0.057900
0.295509 0.364037 0.057900
0.324739 0.364037 0.057900
0.354118 0.364037 0.057900
0.383635 0.364037 0.057900
0.413279 0.364037 0.057900
0.443040 0.364037 0.057900
0.472910 0.364037 0.057900
0.502884 0.364037 0.057900
0.532955 0.364037 0.057900
0.563117 0.364037 0.057900
0.593367 0.364037 0.057900
0.623699 0.364037 0.057900
0.654109 0.364037 0.057900
0.684595 0.364037 0.057900
0.715153 0.364037 0.057900
0.745780 0.364037 0.057900
0.776474 0.364037 0.057900
0.807231 0.364037 0.057900
0.838050 0.364037 0.057900
0.868928 0.364037 0.057900
0.899864 0.364037 0.057900
0.930856 0.364037 0.057900
0.961901 0.364037 0.057900
0.992999 0.364037 0.057900
1.000000 0.364037 0.057900
0.070418 0.391350 0.057900
0.097141 0.391350 0.057900
0.124501 0.391350 0.057900
0.152307 0.391350 0.057900
0.180458 0.391350 0.057900
0.208891 0.391350 0.057900
0.237564 0.391350 0.057900
0.266444 0.391350 0.057900
0.295509 0.391350 0.057900
0.324739 0.391350 0.057900
0.354118 0.391350 0.057900
0.383635 0.391350 0.057900
0.413279 0.391350 0.057900
0.443040 0.391350 0.057900
0.472910 0.391350 0.057900
0.502884 0.391350 0.057900
0.532955 0.391350 0.057900
0.563117 0.391350 0.057900
0.593367 0.391350 0.057900
0.623699 0.391350 0.057900
0.654109 0.391350 0.057900
0.684595 0.391350 0.057900
0.715153 0.391350 0.057900
0.745780 0.391350 0.057900
0.776474 0.391350 0.057900
0.807231 0.391350 0.057900
0.838050 0.391350 0.057900
0.868928 0.391350 0.057900
0.899864 0.391350 0.057900
0.930856 0.391350 0.057900
0.961901 0.391350 0.057900
0.992999 0.391350 0.057900
1.000000 0.391350 0.057900
0.070418 0.418662 0.057900
0.097141 0.418662 0.057900
0.124501 0.418662 0.057900
0.152307 0.418662 0.057900
0.180458 0.418662 0.057900
0.208891 0.418662 0.057900
0.237564 0.418662 0.057900
0.266444 0.418662 0.057900
0.295509 0.418662 0.057900
0.324739 0.418662 0.057900
0.354118 0.418662 0.057900
0.383635 0.418662 0.057900
0.413279 0.418662 0.057900
0.443040 0.418662 0.057900
0.472910 0.418662 0.057900
0.502884 0.418662 0.057900
0.532955 0.418662 0.057900
0.563117 0.418662 0.057900
0.593367 0.418662 0.057900
0.623699 0.418662 0.057900
0.654109 0.418662 0.057900
0.684595 0.418662 0.057900
0.715153 0.418662 0.057900
0.745780 0.418662 0.057900
0.776474 0.418662 0.057900
0.807231 0.418662 0.057900
0.838050 0.418662 0.057900
0.868928 0.418662 0.057900
0.899864 0.418662 0.057900
0.930856 0.418662 0.057900
0.961901 0.418662 0.057900
0.992999 0.418662 0.057900
1.000000 0.418662 0.057900
0.070418 0.445975 0.057900
0.097141 0.445975 0.057900
0.124501 0.445975 0.057900
0.152307 0.445975 0.057900
0.180458 0.445975 0.057900
0.208891 0.445975 0.057900
0.237564 0.445975 0.057900
0.266444 0.445975 0.057900
0.295509 0.445975 0.057900
0.324739 0.445975 0.057900
0.354118 0.445975 0.057900
0.383635 0.445975 0.057900
0.413279 0.445975 0.057900
0.443040 0.445975 0.057900
0.472910 0.445975 0.057900
0.502884 0.445975 0.057900
0.532955 0.445975 0.057900
0.563117 0.445975 0.057900
0.593367 0.445975 0.057900
0.623699 0.445975 0.057900
0.654109 0.445975 0.057900
0.684595 0.445975 0.057900
0.715153 0.445975 0.057900
0.745780 0.445975 0.057900
0.776474 0.445975 0.057900
0.807231 0.445975 0.057900
0.838050 0.445975 0.057900
0.868928 0.445975 0.057900
0.899864 0.445975 0.057900
0.930856 0.445975 0.057900
0.961901 0.445975 0.057900
0.992999 0.445975 0.057900
1.000000 0.445975 0.057900
0.070418 0.473287 0.057900
0.097141 0.473287 0.057900
0.124501 0.473287 0.057900
0.152307 0.473287 0.057900
0.180458 0.473287 0.057900
0.208891 0.473287 0.057900
0.237564 0.473287 0.057900
0.266444 0.473287 0.057900
0.295509 0.473287 0.057900
0.324739 0.473287 0.057900
0.354118 0.473287 0.057900
0.383635 0.473287 0.057900
0.413279 0.473287 0.057900
0.443040 0.473287 0.057900
0.472910 0.473287 0.057900
0.502884 0.473287 0.057900
0.532955 0.473287 0.057900
0.563117 0.473287 0.057900
0.593367 0.473287 0.057900
0.623699 0.473287 0.057900
0.654109 0.473287 0.057900
0.684595 0.473287 0.057900
0.715153 0.473287 0.057900
0.745780 0.473287 0.057900
0.776474 0.473287 0.057900
0.807231 0.473287 0.057900
0.838050 0.473287 0.057900
0.868928 0.473287 0.057900
0.899864 0.473287 0.057900
0.930856 0.473287 0.057900
0.961901 0.473287 0.057900
0.992999 0.473287 0.057900
1.000000 0.473287 0.057900
0.070418 0.500600 0.057900
0.097141 0.500600 0.057900
0.124501 0.500600 0.057900
0.152307 0.500600 0.057900
0.180458 0.500600 0.057900
0.208891 0.500600 0.057900
0.237564 0.500600 0.057900
0.266444 0.500600 0.057900
0.295509 0.500600 0.057900
0.324739 0.500600 0.057900
0.354118 0.500600 0.057900
0.383635 0.500600 0.057900
0.413279 0.500600 0.057900
0.443040 0.500600 0.057900
0.472910 0.500600 0.057900
0.502884 0.500600 0.057900
0.532955 0.500600 0.057900
0.563117 0.500600 0.057900
0.593367 0.500600 0.057900
0.623699 0.500600 0.057900
0.654109 0.500600 0.057900
0.684595 0.500600 0.057900
0.715153 0.500600 0.057900
0.745780 0.500600 0.057900
0.776474 0.500600 0.057900
0.807231 0.500600 0.057900
0.838050 0.500600 0.057900
0.868928 0.500600 0.057900
0.899864 0.500600 0.057900
0.930856 0.500600 0.057900
0.961901 0.500600 0.057900
0.992999 0.500600 0.057900
1.000000 0.500600 0.057900
0.070418 0.527912 0.057900
0.097141 0.527912 0.057900
0.124501 0.527912 0.057900
0.152307 0.527912 0.057900
0.180458 0.527912 0.057900
0.208891 0.527912 0.057900
0.237564 0.527912 0.057900
0.266444 0.527912 0.057900
0.295509 0.527912 0.057900
0.324739 0.527912 0.057900
0.354118 0.527912 0.057900
0.383635 0.527912 0.057900
0.413279 0.527912 0.057900
0.443040 0.527912 0.057900
0.472910 0.527912 0.057900
0.502884 0.527912 0.057900
0.532955 0.527912 0.057900
0.563117 0.527912 0.057900
0.593367 0.527912 0.057900
0.623699 0.527912 0.057900
0.654109 0.527912 0.057900
0.684595 0.527912 0.057900
0.715153 0.527912 0.057900
0.745780 0.527912 0.057900
0.776474 0.527912 0.057900
0.807231 0.527912 0.057900
0.838050 0.527912 0.057900
0.868928 0.527912 0.057900
0.899864 0.527912 0.057900
0.930856 0.527912 0.057900
0.961901 0.527912 0.057900
0.992999 0.527912 0.057900
1.000000 0.527912 0.057900
0.070418 0.555225 0.057900
0.097141 0.555225 0.057900
0.124501 0.555225 0.057900
0.152307 0.555225 0.057900
0.180458 0.555225 0.057900
0.208891 0.555225 0.057900
0.237564 0.555225 0.057900
0.266444 0.555225 0.057900
0.295509 0.555225 0.057900
0.324739 0.555225 0.057900
0.354118 0.555225 0.057900
0.383635 0.555225 0.057900
0.413279 0.555225 0.057900
0.443040 0.555225 0.057900
0.472910 0.555225 0.057900
0.502884 0.555225 0.057900
0.532955 0.555225 0.057900
0.563117 0.555225 0.057900
0.593367 0.555225 0.057900
0.623699 0.555225 0.057900
0.654109 0.555225 0.057900
0.684595 0.555225 0.057900
0.715153 0.555225 0.057900
0.745780 0.555225 0.057900
0.776474 0.555225 0.057900
0.807231 0.555225 0.057900
0.838050 0.555225 0.057900
0.868928 0.555225 0.057900
0.899864 0.555225 0.057900
0.930856 0.555225 0.057900
0.961901 0.555225 0.057900
0.992999 0.555225 0.057900
1.000000 0.555225 0.057900
0.070418 0.582537 0.057900
0.097141 0.582537 0.057900
0.124501 0.582537 0.057900
0.152307 0.582537 0.057900
0.180458 0.582537 0.057900
0.208891 0.582537 0.057900
0.237564 0.582537 0.057900
0.266444 0.582537 0.057900
0.295509 0.582537 0.057900
0.324739 0.582537 0.057900
0.354118 0.582537 0.057900
0.383635 0.582537 0.057900
0.413279 0.582537 0.057900
0.443040 0.582537 0.057900
0.472910 0.582537 0.057900
0.502884 0.582537 0.057900
0.532955 0.582537 0.057900
0.563117 0.582537 0.057900
0.593367 0.582537 0.057900
0.623699 0.582537 0.057900
0.654109 0.582537 0.057900
0.684595 0.582537 0.057900
0.715153 0.582537 0.057900
0.745780 0.582537 0.057900
0.776474 0.582537 0.057900
0.807231 0.582537 0.057900
0.838050 0.582537 0.057900
0.868928 0.582537 0.057900
0.899864 0.582537 0.057900
0.930856 0.582537 0.057900
0.961901 0.582537 0.057900
0.992999 0.582537 0.057900
1.000000 0.582537 0.057900
0.070418 0.609850 0.057900
0.097141 0.609850 0.057900
0.124501 0.609850 0.057900
0.152307 0.609850 0.057900
0.180458 0.609850 0.057900
0.208891 0.609850 0.057900
0.237564 0.609850 0.057900
0.266444 0.609850 0.057900
0.295509 0.609850 0.057900
0.324739 0.609850 0.057900
0.354118 0.609850 0.057900
0.383635 0.609850 0.057900
0.413279 0.609850 0.057900
0.443040 0.609850 0.057900
0.472910 0.609850 0.057900
0.502884 0.609850 0.057900
0.532955 0.609850 0.057900
0.563117 0.609850 0.057900
0.593367 0.609850 0.057900
0.623699 0.609850 0.057900
0.654109 0.609850 0.057900
0.684595 0.609850 0.057900
0.715153 0.609850 0.057900
0.745780 0.609850 0.057900
0.776474 0.609850 0.057900
0.807231 0.609850 0.057900
0.838050 0.609850 0.057900
0.868928 0.609850 0.057900
0.899864 0.609850 0.057900
0.930856 0.609850 0.057900
0.961901 0.609850 0.057900
0.992999 0.609850 0.057900
1.000000 0.609850 0.057900
0.070418 0.637162 0.057900
0.097141 0.637162 0.057900
0.124501 0.637162 0.057900
0.152307 0.637162 0.057900
0.180458 0.637162 0.057900
0.208891 0.637162 0.057900
0.237564 0.637162 0.057900
0.266444 0.637162 0.057900
0.295509 0.637162 0.057900
0.324739 0.637162 0.057900
0.354118 0.637162 0.057900
0.383635 0.637162 0.057900
0.413279 0.637162 0.057900
0.443040 0.637162 0.057900
0.472910 0.637162 0.057900
0.502884 0.637162 0.057900
0.532955 0.637162 0.057900
0.563117 0.637162 0.057900
0.593367 0.637162 0.057900
0.623699 0.637162 0.057900
0.654109 0.637162 0.057900
0.684595 0.637162 0.057900
0.715153 0.637162 0.057900
0.745780 0.637162 0.057900
0.776474 0.637162 0.057900
0.807231 0.637162 0.057900
0.838050 0.637162 0.057900
0.868928 0.637162 0.057900
0.899864 0.637162 0.057900
0.930856 0.637162 0.057900
0.961901 0.637162 0.057900
0.992999 0.637162 0.057900
1.000000 0.637162 0.057900
0.070418 0.664475 0.057900
0.097141 0.664475 0.057900
0.124501 0.664475 0.057900
0.152307 0.664475 0.057900
0.180458 0.664475 0.057900
0.208891 0.664475 0.057900
0.237564 0.664475 0.057900
0.266444 0.664475 0.057900
0.295509 0.664475 0.057900
0.324739 0.664475 0.057900
0.354118 0.664475 0.057900
0.383635 0.664475 0.057900
0.413279 0.664475 0.057900
0.443040 0.664475 0.057900
0.472910 0.664475 0.057900
0.502884 0.664475 0.057900
0.532955 0.664475 0.057900
0.563117 0.664475 0.057900
0.593367 0.664475 0.057900
0.623699 0.664475 0.057900
0.654109 0.664475 0.057900
0.684595 0.664475 0.057900
0.715153 0.664475 0.057900
0.745780 0.664475 0.057900
0.776474 0.664475 0.057900
0.807231 0.664475 0.057900
0.838050 0.664475 0.057900
0.868928 0.664475 0.057900
0.899864 0.664475 0.057900
0.930856 0.664475 0.057900
0.961901 0.664475 0.057900
0.992999 0.664475 0.057900
1.000000 0.664475 0.057900
0.070418 0.691787 0.057900
0.097141 0.691787 0.057900
0.124501 0.691787 0.057900
0.152307 0.691787 0.057900
0.180458 0.691787 0.057900
0.208891 0.691787 0.057900
0.237564 0.691787 0.057900
0.266444 0.691787 0.057900
0.295509 0.691787 0.057900
0.324739 0.691787 0.057900
0.354118 0.691787 0.057900
0.383635 0.691787 0.057900
0.413279 0.691787 0.057900
0.443040 0.691787 0.057900
0.472910 0.691787 0.057900
0.502884 0.691787 0.057900
0.532955 0.691787 0.057900
0.563117 0.691787 0.057900
0.593367 0.691787 0.057900
0.623699 0.691787 0.057900
0.654109 0.691787 0.057900
0.684595 0.691787 0.057900
0.715153 0.691787 0.057900
0.745780 0.691787 0.057900
0.776474 0.691787 0.057900
0.807231 0.691787 0.057900
0.838050 0.691787 0.057900
0.868928 0.691787 0.057900
0.899864 0.691787 0.057900
0.930856 0.691787 0.057900
0.961901 0.691787 0.057900
0.992999 0.691787 0.057900
1.000000 0.691787 0.057900
0.070418 0.719100 0.057900
0.097141 0.719100 0.057900
0.124501 0.719100 0.057900
0.152307 0.719100 0.057900
0.180458 0.719100 0.057900
0.208891 0.719100 0.057900
0.237564 0.719100 0.057900
0.266444 0.719100 0.057900
0.295509 0.719100 0.057900
0.324739 0.719100 0.057900
0.354118 0.719100 0.057900
0.383635 0.719100 0.057900
0.413279 0.719100 0.057900
0.443040 0.719100 0.057900
0.472910 0.719100 0.057900
0.502884 0.719100 0.057900
0.532955 0.719100 0.057900
0.563117 0.719100 0.057900
0.593367 0.719100 0.057900
0.623699 0.719100 0.057900
0.654109 0.719100 0.057900
0.684595 0.719100 0.057900
0.715153 0.719100 0.057900
0.745780 0.719100 0.057900
0.776474 0.719100 0.057900
0.807231 0.719100 0.057900
0.838050 0.719100 0.057900
0.868928 0.719100 0.057900
0.899864 0.719100 0.057900
0.930856 0.719100 0.057900
0.961901 0.719100 0.057900
0.992999 0.719100 0.057900
1.000000 0.719100 0.057900
0.070418 0.746413 0.057900
0.097141 0.746413 0.057900
0.124501 0.746413 0.057900
0.152307 0.746413 0.057900
0.180458 0.746413 0.057900
0.208891 0.746413 0.057900
0.237564 0.746413 0.057900
0.266444 0.746413 0.057900
0.295509 0.746413 0.057900
0.324739 0.746413 0.057900
0.354118 0.746413 0.057900
0.383635 0.746413 0.057900
0.413279 0.746413 0.057900
0.443040 0.746413 0.057900
0.472910 0.746413 0.057900
0.502884 0.746413 0.057900
0.532955 0.746413 0.057900
0.563117 0.746413 0.057900
0.593367 0.746413 0.057900
0.623699 0.746413 0.057900
0.654109 0.746413 0.057900
0.684595 0.746413 0.057900
0.715153 0.746413 0.057900
0.745780 0.746413 0.057900
0.776474 0.746413 0.057900
0.807231 0.746413 0.057900
0.838050 0.746413 0.057900
0.868928 0.746413 0.057900
0.899864 0.746413 0.057900
0.930856 0.746413 0.057900
0.961901 0.746413 0.057900
0.992999 0.746413 0.057900
1.000000 0.746413 0.057900
0.070418 0.773725 0.057900
0.097141 0.773725 0.057900
0.124501 0.773725 0.057900
0.152307 0.773725 0.057900
0.180458 0.773725 0.057900
0.208891 0.773725 0.057900
0.237564 0.773725 0.057900
0.266444 0.773725 0.057900
0.295509 0.773725 0.057900
0.324739 0.773725 0.057900
0.354118 0.773725 0.057900
0.383635 0.773725 0.057900
0.413279 0.773725 0.057900
0.443040 0.773725 0.057900
0.472910 0.773725 0.057900
0.502884 0.773725 0.057900
0.532955 0.773725 0.057900
0.563117 0.773725 0.057900
0.593367 0.773725 0.057900
0.623699 0.773725 0.057900
0.654109 0.773725 0.057900
0.684595 0.773725 0.057900
0.715153 0.773725 0.057900
0.745780 0.773725 0.057900
0.776474 0.773725 0.057900
0.807231 0.773725 0.057900
0.838050 0.773725 0.057900
