backend/luts/vintage_film.cube
TITLE "Vintage Film"
LUT_3D_SIZE 9
DOMAIN_MIN 0.0 0.0 0.0
DOMAIN_MAX 1.0 1.0 1.0
0.070418 0.063600 0.057900
0.180458 0.063600 0.057900
0.295509 0.063600 0.057900
0.413279 0.063600 0.057900
0.532955 0.063600 0.057900
0.654109 0.063600 0.057900
0.776474 0.063600 0.057900
0.899864 0.063600 0.057900
1.000000 0.063600 0.057900
0.070418 0.172850 0.057900
0.180458 0.172850 0.057900
0.295509 0.172850 0.057900
0.413279 0.172850 0.057900
0.532955 0.172850 0.057900
0.654109 0.172850 0.057900
0.776474 0.172850 0.057900
0.899864 0.172850 0.057900
1.000000 0.172850 0.057900
0.070418 0.282100 0.057900
0.180458 0.282100 0.057900
0.295509 0.282100 0.057900
0.413279 0.282100 0.057900
0.532955 0.282100 0.057900
0.654109 0.282100 0.057900
0.776474 0.282100 0.057900
0.899864 0.282100 0.057900
1.000000 0.282100 0.057900
0.070418 0.391350 0.057900
0.180458 0.391350 0.057900
0.295509 0.391350 0.057900
0.413279 0.391350 0.057900
0.532955 0.391350 0.057900
0.654109 0.391350 0.057900
0.776474 0.391350 0.057900
0.899864 0.391350 0.057900
1.000000 0.391350 0.057900
0.070418 0.500600 0.057900
0.180458 0.500600 0.057900
0.295509 0.500600 0.057900
0.413279 0.500600 0.057900
0.532955 0.500600 0.057900
0.654109 0.500600 0.057900
0.776474 0.500600 0.057900
0.899864 0.500600 0.057900
1.000000 0.500600 0.057900
0.070418 0.609850 0.057900
0.180458 0.609850 0.057900
0.295509 0.609850 0.057900
0.413279 0.609850 0.057900
0.532955 0.609850 0.057900
0.654109 0.609850 0.057900
0.776474 0.609850 0.057900
0.899864 0.609850 0.057900
1.000000 0.609850 0.057900
0.070418 0.719100 0.057900
0.180458 0.719100 0.057900
0.295509 0.719100 0.057900
0.413279 0.719100 0.057900
0.532955 0.719100 0.057900
0.654109 0.719100 0.057900
0.776474 0.719100 0.057900
0.899864 0.719100 0.057900
1.000000 0.719100 0.057900
0.070418 0.828350 0.057900
0.180458 0.828350 0.057900
0.295509 0.828350 0.057900
0.413279 0.828350 0.057900
0.532955 0.828350 0.057900
0.654109 0.828350 0.057900
0.776474 0.828350 0.057900
0.899864 0.828350 0.057900
1.000000 0.828350 0.057900
0.070418 0.937600 0.057900
0.180458 0.937600 0.057900
0.295509 0.937600 0.057900
0.413279 0.937600 0.057900
0.532955 0.937600 0.057900
0.654109 0.937600 0.057900
0.776474 0.937600 0.057900
0.899864 0.937600 0.057900
1.000000 0.937600 0.057900
0.070418 0.063600 0.165032
0.180458 0.063600 0.165032
0.295509 0.063600 0.165032
0.413279 0.063600 0.165032
0.532955 0.063600 0.165032
0.654109 0.063600 0.165032
0.776474 0.063600 0.165032
0.899864 0.063600 0.165032
1.000000 0.063600 0.165032
0.070418 0.172850 0.165032
0.180458 0.172850 0.165032
0.295509 0.172850 0.165032
0.413279 0.172850 0.165032
0.532955 0.172850 0.165032
0.654109 0.172850 0.165032
0.776474 0.172850 0.165032
0.899864 0.172850 0.165032
1.000000 0.172850 0.165032
0.070418 0.282100 0.165032
0.180458 0.282100 0.165032
0.295509 0.282100 0.165032
0.413279 0.282100 0.165032
0.532955 0.282100 0.165032
0.654109 0.282100 0.165032
0.776474 0.282100 0.165032
0.899864 0.282100 0.165032
1.000000 0.282100 0.165032
0.070418 0.391350 0.165032
0.180458 0.391350 0.165032
0.295509 0.391350 0.165032
0.413279 0.391350 0.165032
0.532955 0.391350 0.165032
0.654109 0.391350 0.165032
0.776474 0.391350 0.165032
0.899864 0.391350 0.165032
1.000000 0.391350 0.165032
0.070418 0.500600 0.165032
0.180458 0.500600 0.165032
0.295509 0.500600 0.165032
0.413279 0.500600 0.165032
0.532955 0.500600 0.165032
0.654109 0.500600 0.165032
0.776474 0.500600 0.165032
0.899864 0.500600 0.165032
1.000000 0.500600 0.165032
0.070418 0.609850 0.165032
0.180458 0.609850 0.165032
0.295509 0.609850 0.165032
0.413279 0.609850 0.165032
0.532955 0.609850 0.165032
0.654109 0.609850 0.165032
0.776474 0.609850 0.165032
0.899864 0.609850 0.165032
1.000000 0.609850 0.165032
0.070418 0.719100 0.165032
0.180458 0.719100 0.165032
0.295509 0.719100 0.165032
0.413279 0.719100 0.165032
0.532955 0.719100 0.165032
0.654109 0.719100 0.165032
0.776474 0.719100 0.165032
0.899864 0.719100 0.165032
1.000000 0.719100 0.165032
0.070418 0.828350 0.165032
0.180458 0.828350 0.165032
0.295509 0.828350 0.165032
0.413279 0.828350 0.165032
0.532955 0.828350 0.165032
0.654109 0.828350 0.165032
0.776474 0.828350 0.165032
0.899864 0.828350 0.165032
1.000000 0.828350 0.165032
0.070418 0.937600 0.165032
0.180458 0.937600 0.165032
0.295509 0.937600 0.165032
0.413279 0.937600 0.165032
0.532955 0.937600 0.165032
0.654109 0.937600 0.165032
0.776474 0.937600 0.165032
0.899864 0.937600 0.165032
1.000000 0.937600 0.165032
0.070418 0.063600 0.262838
0.180458 0.063600 0.262838
0.295509 0.063600 0.262838
0.413279 0.063600 0.262838
0.532955 0.063600 0.262838
0.654109 0.063600 0.262838
0.776474 0.063600 0.262838
0.899864 0.063600 0.262838
1.000000 0.063600 0.262838
0.070418 0.172850 0.262838
0.180458 0.172850 0.262838
0.295509 0.172850 0.262838
0.413279 0.172850 0.262838
0.532955 0.172850 0.262838
0.654109 0.172850 0.262838
0.776474 0.172850 0.262838
0.899864 0.172850 0.262838
1.000000 0.172850 0.262838
0.070418 0.282100 0.262838
0.180458 0.282100 0.262838
0.295509 0.282100 0.262838
0.413279 0.282100 0.262838
0.532955 0.282100 0.262838
0.654109 0.282100 0.262838
0.776474 0.282100 0.262838
0.899864 0.282100 0.262838
1.000000 0.282100 0.262838
0.070418 0.391350 0.262838
0.180458 0.391350 0.262838
0.295509 0.391350 0.262838
0.413279 0.391350 0.262838
0.532955 0.391350 0.262838
0.654109 0.391350 0.262838
0.776474 0.391350 0.262838
0.899864 0.391350 0.262838
1.000000 0.391350 0.262838
0.070418 0.500600 0.262838
0.180458 0.500600 0.262838
0.295509 0.500600 0.262838
0.413279 0.500600 0.262838
0.532955 0.500600 0.262838
0.654109 0.500600 0.262838
0.776474 0.500600 0.262838
0.899864 0.500600 0.262838
1.000000 0.500600 0.262838
0.070418 0.609850 0.262838
0.180458 0.609850 0.262838
0.295509 0.609850 0.262838
0.413279 0.609850 0.262838
0.532955 0.609850 0.262838
0.654109 0.609850 0.262838
0.776474 0.609850 0.262838
0.899864 0.609850 0.262838
1.000000 0.609850 0.262838
0.070418 0.719100 0.262838
0.180458 0.719100 0.262838
0.295509 0.719100 0.262838
0.413279 0.719100 0.262838
0.532955 0.719100 0.262838
0.654109 0.719100 0.262838
0.776474 0.719100 0.262838
0.899864 0.719100 0.262838
1.000000 0.719100 0.262838
0.070418 0.828350 0.262838
0.180458 0.828350 0.262838
0.295509 0.828350 0.262838
0.413279 0.828350 0.262838
0.532955 0.828350 0.262838
0.654109 0.828350 0.262838
0.776474 0.828350 0.262838
0.899864 0.828350 0.262838
1.000000 0.828350 0.262838
0.070418 0.937600 0.262838
0.180458 0.937600 0.262838
0.295509 0.937600 0.262838
0.413279 0.937600 0.262838
0.532955 0.937600 0.262838
0.654109 0.937600 0.262838
0.776474 0.937600 0.262838
0.899864 0.937600 0.262838
1.000000 0.937600 0.262838
0.070418 0.063600 0.356504
0.180458 0.063600 0.356504
0.295509 0.063600 0.356504
0.413279 0.063600 0.356504
0.532955 0.063600 0.356504
0.654109 0.063600 0.356504
0.776474 0.063600 0.356504
0.899864 0.063600 0.356504
1.000000 0.063600 0.356504
0.070418 0.172850 0.356504
0.180458 0.172850 0.356504
0.295509 0.172850 0.356504
0.413279 0.172850 0.356504
0.532955 0.172850 0.356504
0.654109 0.172850 0.356504
0.776474 0.172850 0.356504
0.899864 0.172850 0.356504
1.000000 0.172850 0.356504
0.070418 0.282100 0.356504
0.180458 0.282100 0.356504
0.295509 0.282100 0.356504
0.413279 0.282100 0.356504
0.532955 0.282100 0.356504
0.654109 0.282100 0.356504
0.776474 0.282100 0.356504
0.899864 0.282100 0.356504
1.000000 0.282100 0.356504
0.070418 0.391350 0.356504
0.180458 0.391350 0.356504
0.295509 0.391350 0.356504
0.413279 0.391350 0.356504
0.532955 0.391350 0.356504
0.654109 0.391350 0.356504
0.776474 0.391350 0.356504
0.899864 0.391350 0.356504
1.000000 0.391350 0.356504
0.070418 0.500600 0.356504
0.180458 0.500600 0.356504
0.295509 0.500600 0.356504
0.413279 0.500600 0.356504
0.532955 0.500600 0.356504
0.654109 0.500600 0.356504
0.776474 0.500600 0.356504
0.899864 0.500600 0.356504
1.000000 0.500600 0.356504
0.070418 0.609850 0.356504
0.180458 0.609850 0.356504
0.295509 0.609850 0.356504
0.413279 0.609850 0.356504
0.532955 0.609850 0.356504
0.654109 0.609850 0.356504
0.776474 0.609850 0.356504
0.899864 0.609850 0.356504
1.000000 0.609850 0.356504
0.070418 0.719100 0.356504
0.180458 0.719100 0.356504
0.295509 0.719100 0.356504
0.413279 0.719100 0.356504
0.532955 0.719100 0.356504
0.654109 0.719100 0.356504
0.776474 0.719100 0.356504
0.899864 0.719100 0.356504
1.000000 0.719100 0.356504
0.070418 0.828350 0.356504
0.180458 0.828350 0.356504
0.295509 0.828350 0.356504
0.413279 0.828350 0.356504
0.532955 0.828350 0.356504
0.654109 0.828350 0.356504
0.776474 0.828350 0.356504
0.899864 0.828350 0.356504
1.000000 0.828350 0.356504
0.070418 0.937600 0.356504
0.180458 0.937600 0.356504
0.295509 0.937600 0.356504
0.413279 0.937600 0.356504
0.532955 0.937600 0.356504
0.654109 0.937600 0.356504
0.776474 0.937600 0.356504
0.899864 0.937600 0.356504
1.000000 0.937600 0.356504
0.070418 0.063600 0.447489
0.180458 0.063600 0.447489
0.295509 0.063600 0.447489
0.413279 0.063600 0.447489
0.532955 0.063600 0.447489
0.654109 0.063600 0.447489
0.776474 0.063600 0.447489
0.899864 0.063600 0.447489
1.000000 0.063600 0.447489
0.070418 0.172850 0.447489
0.180458 0.172850 0.447489
0.295509 0.172850 0.447489
0.413279 0.172850 0.447489
0.532955 0.172850 0.447489
0.654109 0.172850 0.447489
0.776474 0.172850 0.447489
0.899864 0.172850 0.447489
1.000000 0.172850 0.447489
0.070418 0.282100 0.447489
0.180458 0.282100 0.447489
0.295509 0.282100 0.447489
0.413279 0.282100 0.447489
0.532955 0.282100 0.447489
0.654109 0.282100 0.447489
0.776474 0.282100 0.447489
0.899864 0.282100 0.447489
1.000000 0.282100 0.447489
0.070418 0.391350 0.447489
0.180458 0.391350 0.447489
0.295509 0.391350 0.447489
0.413279 0.391350 0.447489
0.532955 0.391350 0.447489
0.654109 0.391350 0.447489
0.776474 0.391350 0.447489
0.899864 0.391350 0.447489
1.000000 0.391350 0.447489
0.070418 0.500600 0.447489
0.180458 0.500600 0.447489
0.295509 0.500600 0.447489
0.413279 0.500600 0.447489
0.532955 0.500600 0.447489
0.654109 0.500600 0.447489
0.776474 0.500600 0.447489
0.899864 0.500600 0.447489
1.000000 0.500600 0.447489
0.070418 0.609850 0.447489
0.180458 0.609850 0.447489
0.295509 0.609850 0.447489
0.413279 0.609850 0.447489
0.532955 0.609850 0.447489
0.654109 0.609850 0.447489
0.776474 0.609850 0.447489
0.899864 0.609850 0.447489
1.000000 0.609850 0.447489
0.070418 0.719100 0.447489
0.180458 0.719100 0.447489
0.295509 0.719100 0.447489
0.413279 0.719100 0.447489
0.532955 0.719100 0.447489
0.654109 0.719100 0.447489
0.776474 0.719100 0.447489
0.899864 0.719100 0.447489
1.000000 0.719100 0.447489
0.070418 0.828350 0.447489
0.180458 0.828350 0.447489
0.295509 0.828350 0.447489
0.413279 0.828350 0.447489
0.532955 0.828350 0.447489
0.654109 0.828350 0.447489
0.776474 0.828350 0.447489
0.899864 0.828350 0.447489
1.000000 0.828350 0.447489
0.070418 0.937600 0.447489
0.180458 0.937600 0.447489
0.295509 0.937600 0.447489
0.413279 0.937600 0.447489
0.532955 0.937600 0.447489
0.654109 0.937600 0.447489
0.776474 0.937600 0.447489
0.899864 0.937600 0.447489
1.000000 0.937600 0.447489
0.070418 0.063600 0.536499
0.180458 0.063600 0.536499
0.295509 0.063600 0.536499
0.413279 0.063600 0.536499
0.532955 0.063600 0.536499
0.654109 0.063600 0.536499
0.776474 0.063600 0.536499
0.899864 0.063600 0.536499
1.000000 0.063600 0.536499
0.070418 0.172850 0.536499
0.180458 0.172850 0.536499
0.295509 0.172850 0.536499
0.413279 0.172850 0.536499
0.532955 0.172850 0.536499
0.654109 0.172850 0.536499
0.776474 0.172850 0.536499
0.899864 0.172850 0.536499
1.000000 0.172850 0.536499
0.070418 0.282100 0.536499
0.180458 0.282100 0.536499
0.295509 0.282100 0.536499
0.413279 0.282100 0.536499
0.532955 0.282100 0.536499
0.654109 0.282100 0.536499
0.776474 0.282100 0.536499
0.899864 0.282100 0.536499
1.000000 0.282100 0.536499
0.070418 0.391350 0.536499
0.180458 0.391350 0.536499
0.295509 0.391350 0.536499
0.413279 0.391350 0.536499
0.532955 0.391350 0.536499
0.654109 0.391350 0.536499
0.776474 0.391350 0.536499
0.899864 0.391350 0.536499
1.000000 0.391350 0.536499
0.070418 0.500600 0.536499
0.180458 0.500600 0.536499
0.295509 0.500600 0.536499
0.413279 0.500600 0.536499
0.532955 0.500600 0.536499
0.654109 0.500600 0.536499
0.776474 0.500600 0.536499
0.899864 0.500600 0.536499
1.000000 0.500600 0.536499
0.070418 0.609850 0.536499
0.180458 0.609850 0.536499
0.295509 0.609850 0.536499
0.413279 0.609850 0.536499
0.532955 0.609850 0.536499
0.654109 0.609850 0.536499
0.776474 0.609850 0.536499
0.899864 0.609850 0.536499
1.000000 0.609850 0.536499
0.070418 0.719100 0.536499
0.180458 0.719100 0.536499
0.295509 0.719100 0.536499
0.413279 0.719100 0.536499
0.532955 0.719100 0.536499
0.654109 0.719100 0.536499
0.776474 0.719100 0.536499
0.899864 0.719100 0.536499
1.000000 0.719100 0.536499
0.070418 0.828350 0.536499
0.180458 0.828350 0.536499
0.295509 0.828350 0.536499
0.413279 0.828350 0.536499
0.532955 0.828350 0.536499
0.654109 0.828350 0.536499
0.776474 0.828350 0.536499
0.899864 0.828350 0.536499
1.000000 0.828350 0.536499
0.070418 0.937600 0.536499
0.180458 0.937600 0.536499
0.295509 0.937600 0.536499
0.413279 0.937600 0.536499
0.532955 0.937600 0.536499
0.654109 0.937600 0.536499
0.776474 0.937600 0.536499
0.899864 0.937600 0.536499
1.000000 0.937600 0.536499
0.070418 0.063600 0.623952
0.180458 0.063600 0.623952
0.295509 0.063600 0.623952
0.413279 0.063600 0.623952
0.532955 0.063600 0.623952
0.654109 0.063600 0.623952
0.776474 0.063600 0.623952
0.899864 0.063600 0.623952
1.000000 0.063600 0.623952
0.070418 0.172850 0.623952
0.180458 0.172850 0.623952
0.295509 0.172850 0.623952
0.413279 0.172850 0.623952
0.532955 0.172850 0.623952
0.654109 0.172850 0.623952
0.776474 0.172850 0.623952
0.899864 0.172850 0.623952
1.000000 0.172850 0.623952
0.070418 0.282100 0.623952
0.180458 0.282100 0.623952
0.295509 0.282100 0.623952
0.413279 0.282100 0.623952
0.532955 0.282100 0.623952
0.654109 0.282100 0.623952
0.776474 0.282100 0.623952
0.899864 0.282100 0.623952
1.000000 0.282100 0.623952
0.070418 0.391350 0.623952
0.180458 0.391350 0.623952
0.295509 0.391350 0.623952
0.413279 0.391350 0.623952
0.532955 0.391350 0.623952
0.654109 0.391350 0.623952
0.776474 0.391350 0.623952
0.899864 0.391350 0.623952
1.000000 0.391350 0.623952
0.070418 0.500600 0.623952
0.180458 0.500600 0.623952
0.295509 0.500600 0.623952
0.413279 0.500600 0.623952
0.532955 0.500600 0.623952
0.654109 0.500600 0.623952
0.776474 0.500600 0.623952
0.899864 0.500600 0.623952
1.000000 0.500600 0.623952
0.070418 0.609850 0.623952
0.180458 0.609850 0.623952
0.295509 0.609850 0.623952
0.413279 0.609850 0.623952
0.532955 0.609850 0.623952
0.654109 0.609850 0.623952
0.776474 0.609850 0.623952
0.899864 0.609850 0.623952
1.000000 0.609850 0.623952
0.070418 0.719100 0.623952
0.180458 0.719100 0.623952
0.295509 0.719100 0.623952
0.413279 0.719100 0.623952
0.532955 0.719100 0.623952
0.654109 0.719100 0.623952
0.776474 0.719100 0.623952
0.899864 0.719100 0.623952
1.000000 0.719100 0.623952
0.070418 0.828350 0.623952
0.180458 0.828350 0.623952
0.295509 0.828350 0.623952
0.413279 0.828350 0.623952
0.532955 0.828350 0.623952
0.654109 0.828350 0.623952
0.776474 0.828350 0.623952
0.899864 0.828350 0.623952
1.000000 0.828350 0.623952
0.070418 0.937600 0.623952
0.180458 0.937600 0.623952
0.295509 0.937600 0.623952
0.413279 0.937600 0.623952
0.532955 0.937600 0.623952
0.654109 0.937600 0.623952
0.776474 0.937600 0.623952
0.899864 0.937600 0.623952
1.000000 0.937600 0.623952
0.070418 0.063600 0.710124
0.180458 0.063600 0.710124
0.295509 0.063600 0.710124
0.413279 0.063600 0.710124
0.532955 0.063600 0.710124
0.654109 0.063600 0.710124
0.776474 0.063600 0.710124
0.899864 0.063600 0.710124
1.000000 0.063600 0.710124
0.070418 0.172850 0.710124
0.180458 0.172850 0.710124
0.295509 0.172850 0.710124
0.413279 0.172850 0.710124
0.532955 0.172850 0.710124
0.654109 0.172850 0.710124
0.776474 0.172850 0.710124
0.899864 0.172850 0.710124
1.000000 0.172850 0.710124
0.070418 0.282100 0.710124
0.180458 0.282100 0.710124
0.295509 0.282100 0.710124
0.413279 0.282100 0.710124
0.532955 0.282100 0.710124
0.654109 0.282100 0.710124
0.776474 0.282100 0.710124
0.899864 0.282100 0.710124
1.000000 0.282100 0.710124
0.070418 0.391350 0.710124
0.180458 0.391350 0.710124
0.295509 0.391350 0.710124
0.413279 0.391350 0.710124
0.532955 0.391350 0.710124
0.654109 0.391350 0.710124
0.776474 0.391350 0.710124
0.899864 0.391350 0.710124
1.000000 0.391350 0.710124
0.070418 0.500600 0.710124
0.180458 0.500600 0.710124
0.295509 0.500600 0.710124
0.413279 0.500600 0.710124
0.532955 0.500600 0.710124
0.654109 0.500600 0.710124
0.776474 0.500600 0.710124
0.899864 0.500600 0.710124
1.000000 0.500600 0.710124
0.070418 0.609850 0.710124
0.180458 0.609850 0.710124
0.295509 0.609850 0.710124
0.413279 0.609850 0.710124
0.532955 0.609850 0.710124
0.654109 0.609850 0.710124
0.776474 0.609850 0.710124
0.899864 0.609850 0.710124
1.000000 0.609850 0.710124
0.070418 0.719100 0.710124
0.180458 0.719100 0.710124
0.295509 0.719100 0.710124
0.413279 0.719100 0.710124
0.532955 0.719100 0.710124
0.654109 0.719100 0.710124
0.776474 0.719100 0.710124
0.899864 0.719100 0.710124
1.000000 0.719100 0.710124
0.070418 0.828350 0.710124
0.180458 0.828350 0.710124
0.295509 0.828350 0.710124
0.413279 0.828350 0.710124
0.532955 0.828350 0.710124
0.654109 0.828350 0.710124
0.776474 0.828350 0.710124
0.899864 0.828350 0.710124
1.000000 0.828350 0.710124
0.070418 0.937600 0.710124
0.180458 0.937600 0.710124
0.295509 0.937600 0.710124
0.413279 0.937600 0.710124
0.532955 0.937600 0.710124
0.654109 0.937600 0.710124
0.776474 0.937600 0.710124
0.899864 0.937600 0.710124
1.000000 0.937600 0.710124
0.070418 0.063600 0.795209
0.180458 0.063600 0.795209
0.295509 0.063600 0.795209
0.413279 0.063600 0.795209
0.532955 0.063600 0.795209
0.654109 0.063600 0.795209
0.776474 0.063600 0.795209
0.899864 0.063600 0.795209
1.000000 0.063600 0.795209
0.070418 0.172850 0.795209
0.180458 0.172850 0.795209
0.295509 0.172850 0.795209
0.413279 0.172850 0.795209
0.532955 0.172850 0.795209
0.654109 0.172850 0.795209
0.776474 0.172850 0.795209
0.899864 0.172850 0.795209
1.000000 0.172850 0.795209
0.070418 0.282100 0.795209
0.180458 0.282100 0.795209
0.295509 0.282100 0.795209
0.413279 0.282100 0.795209
0.532955 0.282100 0.795209
0.654109 0.282100 0.795209
0.776474 0.282100 0.795209
0.899864 0.282100 0.795209
1.000000 0.282100 0.795209
0.070418 0.391350 0.795209
0.180458 0.391350 0.795209
0.295509 0.391350 0.795209
0.413279 0.391350 0.795209
0.532955 0.391350 0.795209
0.654109 0.391350 0.795209
0.776474 0.391350 0.795209
0.899864 0.391350 0.795209
1.000000 0.391350 0.795209
0.070418 0.500600 0.795209
0.180458 0.500600 0.795209
0.295509 0.500600 0.795209
0.413279 0.500600 0.795209
0.532955 0.500600 0.795209
0.654109 0.500600 0.795209
0.776474 0.500600 0.795209
0.899864 0.500600 0.795209
1.000000 0.500600 0.795209
0.070418 0.609850 0.795209
0.180458 0.609850 0.795209
0.295509 0.609850 0.795209
0.413279 0.609850 0.795209
0.532955 0.609850 0.795209
0.654109 0.609850 0.795209
0.776474 0.609850 0.795209
0.899864 0.609850 0.795209
1.000000 0.609850 0.795209
0.070418 0.719100 0.795209
0.180458 0.719100 0.795209
0.295509 0.719100 0.795209
0.413279 0.719100 0.795209
0.532955 0.719100 0.795209
0.654109 0.719100 0.795209
0.776474 0.719100 0.795209
0.899864 0.719100 0.795209
1.000000 0.719100 0.795209
0.070418 0.828350 0.795209
0.180458 0.828350 0.795209
0.295509 0.828350 0.795209
0.413279 0.828350 0.795209
0.532955 0.828350 0.795209
0.654109 0.828350 0.795209
0.776474 0.828350 0.795209
0.899864 0.828350 0.795209
1.000000 0.828350 0.795209
0.070418 0.937600 0.795209
0.180458 0.937600 0.795209
0.295509 0.937600 0.795209
0.413279 0.937600 0.795209
0.532955 0.937600 0.795209
0.654109 0.937600 0.795209
0.776474 0.937600 0.795209
0.899864 0.937600 0.795209
1.000000 0.937600 0.795209
