backend/luts/warm_summer.cube
TITLE "Warm Summer"
LUT_3D_SIZE 33
DOMAIN_MIN 0.0 0.0 0.0
DOMAIN_MAX 1.0 1.0 1.0
0.000000 0.000000 0.000000
0.031438 0.000000 0.000000
0.066875 0.000000 0.000000
0.102313 0.000000 0.000000
0.137750 0.000000 0.000000
0.173188 0.000000 0.000000
0.208625 0.000000 0.000000
0.244063 0.000000 0.000000
0.279500 0.000000 0.000000
0.314938 0.000000 0.000000
0.350375 0.000000 0.000000
0.385813 0.000000 0.000000
0.421250 0.000000 0.000000
0.456688 0.000000 0.000000
0.492125 0.000000 0.000000
0.527562 0.000000 0.000000
0.563000 0.000000 0.000000
0.598437 0.000000 0.000000
0.633875 0.000000 0.000000
0.669312 0.000000 0.000000
0.704750 0.000000 0.000000
0.740187 0.000000 0.000000
0.775625 0.000000 0.000000
0.811062 0.000000 0.000000
0.846500 0.000000 0.000000
0.881938 0.000000 0.000000
0.917375 0.000000 0.000000
0.952813 0.000000 0.000000
0.988250 0.000000 0.000000
1.000000 0.000000 0.000000
1.000000 0.000000 0.000000
1.000000 0.000000 0.000000
1.000000 0.000000 0.000000
0.000000 0.008469 0.000000
0.031438 0.008469 0.000000
0.066875 0.008469 0.000000
0.102313 0.008469 0.000000
0.137750 0.008469 0.000000
0.173188 0.008469 0.000000
0.208625 0.008469 0.000000
0.244063 0.008469 0.000000
0.279500 0.008469 0.000000
0.314938 0.008469 0.000000
0.350375 0.008469 0.000000
0.385813 0.008469 0.000000
0.421250 0.008469 0.000000
0.456688 0.008469 0.000000
0.492125 0.008469 0.000000
0.527562 0.008469 0.000000
0.563000 0.008469 0.000000
0.598437 0.008469 0.000000
0.633875 0.008469 0.000000
0.669312 0.008469 0.000000
0.704750 0.008469 0.000000
0.740187 0.008469 0.000000
0.775625 0.008469 0.000000
0.811062 0.008469 0.000000
0.846500 0.008469 0.000000
0.881938 0.008469 0.000000
0.917375 0.008469 0.000000
0.952813 0.008469 0.000000
0.988250 0.008469 0.000000
1.000000 0.008469 0.000000
1.000000 0.008469 0.000000
1.000000 0.008469 0.000000
1.000000 0.008469 0.000000
0.000000 0.041938 0.000000
0.031438 0.041938 0.000000
0.066875 0.041938 0.000000
0.102313 0.041938 0.000000
0.137750 0.041938 0.000000
0.173188 0.041938 0.000000
0.208625 0.041938 0.000000
0.244063 0.041938 0.000000
0.279500 0.041938 0.000000
0.314938 0.041938 0.000000
0.350375 0.041938 0.000000
0.385813 0.041938 0.000000
0.421250 0.041938 0.000000
0.456688 0.041938 0.000000
0.492125 0.041938 0.000000
0.527562 0.041938 0.000000
0.563000 0.041938 0.000000
0.598437 0.041938 0.000000
0.633875 0.041938 0.000000
0.669312 0.041938 0.000000
0.704750 0.041938 0.000000
0.740187 0.041938 0.000000
0.775625 0.041938 0.000000
0.811062 0.041938 0.000000
0.846500 0.041938 0.000000
0.881938 0.041938 0.000000
0.917375 0.041938 0.000000
0.952813 0.041938 0.000000
0.988250 0.041938 0.000000
1.000000 0.041938 0.000000
1.000000 0.041938 0.000000
1.000000 0.041938 0.000000
1.000000 0.041938 0.000000
0.000000 0.075406 0.000000
0.031438 0.075406 0.000000
0.066875 0.075406 0.000000
0.102313 0.075406 0.000000
0.137750 0.075406 0.000000
0.173188 0.075406 0.000000
0.208625 0.075406 0.000000
0.244063 0.075406 0.000000
0.279500 0.075406 0.000000
0.314938 0.075406 0.000000
0.350375 0.075406 0.000000
0.385813 0.075406 0.000000
0.421250 0.075406 0.000000
0.456688 0.075406 0.000000
0.492125 0.075406 0.000000
0.527562 0.075406 0.000000
0.563000 0.075406 0.000000
0.598437 0.075406 0.000000
0.633875 0.075406 0.000000
0.669312 0.075406 0.000000
0.704750 0.075406 0.000000
0.740187 0.075406 0.000000
0.775625 0.075406 0.000000
0.811062 0.075406 0.000000
0.846500 0.075406 0.000000
0.881938 0.075406 0.000000
0.917375 0.075406 0.000000
0.952813 0.075406 0.000000
0.988250 0.075406 0.000000
1.000000 0.075406 0.000000
1.000000 0.075406 0.000000
1.000000 0.075406 0.000000
1.000000 0.075406 0.000000
0.000000 0.108875 0.000000
0.031438 0.108875 0.000000
0.066875 0.108875 0.000000
0.102313 0.108875 0.000000
0.137750 0.108875 0.000000
0.173188 0.108875 0.000000
0.208625 0.108875 0.000000
0.244063 0.108875 0.000000
0.279500 0.108875 0.000000
0.314938 0.108875 0.000000
0.350375 0.108875 0.000000
0.385813 0.108875 0.000000
0.421250 0.108875 0.000000
0.456688 0.108875 0.000000
0.492125 0.108875 0.000000
0.527562 0.108875 0.000000
0.563000 0.108875 0.000000
0.598437 0.108875 0.000000
0.633875 0.108875 0.000000
0.669312 0.108875 0.000000
0.704750 0.108875 0.000000
0.740187 0.108875 0.000000
0.775625 0.108875 0.000000
0.811062 0.108875 0.000000
0.846500 0.108875 0.000000
0.881938 0.108875 0.000000
0.917375 0.108875 0.000000
0.952813 0.108875 0.000000
0.988250 0.108875 0.000000
1.000000 0.108875 0.000000
1.000000 0.108875 0.000000
1.000000 0.108875 0.000000
1.000000 0.108875 0.000000
0.000000 0.142344 0.000000
0.031438 0.142344 0.000000
0.066875 0.142344 0.000000
0.102313 0.142344 0.000000
0.137750 0.142344 0.000000
0.173188 0.142344 0.000000
0.208625 0.142344 0.000000
0.244063 0.142344 0.000000
0.279500 0.142344 0.000000
0.314938 0.142344 0.000000
0.350375 0.142344 0.000000
0.385813 0.142344 0.000000
0.421250 0.142344 0.000000
0.456688 0.142344 0.000000
0.492125 0.142344 0.000000
0.527562 0.142344 0.000000
0.563000 0.142344 0.000000
0.598437 0.142344 0.000000
0.633875 0.142344 0.000000
0.669312 0.142344 0.000000
0.704750 0.142344 0.000000
0.740187 0.142344 0.000000
0.775625 0.142344 0.000000
0.811062 0.142344 0.000000
0.846500 0.142344 0.000000
0.881938 0.142344 0.000000
0.917375 0.142344 0.000000
0.952813 0.142344 0.000000
0.988250 0.142344 0.000000
1.000000 0.142344 0.000000
1.000000 0.142344 0.000000
1.000000 0.142344 0.000000
1.000000 0.142344 0.000000
0.000000 0.175813 0.000000
0.031438 0.175813 0.000000
0.066875 0.175813 0.000000
0.102313 0.175813 0.000000
0.137750 0.175813 0.000000
0.173188 0.175813 0.000000
0.208625 0.175813 0.000000
0.244063 0.175813 0.000000
0.279500 0.175813 0.000000
0.314938 0.175813 0.000000
0.350375 0.175813 0.000000
0.385813 0.175813 0.000000
0.421250 0.175813 0.000000
0.456688 0.175813 0.000000
0.492125 0.175813 0.000000
0.527562 0.175813 0.000000
0.563000 0.175813 0.000000
0.598437 0.175813 0.000000
0.633875 0.175813 0.000000
0.669312 0.175813 0.000000
0.704750 0.175813 0.000000
0.740187 0.175813 0.000000
0.775625 0.175813 0.000000
0.811062 0.175813 0.000000
0.846500 0.175813 0.000000
0.881938 0.175813 0.000000
0.917375 0.175813 0.000000
0.952813 0.175813 0.000000
0.988250 0.175813 0.000000
1.000000 0.175813 0.000000
1.000000 0.175813 0.000000
1.000000 0.175813 0.000000
1.000000 0.175813 0.000000
0.000000 0.209281 0.000000
0.031438 0.209281 0.000000
0.066875 0.209281 0.000000
0.102313 0.209281 0.000000
0.137750 0.209281 0.000000
0.173188 0.209281 0.000000
0.208625 0.209281 0.000000
0.244063 0.209281 0.000000
0.279500 0.209281 0.000000
0.314938 0.209281 0.000000
0.350375 0.209281 0.000000
0.385813 0.209281 0.000000
0.421250 0.209281 0.000000
0.456688 0.209281 0.000000
0.492125 0.209281 0.000000
0.527562 0.209281 0.000000
0.563000 0.209281 0.000000
0.598437 0.209281 0.000000
0.633875 0.209281 0.000000
0.669312 0.209281 0.000000
0.704750 0.209281 0.000000
0.740187 0.209281 0.000000
0.775625 0.209281 0.000000
0.811062 0.209281 0.000000
0.846500 0.209281 0.000000
0.881938 0.209281 0.000000
0.917375 0.209281 0.000000
0.952813 0.209281 0.000000
0.988250 0.209281 0.000000
1.000000 0.209281 0.000000
1.000000 0.209281 0.000000
1.000000 0.209281 0.000000
1.000000 0.209281 0.000000
0.000000 0.242750 0.000000
0.031438 0.242750 0.000000
0.066875 0.242750 0.000000
0.102313 0.242750 0.000000
0.137750 0.242750 0.000000
0.173188 0.242750 0.000000
0.208625 0.242750 0.000000
0.244063 0.242750 0.000000
0.279500 0.242750 0.000000
0.314938 0.242750 0.000000
0.350375 0.242750 0.000000
0.385813 0.242750 0.000000
0.421250 0.242750 0.000000
0.456688 0.242750 0.000000
0.492125 0.242750 0.000000
0.527562 0.242750 0.000000
0.563000 0.242750 0.000000
0.598437 0.242750 0.000000
0.633875 0.242750 0.000000
0.669312 0.242750 0.000000
0.704750 0.242750 0.000000
0.740187 0.242750 0.000000
0.775625 0.242750 0.000000
0.811062 0.242750 0.000000
0.846500 0.242750 0.000000
0.881938 0.242750 0.000000
0.917375 0.242750 0.000000
0.952813 0.242750 0.000000
0.988250 0.242750 0.000000
1.000000 0.242750 0.000000
1.000000 0.242750 0.000000
1.000000 0.242750 0.000000
1.000000 0.242750 0.000000
0.000000 0.276219 0.000000
0.031438 0.276219 0.000000
0.066875 0.276219 0.000000
0.102313 0.276219 0.000000
0.137750 0.276219 0.000000
0.173188 0.276219 0.000000
0.208625 0.276219 0.000000
0.244063 0.276219 0.000000
0.279500 0.276219 0.000000
0.314938 0.276219 0.000000
0.350375 0.276219 0.000000
0.385813 0.276219 0.000000
0.421250 0.276219 0.000000
0.456688 0.276219 0.000000
0.492125 0.276219 0.000000
0.527562 0.276219 0.000000
0.563000 0.276219 0.000000
0.598437 0.276219 0.000000
0.633875 0.276219 0.000000
0.669312 0.276219 0.000000
0.704750 0.276219 0.000000
0.740187 0.276219 0.000000
0.775625 0.276219 0.000000
0.811062 0.276219 0.000000
0.846500 0.276219 0.000000
0.881938 0.276219 0.000000
0.917375 0.276219 0.000000
0.952813 0.276219 0.000000
0.988250 0.276219 0.000000
1.000000 0.276219 0.000000
1.000000 0.276219 0.000000
1.000000 0.276219 0.000000
1.000000 0.276219 0.000000
0.000000 0.309687 0.000000
0.031438 0.309687 0.000000
0.066875 0.309687 0.000000
0.102313 0.309687 0.000000
0.137750 0.309687 0.000000
0.173188 0.309687 0.000000
0.208625 0.309687 0.000000
0.244063 0.309687 0.000000
0.279500 0.309687 0.000000
0.314938 0.309687 0.000000
0.350375 0.309687 0.000000
0.385813 0.309687 0.000000
0.421250 0.309687 0.000000
0.456688 0.309687 0.000000
0.492125 0.309687 0.000000
0.527562 0.309687 0.000000
0.563000 0.309687 0.000000
0.598437 0.309687 0.000000
0.633875 0.309687 0.000000
0.669312 0.309687 0.000000
0.704750 0.309687 0.000000
0.740187 0.309687 0.000000
0.775625 0.309687 0.000000
0.811062 0.309687 0.000000
0.846500 0.309687 0.000000
0.881938 0.309687 0.000000
0.917375 0.309687 0.000000
0.952813 0.309687 0.000000
0.988250 0.309687 0.000000
1.000000 0.309687 0.000000
1.000000 0.309687 0.000000
1.000000 0.309687 0.000000
1.000000 0.309687 0.000000
0.000000 0.343156 0.000000
0.031438 0.343156 0.000000
0.066875 0.343156 0.000000
0.102313 0.343156 0.000000
0.137750 0.343156 0.000000
0.173188 0.343156 0.000000
0.208625 0.343156 0.000000
0.244063 0.343156 0.000000
0.279500 0.343156 0.000000
0.314938 0.343156 0.000000
0.350375 0.343156 0.000000
0.385813 0.343156 0.000000
0.421250 0.343156 0.000000
0.456688 0.343156 0.000000
0.492125 0.343156 0.000000
0.527562 0.343156 0.000000
0.563000 0.343156 0.000000
0.598437 0.343156 0.000000
0.633875 0.343156 0.000000
0.669312 0.343156 0.000000
0.704750 0.343156 0.000000
0.740187 0.343156 0.000000
0.775625 0.343156 0.000000
0.811062 0.343156 0.000000
0.846500 0.343156 0.000000
0.881938 0.343156 0.000000
0.917375 0.343156 0.000000
0.952813 0.343156 0.000000
0.988250 0.343156 0.000000
1.000000 0.343156 0.000000
1.000000 0.343156 0.000000
1.000000 0.343156 0.000000
1.000000 0.343156 0.000000
0.000000 0.376625 0.000000
0.031438 0.376625 0.000000
0.066875 0.376625 0.000000
0.102313 0.376625 0.000000
0.137750 0.376625 0.000000
0.173188 0.376625 0.000000
0.208625 0.376625 0.000000
0.244063 0.376625 0.000000
0.279500 0.376625 0.000000
0.314938 0.376625 0.000000
0.350375 0.376625 0.000000
0.385813 0.376625 0.000000
0.421250 0.376625 0.000000
0.456688 0.376625 0.000000
0.492125 0.376625 0.000000
0.527562 0.376625 0.000000
0.563000 0.376625 0.000000
0.598437 0.376625 0.000000
0.633875 0.376625 0.000000
0.669312 0.376625 0.000000
0.704750 0.376625 0.000000
0.740187 0.376625 0.000000
0.775625 0.376625 0.000000
0.811062 0.376625 0.000000
0.846500 0.376625 0.000000
0.881938 0.376625 0.000000
0.917375 0.376625 0.000000
0.952813 0.376625 0.000000
0.988250 0.376625 0.000000
1.000000 0.376625 0.000000
1.000000 0.376625 0.000000
1.000000 0.376625 0.000000
1.000000 0.376625 0.000000
0.000000 0.410094 0.000000
0.031438 0.410094 0.000000
0.066875 0.410094 0.000000
0.102313 0.410094 0.000000
0.137750 0.410094 0.000000
0.173188 0.410094 0.000000
0.208625 0.410094 0.000000
0.244063 0.410094 0.000000
0.279500 0.410094 0.000000
0.314938 0.410094 0.000000
0.350375 0.410094 0.000000
0.385813 0.410094 0.000000
0.421250 0.410094 0.000000
0.456688 0.410094 0.000000
0.492125 0.410094 0.000000
0.527562 0.410094 0.000000
0.563000 0.410094 0.000000
0.598437 0.410094 0.000000
0.633875 0.410094 0.000000
0.669312 0.410094 0.000000
0.704750 0.410094 0.000000
0.740187 0.410094 0.000000
0.775625 0.410094 0.000000
0.811062 0.410094 0.000000
0.846500 0.410094 0.000000
0.881938 0.410094 0.000000
0.917375 0.410094 0.000000
0.952813 0.410094 0.000000
0.988250 0.410094 0.000000
1.000000 0.410094 0.000000
1.000000 0.410094 0.000000
1.000000 0.410094 0.000000
1.000000 0.410094 0.000000
0.000000 0.443563 0.000000
0.031438 0.443563 0.000000
0.066875 0.443563 0.000000
0.102313 0.443563 0.000000
0.137750 0.443563 0.000000
0.173188 0.443563 0.000000
0.208625 0.443563 0.000000
0.244063 0.443563 0.000000
0.279500 0.443563 0.000000
0.314938 0.443563 0.000000
0.350375 0.443563 0.000000
0.385813 0.443563 0.000000
0.421250 0.443563 0.000000
0.456688 0.443563 0.000000
0.492125 0.443563 0.000000
0.527562 0.443563 0.000000
0.563000 0.443563 0.000000
0.598437 0.443563 0.000000
0.633875 0.443563 0.000000
0.669312 0.443563 0.000000
0.704750 0.443563 0.000000
0.740187 0.443563 0.000000
0.775625 0.443563 0.000000
0.811062 0.443563 0.000000
0.846500 0.443563 0.000000
0.881938 0.443563 0.000000
0.917375 0.443563 0.000000
0.952813 0.443563 0.000000
0.988250 0.443563 0.000000
1.000000 0.443563 0.000000
1.000000 0.443563 0.000000
1.000000 0.443563 0.000000
1.000000 0.443563 0.000000
0.000000 0.477031 0.000000
0.031438 0.477031 0.000000
0.066875 0.477031 0.000000
0.102313 0.477031 0.000000
0.137750 0.477031 0.000000
0.173188 0.477031 0.000000
0.208625 0.477031 0.000000
0.244063 0.477031 0.000000
0.279500 0.477031 0.000000
0.314938 0.477031 0.000000
0.350375 0.477031 0.000000
0.385813 0.477031 0.000000
0.421250 0.477031 0.000000
0.456688 0.477031 0.000000
0.492125 0.477031 0.000000
0.527562 0.477031 0.000000
0.563000 0.477031 0.000000
0.598437 0.477031 0.000000
0.633875 0.477031 0.000000
0.669312 0.477031 0.000000
0.704750 0.477031 0.000000
0.740187 0.477031 0.000000
0.775625 0.477031 0.000000
0.811062 0.477031 0.000000
0.846500 0.477031 0.000000
0.881938 0.477031 0.000000
0.917375 0.477031 0.000000
0.952813 0.477031 0.000000
0.988250 0.477031 0.000000
1.000000 0.477031 0.000000
1.000000 0.477031 0.000000
1.000000 0.477031 0.000000
1.000000 0.477031 0.000000
0.000000 0.510500 0.000000
0.031438 0.510500 0.000000
0.066875 0.510500 0.000000
0.102313 0.510500 0.000000
0.137750 0.510500 0.000000
0.173188 0.510500 0.000000
0.208625 0.510500 0.000000
0.244063 0.510500 0.000000
0.279500 0.510500 0.000000
0.314938 0.510500 0.000000
0.350375 0.510500 0.000000
0.385813 0.510500 0.000000
0.421250 0.510500 0.000000
0.456688 0.510500 0.000000
0.492125 0.510500 0.000000
0.527562 0.510500 0.000000
0.563000 0.510500 0.000000
0.598437 0.510500 0.000000
0.633875 0.510500 0.000000
0.669312 0.510500 0.000000
0.704750 0.510500 0.000000
0.740187 0.510500 0.000000
0.775625 0.510500 0.000000
0.811062 0.510500 0.000000
0.846500 0.510500 0.000000
0.881938 0.510500 0.000000
0.917375 0.510500 0.000000
0.952813 0.510500 0.000000
0.988250 0.510500 0.000000
1.000000 0.510500 0.000000
1.000000 0.510500 0.000000
1.000000 0.510500 0.000000
1.000000 0.510500 0.000000
0.000000 0.543969 0.000000
0.031438 0.543969 0.000000
0.066875 0.543969 0.000000
0.102313 0.543969 0.000000
0.137750 0.543969 0.000000
0.173188 0.543969 0.000000
0.208625 0.543969 0.000000
0.244063 0.543969 0.000000
0.279500 0.543969 0.000000
0.314938 0.543969 0.000000
0.350375 0.543969 0.000000
0.385813 0.543969 0.000000
0.421250 0.543969 0.000000
0.456688 0.543969 0.000000
0.492125 0.543969 0.000000
0.527562 0.543969 0.000000
0.563000 0.543969 0.000000
0.598437 0.543969 0.000000
0.633875 0.543969 0.000000
0.669312 0.543969 0.000000
0.704750 0.543969 0.000000
0.740187 0.543969 0.000000
0.775625 0.543969 0.000000
0.811062 0.543969 0.000000
0.846500 0.543969 0.000000
0.881938 0.543969 0.000000
0.917375 0.543969 0.000000
0.952813 0.543969 0.000000
0.988250 0.543969 0.000000
1.000000 0.543969 0.000000
1.000000 0.543969 0.000000
1.000000 0.543969 0.000000
1.000000 0.543969 0.000000
0.000000 0.577438 0.000000
0.031438 0.577438 0.000000
0.066875 0.577438 0.000000
0.102313 0.577438 0.000000
0.137750 0.577438 0.000000
0.173188 0.577438 0.000000
0.208625 0.577438 0.000000
0.244063 0.577438 0.000000
0.279500 0.577438 0.000000
0.314938 0.577438 0.000000
0.350375 0.577438 0.000000
0.385813 0.577438 0.000000
0.421250 0.577438 0.000000
0.456688 0.577438 0.000000
0.492125 0.577438 0.000000
0.527562 0.577438 0.000000
0.563000 0.577438 0.000000
0.598437 0.577438 0.000000
0.633875 0.577438 0.000000
0.669312 0.577438 0.000000
0.704750 0.577438 0.000000
0.740187 0.577438 0.000000
0.775625 0.577438 0.000000
0.811062 0.577438 0.000000
0.846500 0.577438 0.000000
0.881938 0.577438 0.000000
0.917375 0.577438 0.000000
0.952813 0.577438 0.000000
0.988250 0.577438 0.000000
1.000000 0.577438 0.000000
1.000000 0.577438 0.000000
1.000000 0.577438 0.000000
1.000000 0.577438 0.000000
0.000000 0.610906 0.000000
0.031438 0.610906 0.000000
0.066875 0.610906 0.000000
0.102313 0.610906 0.000000
0.137750 0.610906 0.000000
0.173188 0.610906 0.000000
0.208625 0.610906 0.000000
0.244063 0.610906 0.000000
0.279500 0.610906 0.000000
0.314938 0.610906 0.000000
0.350375 0.610906 0.000000
0.385813 0.610906 0.000000
0.421250 0.610906 0.000000
0.456688 0.610906 0.000000
0.492125 0.610906 0.000000
0.527562 0.610906 0.000000
0.563000 0.610906 0.000000
0.598437 0.610906 0.000000
0.633875 0.610906 0.000000
0.669312 0.610906 0.000000
0.704750 0.610906 0.000000
0.740187 0.610906 0.000000
0.775625 0.610906 0.000000
0.811062 0.610906 0.000000
0.846500 0.610906 0.000000
0.881938 0.610906 0.000000
0.917375 0.610906 0.000000
0.952813 0.610906 0.000000
0.988250 0.610906 0.000000
1.000000 0.610906 0.000000
1.000000 0.610906 0.000000
1.000000 0.610906 0.000000
1.000000 0.610906 0.000000
0.000000 0.644375 0.000000
0.031438 0.644375 0.000000
0.066875 0.644375 0.000000
0.102313 0.644375 0.000000
0.137750 0.644375 0.000000
0.173188 0.644375 0.000000
0.208625 0.644375 0.000000
0.244063 0.644375 0.000000
0.279500 0.644375 0.000000
0.314938 0.644375 0.000000
0.350375 0.644375 0.000000
0.385813 0.644375 0.000000
0.421250 0.644375 0.000000
0.456688 0.644375 0.000000
0.492125 0.644375 0.000000
0.527562 0.644375 0.000000
0.563000 0.644375 0.000000
0.598437 0.644375 0.000000
0.633875 0.644375 0.000000
0.669312 0.644375 0.000000
0.704750 0.644375 0.000000
0.740187 0.644375 0.000000
0.775625 0.644375 0.000000
0.811062 0.644375 0.000000
0.846500 0.644375 0.000000
0.881938 0.644375 0.000000
0.917375 0.644375 0.000000
0.952813 0.644375 0.000000
0.988250 0.644375 0.000000
1.000000 0.644375 0.000000
1.000000 0.644375 0.000000
1.000000 0.644375 0.000000
1.000000 0.644375 0.000000
0.000000 0.677844 0.000000
0.031438 0.677844 0.000000
0.066875 0.677844 0.000000
0.102313 0.677844 0.000000
0.137750 0.677844 0.000000
0.173188 0.677844 0.000000
0.208625 0.677844 0.000000
0.244063 0.677844 0.000000
0.279500 0.677844 0.000000
0.314938 0.677844 0.000000
0.350375 0.677844 0.000000
0.385813 0.677844 0.000000
0.421250 0.677844 0.000000
0.456688 0.677844 0.000000
0.492125 0.677844 0.000000
0.527562 0.677844 0.000000
0.563000 0.677844 0.000000
0.598437 0.677844 0.000000
0.633875 0.677844 0.000000
0.669312 0.677844 0.000000
0.704750 0.677844 0.000000
0.740187 0.677844 0.000000
0.775625 0.677844 0.000000
0.811062 0.677844 0.000000
0.846500 0.677844 0.000000
0.881938 0.677844 0.000000
0.917375 0.677844 0.000000
0.952813 0.677844 0.000000
0.988250 0.677844 0.000000
1.000000 0.677844 0.000000
1.000000 0.677844 0.000000
1.000000 0.677844 0.000000
1.000000 0.677844 0.000000
0.000000 0.711312 0.000000
0.031438 0.711312 0.000000
0.066875 0.711312 0.000000
0.102313 0.711312 0.000000
0.137750 0.711312 0.000000
0.173188 0.711312 0.000000
0.208625 0.711312 0.000000
0.244063 0.711312 0.000000
0.279500 0.711312 0.000000
0.314938 0.711312 0.000000
0.350375 0.711312 0.000000
0.385813 0.711312 0.000000
0.421250 0.711312 0.000000
0.456688 0.711312 0.000000
0.492125 0.711312 0.000000
0.527562 0.711312 0.000000
0.563000 0.711312 0.000000
0.598437 0.711312 0.000000
0.633875 0.711312 0.000000
0.669312 0.711312 0.000000
0.704750 0.711312 0.000000
0.740187 0.711312 0.000000
0.775625 0.711312 0.000000
0.811062 0.711312 0.000000
0.846500 0.711312 0.000000
0.881938 0.711312 0.000000
0.917375 0.711312 0.000000
0.952813 0.711312 0.000000
0.988250 0.711312 0.000000
1.000000 0.711312 0.000000
1.000000 0.711312 0.000000
1.000000 0.711312 0.000000
1.000000 0.711312 0.000000
0.000000 0.744781 0.000000
0.031438 0.744781 0.000000
0.066875 0.744781 0.000000
0.102313 0.744781 0.000000
0.137750 0.744781 0.000000
0.173188 0.744781 0.000000
0.208625 0.744781 0.000000
0.244063 0.744781 0.000000
0.279500 0.744781 0.000000
0.314938 0.744781 0.000000
0.350375 0.744781 0.000000
0.385813 0.744781 0.000000
0.421250 0.744781 0.000000
0.456688 0.744781 0.000000
0.492125 0.744781 0.000000
0.527562 0.744781 0.000000
0.563000 0.744781 0.000000
0.598437 0.744781 0.000000
0.633875 0.744781 0.000000
0.669312 0.744781 0.000000
0.704750 0.744781 0.000000
0.740187 0.744781 0.000000
0.775625 0.744781 0.000000
0.811062 0.744781 0.000000
0.846500 0.744781 0.000000
0.881938 0.744781 0.000000
0.917375 0.744781 0.000000
0.952813 0.744781 0.000000
0.988250 0.744781 0.000000
1.000000 0.744781 0.000000
1.000000 0.744781 0.000000
1.000000 0.744781 0.000000
1.000000 0.744781 0.000000
0.000000 0.778250 0.000000
0.031438 0.778250 0.000000
0.066875 0.778250 0.000000
0.102313 0.778250 0.000000
0.137750 0.778250 0.000000
0.173188 0.778250 0.000000
0.208625 0.778250 0.000000
0.244063 0.778250 0.000000
0.279500 0.778250 0.000000
0.314938 0.778250 0.000000
0.350375 0.778250 0.000000
0.385813 0.778250 0.000000
0.421250 0.778250 0.000000
0.456688 0.778250 0.000000
0.492125 0.778250 0.000000
0.527562 0.778250 0.000000
0.563000 0.778250 0.000000
0.598437 0.778250 0.000000
0.633875 0.778250 0.000000
0.669312 0.778250 0.000000
0.704750 0.778250 0.000000
0.740187 0.778250 0.000000
0.775625 0.778250 0.000000
0.811062 0.778250 0.000000
0.846500 0.778250 0.000000
0.881938 0.778250 0.000000
0.917375 0.778250 0.000000
0.952813 0.778250 0.000000
0.988250 0.778250 0.000000
1.000000 0.778250 0.000000
1.000000 0.778250 0.000000
1.000000 0.778250 0.000000
1.000000 0.778250 0.000000
0.000000 0.811719 0.000000
0.031438 0.811719 0.000000
0.066875 0.811719 0.000000
0.102313 0.811719 0.000000
0.137750 0.811719 0.000000
0.173188 0.811719 0.000000
0.208625 0.811719 0.000000
0.244063 0.811719 0.000000
0.279500 0.811719 0.000000
0.314938 0.811719 0.000000
0.350375 0.811719 0.000000
0.385813 0.811719 0.000000
0.421250 0.811719 0.000000
0.456688 0.811719 0.000000
0.492125 0.811719 0.000000
0.527562 0.811719 0.000000
0.563000 0.811719 0.000000
0.598437 0.811719 0.000000
0.633875 0.811719 0.000000
0.669312 0.811719 0.000000
0.704750 0.811719 0.000000
0.740187 0.811719 0.000000
0.775625 0.811719 0.000000
0.811062 0.811719 0.000000
0.846500 0.811719 0.000000
0.881938 0.811719 0.000000
0.917375 0.811719 0.000000
0.952813 0.811719 0.000000
0.988250 0.811719 0.000000
1.000000 0.811719 0.000000
1.000000 0.811719 0.000000
1.000000 0.811719 0.000000
1.000000 0.811719 0.000000
0.000000 0.845187 0.000000
0.031438 0.845187 0.000000
0.066875 0.845187 0.000000
0.102313 0.845187 0.000000
0.137750 0.845187 0.000000
0.173188 0.845187 0.000000
0.208625 0.845187 0.000000
0.244063 0.845187 0.000000
0.279500 0.845187 0.000000
0.314938 0.845187 0.000000
0.350375 0.845187 0.000000
0.385813 0.845187 0.000000
0.421250 0.845187 0.000000
0.456688 0.845187 0.000000
0.492125 0.845187 0.000000
0.527562 0.845187 0.000000
0.563000 0.845187 0.000000
0.598437 0.845187 0.000000
0.633875 0.845187 0.000000
0.669312 0.845187 0.000000
0.704750 0.845187 0.000000
0.740187 0.845187 0.000000
0.775625 0.845187 0.000000
0.811062 0.845187 0.000000
0.846500 0.845187 0.000000
0.881938 0.845187 0.000000
0.917375 0.845187 0.000000
