backend/luts/warm_summer.cube
TITLE "Warm Summer"
LUT_3D_SIZE 5
DOMAIN_MIN 0.0 0.0 0.0
DOMAIN_MAX 1.0 1.0 1.0
0.000000 0.000000 0.000000
0.279500 0.000000 0.000000
0.563000 0.000000 0.000000
0.846500 0.000000 0.000000
1.000000 0.000000 0.000000
0.000000 0.242750 0.000000
0.279500 0.242750 0.000000
0.563000 0.242750 0.000000
0.846500 0.242750 0.000000
1.000000 0.242750 0.000000
0.000000 0.510500 0.000000
0.279500 0.510500 0.000000
0.563000 0.510500 0.000000
0.846500 0.510500 0.000000
1.000000 0.510500 0.000000
0.000000 0.778250 0.000000
0.279500 0.778250 0.000000
0.563000 0.778250 0.000000
0.846500 0.778250 0.000000
1.000000 0.778250 0.000000
0.000000 1.000000 0.000000
0.279500 1.000000 0.000000
0.563000 1.000000 0.000000
0.846500 1.000000 0.000000
1.000000 1.000000 0.000000
0.000000 0.000000 0.211250
0.279500 0.000000 0.211250
0.563000 0.000000 0.211250
0.846500 0.000000 0.211250
1.000000 0.000000 0.211250
0.000000 0.242750 0.211250
0.279500 0.242750 0.211250
0.563000 0.242750 0.211250
0.846500 0.242750 0.211250
1.000000 0.242750 0.211250
0.000000 0.510500 0.211250
0.279500 0.510500 0.211250
0.563000 0.510500 0.211250
0.846500 0.510500 0.211250
1.000000 0.510500 0.211250
0.000000 0.778250 0.211250
0.279500 0.778250 0.211250
0.563000 0.778250 0.211250
0.846500 0.778250 0.211250
1.000000 0.778250 0.211250
0.000000 1.000000 0.211250
0.279500 1.000000 0.211250
0.563000 1.000000 0.211250
0.846500 1.000000 0.211250
1.000000 1.000000 0.211250
0.000000 0.000000 0.447500
0.279500 0.000000 0.447500
0.563000 0.000000 0.447500
0.846500 0.000000 0.447500
1.000000 0.000000 0.447500
0.000000 0.242750 0.447500
0.279500 0.242750 0.447500
0.563000 0.242750 0.447500
0.846500 0.242750 0.447500
1.000000 0.242750 0.447500
0.000000 0.510500 0.447500
0.279500 0.510500 0.447500
0.563000 0.510500 0.447500
0.846500 0.510500 0.447500
1.000000 0.510500 0.447500
0.000000 0.778250 0.447500
0.279500 0.778250 0.447500
0.563000 0.778250 0.447500
0.846500 0.778250 0.447500
1.000000 0.778250 0.447500
0.000000 1.000000 0.447500
0.279500 1.000000 0.447500
0.563000 1.000000 0.447500
0.846500 1.000000 0.447500
1.000000 1.000000 0.447500
0.000000 0.000000 0.683750
0.279500 0.000000 0.683750
0.563000 0.000000 0.683750
0.846500 0.000000 0.683750
1.000000 0.000000 0.683750
0.000000 0.242750 0.683750
0.279500 0.242750 0.683750
0.563000 0.242750 0.683750
0.846500 0.242750 0.683750
1.000000 0.242750 0.683750
0.000000 0.510500 0.683750
0.279500 0.510500 0.683750
0.563000 0.510500 0.683750
0.846500 0.510500 0.683750
1.000000 0.510500 0.683750
0.000000 0.778250 0.683750
0.279500 0.778250 0.683750
0.563000 0.778250 0.683750
0.846500 0.778250 0.683750
1.000000 0.778250 0.683750
0.000000 1.000000 0.683750
0.279500 1.000000 0.683750
0.563000 1.000000 0.683750
0.846500 1.000000 0.683750
1.000000 1.000000 0.683750
0.000000 0.000000 0.920000
0.279500 0.000000 0.920000
0.563000 0.000000 0.920000
0.846500 0.000000 0.920000
1.000000 0.000000 0.920000
0.000000 0.242750 0.920000
0.279500 0.242750 0.920000
0.563000 0.242750 0.920000
0.846500 0.242750 0.920000
1.000000 0.242750 0.920000
0.000000 0.510500 0.920000
0.279500 0.510500 0.920000
0.563000 0.510500 0.920000
0.846500 0.510500 0.920000
1.000000 0.510500 0.920000
0.000000 0.778250 0.920000
0.279500 0.778250 0.920000
0.563000 0.778250 0.920000
0.846500 0.778250 0.920000
1.000000 0.778250 0.920000
0.000000 1.000000 0.920000
0.279500 1.000000 0.920000
0.563000 1.000000 0.920000
0.846500 1.000000 0.920000
1.000000 1.000000 0.920000
