backend/luts/warm_summer.cube
TITLE "Warm Summer"
LUT_3D_SIZE 9
DOMAIN_MIN 0.0 0.0 0.0
DOMAIN_MAX 1.0 1.0 1.0
0.000000 0.000000 0.000000
0.137750 0.000000 0.000000
0.279500 0.000000 0.000000
0.421250 0.000000 0.000000
0.563000 0.000000 0.000000
0.704750 0.000000 0.000000
0.846500 0.000000 0.000000
0.988250 0.000000 0.000000
1.000000 0.000000 0.000000
0.000000 0.108875 0.000000
0.137750 0.108875 0.000000
0.279500 0.108875 0.000000
0.421250 0.108875 0.000000
0.563000 0.108875 0.000000
0.704750 0.108875 0.000000
0.846500 0.108875 0.000000
0.988250 0.108875 0.000000
1.000000 0.108875 0.000000
0.000000 0.242750 0.000000
0.137750 0.242750 0.000000
0.279500 0.242750 0.000000
0.421250 0.242750 0.000000
0.563000 0.242750 0.000000
0.704750 0.242750 0.000000
0.846500 0.242750 0.000000
0.988250 0.242750 0.000000
1.000000 0.242750 0.000000
0.000000 0.376625 0.000000
0.137750 0.376625 0.000000
0.279500 0.376625 0.000000
0.421250 0.376625 0.000000
0.563000 0.376625 0.000000
0.704750 0.376625 0.000000
0.846500 0.376625 0.000000
0.988250 0.376625 0.000000
1.000000 0.376625 0.000000
0.000000 0.510500 0.000000
0.137750 0.510500 0.000000
0.279500 0.510500 0.000000
0.421250 0.510500 0.000000
0.563000 0.510500 0.000000
0.704750 0.510500 0.000000
0.846500 0.510500 0.000000
0.988250 0.510500 0.000000
1.000000 0.510500 0.000000
0.000000 0.644375 0.000000
0.137750 0.644375 0.000000
0.279500 0.644375 0.000000
0.421250 0.644375 0.000000
0.563000 0.644375 0.000000
0.704750 0.644375 0.000000
0.846500 0.644375 0.000000
0.988250 0.644375 0.000000
1.000000 0.644375 0.000000
0.000000 0.778250 0.000000
0.137750 0.778250 0.000000
0.279500 0.778250 0.000000
0.421250 0.778250 0.000000
0.563000 0.778250 0.000000
0.704750 0.778250 0.000000
0.846500 0.778250 0.000000
0.988250 0.778250 0.000000
1.000000 0.778250 0.000000
0.000000 0.912125 0.000000
0.137750 0.912125 0.000000
0.279500 0.912125 0.000000
0.421250 0.912125 0.000000
0.563000 0.912125 0.000000
0.704750 0.912125 0.000000
0.846500 0.912125 0.000000
0.988250 0.912125 0.000000
1.000000 0.912125 0.000000
0.000000 1.000000 0.000000
0.137750 1.000000 0.000000
0.279500 1.000000 0.000000
0.421250 1.000000 0.000000
0.563000 1.000000 0.000000
0.704750 1.000000 0.000000
0.846500 1.000000 0.000000
0.988250 1.000000 0.000000
1.000000 1.000000 0.000000
0.000000 0.000000 0.093125
0.137750 0.000000 0.093125
0.279500 0.000000 0.093125
0.421250 0.000000 0.093125
0.563000 0.000000 0.093125
0.704750 0.000000 0.093125
0.846500 0.000000 0.093125
0.988250 0.000000 0.093125
1.000000 0.000000 0.093125
0.000000 0.108875 0.093125
0.137750 0.108875 0.093125
0.279500 0.108875 0.093125
0.421250 0.108875 0.093125
0.563000 0.108875 0.093125
0.704750 0.108875 0.093125
0.846500 0.108875 0.093125
0.988250 0.108875 0.093125
1.000000 0.108875 0.093125
0.000000 0.242750 0.093125
0.137750 0.242750 0.093125
0.279500 0.242750 0.093125
0.421250 0.242750 0.093125
0.563000 0.242750 0.093125
0.704750 0.242750 0.093125
0.846500 0.242750 0.093125
0.988250 0.242750 0.093125
1.000000 0.242750 0.093125
0.000000 0.376625 0.093125
0.137750 0.376625 0.093125
0.279500 0.376625 0.093125
0.421250 0.376625 0.093125
0.563000 0.376625 0.093125
0.704750 0.376625 0.093125
0.846500 0.376625 0.093125
0.988250 0.376625 0.093125
1.000000 0.376625 0.093125
0.000000 0.510500 0.093125
0.137750 0.510500 0.093125
0.279500 0.510500 0.093125
0.421250 0.510500 0.093125
0.563000 0.510500 0.093125
0.704750 0.510500 0.093125
0.846500 0.510500 0.093125
0.988250 0.510500 0.093125
1.000000 0.510500 0.093125
0.000000 0.644375 0.093125
0.137750 0.644375 0.093125
0.279500 0.644375 0.093125
0.421250 0.644375 0.093125
0.563000 0.644375 0.093125
0.704750 0.644375 0.093125
0.846500 0.644375 0.093125
0.988250 0.644375 0.093125
1.000000 0.644375 0.093125
0.000000 0.778250 0.093125
0.137750 0.778250 0.093125
0.279500 0.778250 0.093125
0.421250 0.778250 0.093125
0.563000 0.778250 0.093125
0.704750 0.778250 0.093125
0.846500 0.778250 0.093125
0.988250 0.778250 0.093125
1.000000 0.778250 0.093125
0.000000 0.912125 0.093125
0.137750 0.912125 0.093125
0.279500 0.912125 0.093125
0.421250 0.912125 0.093125
0.563000 0.912125 0.093125
0.704750 0.912125 0.093125
0.846500 0.912125 0.093125
0.988250 0.912125 0.093125
1.000000 0.912125 0.093125
0.000000 1.000000 0.093125
0.137750 1.000000 0.093125
0.279500 1.000000 0.093125
0.421250 1.000000 0.093125
0.563000 1.000000 0.093125
0.704750 1.000000 0.093125
0.846500 1.000000 0.093125
0.988250 1.000000 0.093125
1.000000 1.000000 0.093125
0.000000 0.000000 0.211250
0.137750 0.000000 0.211250
0.279500 0.000000 0.211250
0.421250 0.000000 0.211250
0.563000 0.000000 0.211250
0.704750 0.000000 0.211250
0.846500 0.000000 0.211250
0.988250 0.000000 0.211250
1.000000 0.000000 0.211250
0.000000 0.108875 0.211250
0.137750 0.108875 0.211250
0.279500 0.108875 0.211250
0.421250 0.108875 0.211250
0.563000 0.108875 0.211250
0.704750 0.108875 0.211250
0.846500 0.108875 0.211250
0.988250 0.108875 0.211250
1.000000 0.108875 0.211250
0.000000 0.242750 0.211250
0.137750 0.242750 0.211250
0.279500 0.242750 0.211250
0.421250 0.242750 0.211250
0.563000 0.242750 0.211250
0.704750 0.242750 0.211250
0.846500 0.242750 0.211250
0.988250 0.242750 0.211250
1.000000 0.242750 0.211250
0.000000 0.376625 0.211250
0.137750 0.376625 0.211250
0.279500 0.376625 0.211250
0.421250 0.376625 0.211250
0.563000 0.376625 0.211250
0.704750 0.376625 0.211250
0.846500 0.376625 0.211250
0.988250 0.376625 0.211250
1.000000 0.376625 0.211250
0.000000 0.510500 0.211250
0.137750 0.510500 0.211250
0.279500 0.510500 0.211250
0.421250 0.510500 0.211250
0.563000 0.510500 0.211250
0.704750 0.510500 0.211250
0.846500 0.510500 0.211250
0.988250 0.510500 0.211250
1.000000 0.510500 0.211250
0.000000 0.644375 0.211250
0.137750 0.644375 0.211250
0.279500 0.644375 0.211250
0.421250 0.644375 0.211250
0.563000 0.644375 0.211250
0.704750 0.644375 0.211250
0.846500 0.644375 0.211250
0.988250 0.644375 0.211250
1.000000 0.644375 0.211250
0.000000 0.778250 0.211250
0.137750 0.778250 0.211250
0.279500 0.778250 0.211250
0.421250 0.778250 0.211250
0.563000 0.778250 0.211250
0.704750 0.778250 0.211250
0.846500 0.778250 0.211250
0.988250 0.778250 0.211250
1.000000 0.778250 0.211250
0.000000 0.912125 0.211250
0.137750 0.912125 0.211250
0.279500 0.912125 0.211250
0.421250 0.912125 0.211250
0.563000 0.912125 0.211250
0.704750 0.912125 0.211250
0.846500 0.912125 0.211250
0.988250 0.912125 0.211250
1.000000 0.912125 0.211250
0.000000 1.000000 0.211250
0.137750 1.000000 0.211250
0.279500 1.000000 0.211250
0.421250 1.000000 0.211250
0.563000 1.000000 0.211250
0.704750 1.000000 0.211250
0.846500 1.000000 0.211250
0.988250 1.000000 0.211250
1.000000 1.000000 0.211250
0.000000 0.000000 0.329375
0.137750 0.000000 0.329375
0.279500 0.000000 0.329375
0.421250 0.000000 0.329375
0.563000 0.000000 0.329375
0.704750 0.000000 0.329375
0.846500 0.000000 0.329375
0.988250 0.000000 0.329375
1.000000 0.000000 0.329375
0.000000 0.108875 0.329375
0.137750 0.108875 0.329375
0.279500 0.108875 0.329375
0.421250 0.108875 0.329375
0.563000 0.108875 0.329375
0.704750 0.108875 0.329375
0.846500 0.108875 0.329375
0.988250 0.108875 0.329375
1.000000 0.108875 0.329375
0.000000 0.242750 0.329375
0.137750 0.242750 0.329375
0.279500 0.242750 0.329375
0.421250 0.242750 0.329375
0.563000 0.242750 0.329375
0.704750 0.242750 0.329375
0.846500 0.242750 0.329375
0.988250 0.242750 0.329375
1.000000 0.242750 0.329375
0.000000 0.376625 0.329375
0.137750 0.376625 0.329375
0.279500 0.376625 0.329375
0.421250 0.376625 0.329375
0.563000 0.376625 0.329375
0.704750 0.376625 0.329375
0.846500 0.376625 0.329375
0.988250 0.376625 0.329375
1.000000 0.376625 0.329375
0.000000 0.510500 0.329375
0.137750 0.510500 0.329375
0.279500 0.510500 0.329375
0.421250 0.510500 0.329375
0.563000 0.510500 0.329375
0.704750 0.510500 0.329375
0.846500 0.510500 0.329375
0.988250 0.510500 0.329375
1.000000 0.510500 0.329375
0.000000 0.644375 0.329375
0.137750 0.644375 0.329375
0.279500 0.644375 0.329375
0.421250 0.644375 0.329375
0.563000 0.644375 0.329375
0.704750 0.644375 0.329375
0.846500 0.644375 0.329375
0.988250 0.644375 0.329375
1.000000 0.644375 0.329375
0.000000 0.778250 0.329375
0.137750 0.778250 0.329375
0.279500 0.778250 0.329375
0.421250 0.778250 0.329375
0.563000 0.778250 0.329375
0.704750 0.778250 0.329375
0.846500 0.778250 0.329375
0.988250 0.778250 0.329375
1.000000 0.778250 0.329375
0.000000 0.912125 0.329375
0.137750 0.912125 0.329375
0.279500 0.912125 0.329375
0.421250 0.912125 0.329375
0.563000 0.912125 0.329375
0.704750 0.912125 0.329375
0.846500 0.912125 0.329375
0.988250 0.912125 0.329375
1.000000 0.912125 0.329375
0.000000 1.000000 0.329375
0.137750 1.000000 0.329375
0.279500 1.000000 0.329375
0.421250 1.000000 0.329375
0.563000 1.000000 0.329375
0.704750 1.000000 0.329375
0.846500 1.000000 0.329375
0.988250 1.000000 0.329375
1.000000 1.000000 0.329375
0.000000 0.000000 0.447500
0.137750 0.000000 0.447500
0.279500 0.000000 0.447500
0.421250 0.000000 0.447500
0.563000 0.000000 0.447500
0.704750 0.000000 0.447500
0.846500 0.000000 0.447500
0.988250 0.000000 0.447500
1.000000 0.000000 0.447500
0.000000 0.108875 0.447500
0.137750 0.108875 0.447500
0.279500 0.108875 0.447500
0.421250 0.108875 0.447500
0.563000 0.108875 0.447500
0.704750 0.108875 0.447500
0.846500 0.108875 0.447500
0.988250 0.108875 0.447500
1.000000 0.108875 0.447500
0.000000 0.242750 0.447500
0.137750 0.242750 0.447500
0.279500 0.242750 0.447500
0.421250 0.242750 0.447500
0.563000 0.242750 0.447500
0.704750 0.242750 0.447500
0.846500 0.242750 0.447500
0.988250 0.242750 0.447500
1.000000 0.242750 0.447500
0.000000 0.376625 0.447500
0.137750 0.376625 0.447500
0.279500 0.376625 0.447500
0.421250 0.376625 0.447500
0.563000 0.376625 0.447500
0.704750 0.376625 0.447500
0.846500 0.376625 0.447500
0.988250 0.376625 0.447500
1.000000 0.376625 0.447500
0.000000 0.510500 0.447500
0.137750 0.510500 0.447500
0.279500 0.510500 0.447500
0.421250 0.510500 0.447500
0.563000 0.510500 0.447500
0.704750 0.510500 0.447500
0.846500 0.510500 0.447500
0.988250 0.510500 0.447500
1.000000 0.510500 0.447500
0.000000 0.644375 0.447500
0.137750 0.644375 0.447500
0.279500 0.644375 0.447500
0.421250 0.644375 0.447500
0.563000 0.644375 0.447500
0.704750 0.644375 0.447500
0.846500 0.644375 0.447500
0.988250 0.644375 0.447500
1.000000 0.644375 0.447500
0.000000 0.778250 0.447500
0.137750 0.778250 0.447500
0.279500 0.778250 0.447500
0.421250 0.778250 0.447500
0.563000 0.778250 0.447500
0.704750 0.778250 0.447500
0.846500 0.778250 0.447500
0.988250 0.778250 0.447500
1.000000 0.778250 0.447500
0.000000 0.912125 0.447500
0.137750 0.912125 0.447500
0.279500 0.912125 0.447500
0.421250 0.912125 0.447500
0.563000 0.912125 0.447500
0.704750 0.912125 0.447500
0.846500 0.912125 0.447500
0.988250 0.912125 0.447500
1.000000 0.912125 0.447500
0.000000 1.000000 0.447500
0.137750 1.000000 0.447500
0.279500 1.000000 0.447500
0.421250 1.000000 0.447500
0.563000 1.000000 0.447500
0.704750 1.000000 0.447500
0.846500 1.000000 0.447500
0.988250 1.000000 0.447500
1.000000 1.000000 0.447500
0.000000 0.000000 0.565625
0.137750 0.000000 0.565625
0.279500 0.000000 0.565625
0.421250 0.000000 0.565625
0.563000 0.000000 0.565625
0.704750 0.000000 0.565625
0.846500 0.000000 0.565625
0.988250 0.000000 0.565625
1.000000 0.000000 0.565625
0.000000 0.108875 0.565625
0.137750 0.108875 0.565625
0.279500 0.108875 0.565625
0.421250 0.108875 0.565625
0.563000 0.108875 0.565625
0.704750 0.108875 0.565625
0.846500 0.108875 0.565625
0.988250 0.108875 0.565625
1.000000 0.108875 0.565625
0.000000 0.242750 0.565625
0.137750 0.242750 0.565625
0.279500 0.242750 0.565625
0.421250 0.242750 0.565625
0.563000 0.242750 0.565625
0.704750 0.242750 0.565625
0.846500 0.242750 0.565625
0.988250 0.242750 0.565625
1.000000 0.242750 0.565625
0.000000 0.376625 0.565625
0.137750 0.376625 0.565625
0.279500 0.376625 0.565625
0.421250 0.376625 0.565625
0.563000 0.376625 0.565625
0.704750 0.376625 0.565625
0.846500 0.376625 0.565625
0.988250 0.376625 0.565625
1.000000 0.376625 0.565625
0.000000 0.510500 0.565625
0.137750 0.510500 0.565625
0.279500 0.510500 0.565625
0.421250 0.510500 0.565625
0.563000 0.510500 0.565625
0.704750 0.510500 0.565625
0.846500 0.510500 0.565625
0.988250 0.510500 0.565625
1.000000 0.510500 0.565625
0.000000 0.644375 0.565625
0.137750 0.644375 0.565625
0.279500 0.644375 0.565625
0.421250 0.644375 0.565625
0.563000 0.644375 0.565625
0.704750 0.644375 0.565625
0.846500 0.644375 0.565625
0.988250 0.644375 0.565625
1.000000 0.644375 0.565625
0.000000 0.778250 0.565625
0.137750 0.778250 0.565625
0.279500 0.778250 0.565625
0.421250 0.778250 0.565625
0.563000 0.778250 0.565625
0.704750 0.778250 0.565625
0.846500 0.778250 0.565625
0.988250 0.778250 0.565625
1.000000 0.778250 0.565625
0.000000 0.912125 0.565625
0.137750 0.912125 0.565625
0.279500 0.912125 0.565625
0.421250 0.912125 0.565625
0.563000 0.912125 0.565625
0.704750 0.912125 0.565625
0.846500 0.912125 0.565625
0.988250 0.912125 0.565625
1.000000 0.912125 0.565625
0.000000 1.000000 0.565625
0.137750 1.000000 0.565625
0.279500 1.000000 0.565625
0.421250 1.000000 0.565625
0.563000 1.000000 0.565625
0.704750 1.000000 0.565625
0.846500 1.000000 0.565625
0.988250 1.000000 0.565625
1.000000 1.000000 0.565625
0.000000 0.000000 0.683750
0.137750 0.000000 0.683750
0.279500 0.000000 0.683750
0.421250 0.000000 0.683750
0.563000 0.000000 0.683750
0.704750 0.000000 0.683750
0.846500 0.000000 0.683750
0.988250 0.000000 0.683750
1.000000 0.000000 0.683750
0.000000 0.108875 0.683750
0.137750 0.108875 0.683750
0.279500 0.108875 0.683750
0.421250 0.108875 0.683750
0.563000 0.108875 0.683750
0.704750 0.108875 0.683750
0.846500 0.108875 0.683750
0.988250 0.108875 0.683750
1.000000 0.108875 0.683750
0.000000 0.242750 0.683750
0.137750 0.242750 0.683750
0.279500 0.242750 0.683750
0.421250 0.242750 0.683750
0.563000 0.242750 0.683750
0.704750 0.242750 0.683750
0.846500 0.242750 0.683750
0.988250 0.242750 0.683750
1.000000 0.242750 0.683750
0.000000 0.376625 0.683750
0.137750 0.376625 0.683750
0.279500 0.376625 0.683750
0.421250 0.376625 0.683750
0.563000 0.376625 0.683750
0.704750 0.376625 0.683750
0.846500 0.376625 0.683750
0.988250 0.376625 0.683750
1.000000 0.376625 0.683750
0.000000 0.510500 0.683750
0.137750 0.510500 0.683750
0.279500 0.510500 0.683750
0.421250 0.510500 0.683750
0.563000 0.510500 0.683750
0.704750 0.510500 0.683750
0.846500 0.510500 0.683750
0.988250 0.510500 0.683750
1.000000 0.510500 0.683750
0.000000 0.644375 0.683750
0.137750 0.644375 0.683750
0.279500 0.644375 0.683750
0.421250 0.644375 0.683750
0.563000 0.644375 0.683750
0.704750 0.644375 0.683750
0.846500 0.644375 0.683750
0.988250 0.644375 0.683750
1.000000 0.644375 0.683750
0.000000 0.778250 0.683750
0.137750 0.778250 0.683750
0.279500 0.778250 0.683750
0.421250 0.778250 0.683750
0.563000 0.778250 0.683750
0.704750 0.778250 0.683750
0.846500 0.778250 0.683750
0.988250 0.778250 0.683750
1.000000 0.778250 0.683750
0.000000 0.912125 0.683750
0.137750 0.912125 0.683750
0.279500 0.912125 0.683750
0.421250 0.912125 0.683750
0.563000 0.912125 0.683750
0.704750 0.912125 0.683750
0.846500 0.912125 0.683750
0.988250 0.912125 0.683750
1.000000 0.912125 0.683750
0.000000 1.000000 0.683750
0.137750 1.000000 0.683750
0.279500 1.000000 0.683750
0.421250 1.000000 0.683750
0.563000 1.000000 0.683750
0.704750 1.000000 0.683750
0.846500 1.000000 0.683750
0.988250 1.000000 0.683750
1.000000 1.000000 0.683750
0.000000 0.000000 0.801875
0.137750 0.000000 0.801875
0.279500 0.000000 0.801875
0.421250 0.000000 0.801875
0.563000 0.000000 0.801875
0.704750 0.000000 0.801875
0.846500 0.000000 0.801875
0.988250 0.000000 0.801875
1.000000 0.000000 0.801875
0.000000 0.108875 0.801875
0.137750 0.108875 0.801875
0.279500 0.108875 0.801875
0.421250 0.108875 0.801875
0.563000 0.108875 0.801875
0.704750 0.108875 0.801875
0.846500 0.108875 0.801875
0.988250 0.108875 0.801875
1.000000 0.108875 0.801875
0.000000 0.242750 0.801875
0.137750 0.242750 0.801875
0.279500 0.242750 0.801875
0.421250 0.242750 0.801875
0.563000 0.242750 0.801875
0.704750 0.242750 0.801875
0.846500 0.242750 0.801875
0.988250 0.242750 0.801875
1.000000 0.242750 0.801875
0.000000 0.376625 0.801875
0.137750 0.376625 0.801875
0.279500 0.376625 0.801875
0.421250 0.376625 0.801875
0.563000 0.376625 0.801875
0.704750 0.376625 0.801875
0.846500 0.376625 0.801875
0.988250 0.376625 0.801875
1.000000 0.376625 0.801875
0.000000 0.510500 0.801875
0.137750 0.510500 0.801875
0.279500 0.510500 0.801875
0.421250 0.510500 0.801875
0.563000 0.510500 0.801875
0.704750 0.510500 0.801875
0.846500 0.510500 0.801875
0.988250 0.510500 0.801875
1.000000 0.510500 0.801875
0.000000 0.644375 0.801875
0.137750 0.644375 0.801875
0.279500 0.644375 0.801875
0.421250 0.644375 0.801875
0.563000 0.644375 0.801875
0.704750 0.644375 0.801875
0.846500 0.644375 0.801875
0.988250 0.644375 0.801875
1.000000 0.644375 0.801875
0.000000 0.778250 0.801875
0.137750 0.778250 0.801875
0.279500 0.778250 0.801875
0.421250 0.778250 0.801875
0.563000 0.778250 0.801875
0.704750 0.778250 0.801875
0.846500 0.778250 0.801875
0.988250 0.778250 0.801875
1.000000 0.778250 0.801875
0.000000 0.912125 0.801875
0.137750 0.912125 0.801875
0.279500 0.912125 0.801875
0.421250 0.912125 0.801875
0.563000 0.912125 0.801875
0.704750 0.912125 0.801875
0.846500 0.912125 0.801875
0.988250 0.912125 0.801875
1.000000 0.912125 0.801875
0.000000 1.000000 0.801875
0.137750 1.000000 0.801875
0.279500 1.000000 0.801875
0.421250 1.000000 0.801875
0.563000 1.000000 0.801875
0.704750 1.000000 0.801875
0.846500 1.000000 0.801875
0.988250 1.000000 0.801875
1.000000 1.000000 0.801875
0.000000 0.000000 0.920000
0.137750 0.000000 0.920000
0.279500 0.000000 0.920000
0.421250 0.000000 0.920000
0.563000 0.000000 0.920000
0.704750 0.000000 0.920000
0.846500 0.000000 0.920000
0.988250 0.000000 0.920000
1.000000 0.000000 0.920000
0.000000 0.108875 0.920000
0.137750 0.108875 0.920000
0.279500 0.108875 0.920000
0.421250 0.108875 0.920000
0.563000 0.108875 0.920000
0.704750 0.108875 0.920000
0.846500 0.108875 0.920000
0.988250 0.108875 0.920000
1.000000 0.108875 0.920000
0.000000 0.242750 0.920000
0.137750 0.242750 0.920000
0.279500 0.242750 0.920000
0.421250 0.242750 0.920000
0.563000 0.242750 0.920000
0.704750 0.242750 0.920000
0.846500 0.242750 0.920000
0.988250 0.242750 0.920000
1.000000 0.242750 0.920000
0.000000 0.376625 0.920000
0.137750 0.376625 0.920000
0.279500 0.376625 0.920000
0.421250 0.376625 0.920000
0.563000 0.376625 0.920000
0.704750 0.376625 0.920000
0.846500 0.376625 0.920000
0.988250 0.376625 0.920000
1.000000 0.376625 0.920000
0.000000 0.510500 0.920000
0.137750 0.510500 0.920000
0.279500 0.510500 0.920000
0.421250 0.510500 0.920000
0.563000 0.510500 0.920000
0.704750 0.510500 0.920000
0.846500 0.510500 0.920000
0.988250 0.510500 0.920000
1.000000 0.510500 0.920000
0.000000 0.644375 0.920000
0.137750 0.644375 0.920000
0.279500 0.644375 0.920000
0.421250 0.644375 0.920000
0.563000 0.644375 0.920000
0.704750 0.644375 0.920000
0.846500 0.644375 0.920000
0.988250 0.644375 0.920000
1.000000 0.644375 0.920000
0.000000 0.778250 0.920000
0.137750 0.778250 0.920000
0.279500 0.778250 0.920000
0.421250 0.778250 0.920000
0.563000 0.778250 0.920000
0.704750 0.778250 0.920000
0.846500 0.778250 0.920000
0.988250 0.778250 0.920000
1.000000 0.778250 0.920000
0.000000 0.912125 0.920000
0.137750 0.912125 0.920000
0.279500 0.912125 0.920000
0.421250 0.912125 0.920000
0.563000 0.912125 0.920000
0.704750 0.912125 0.920000
0.846500 0.912125 0.920000
0.988250 0.912125 0.920000
1.000000 0.912125 0.920000
0.000000 1.000000 0.920000
0.137750 1.000000 0.920000
0.279500 1.000000 0.920000
0.421250 1.000000 0.920000
0.563000 1.000000 0.920000
0.704750 1.000000 0.920000
0.846500 1.000000 0.920000
0.988250 1.000000 0.920000
1.000000 1.000000 0.920000
